usefulmove/code/maestro/PCR-211006-1030-SB4_384/PCR-211006-1030-SB4_384 -  Quantification Amplification Results_FAM.csv
,Cycle,A1,A2,A3,A4,A5,A6,A7,A8,A9,A10,A11,A12,A13,A14,A15,A16,A17,A18,A19,A20,A21,A22,A23,A24,B1,B2,B3,B4,B5,B6,B7,B8,B9,B10,B11,B12,B13,B14,B15,B16,B17,B18,B19,B20,B21,B22,B23,B24,C1,C2,C3,C4,C5,C6,C7,C8,C9,C10,C11,C12,C13,C14,C15,C16,C17,C18,C19,C20,C21,C22,C23,C24,D1,D2,D3,D4,D5,D6,D7,D8,D9,D10,D11,D12,D13,D14,D15,D16,D17,D18,D19,D20,D21,D22,D23,D24,E1,E2,E3,E4,E5,E6,E7,E8,E9,E10,E11,E12,E13,E14,E15,E16,E17,E18,E19,E20,E21,E22,E23,E24,F1,F2,F3,F4,F5,F6,F7,F8,F9,F10,F11,F12,F13,F14,F15,F16,F17,F18,F19,F20,F21,F22,F23,F24,G1,G2,G3,G4,G5,G6,G7,G8,G9,G10,G11,G12,G13,G14,G15,G16,G17,G18,G19,G20,G21,G22,G23,G24,H1,H2,H3,H4,H5,H6,H7,H8,H9,H10,H11,H12,H13,H14,H15,H16,H17,H18,H19,H20,H21,H22,H23,H24,I1,I2,I3,I4,I5,I6,I7,I8,I9,I10,I11,I12,I13,I14,I15,I16,I17,I18,I19,I20,I21,I22,I23,I24,J1,J2,J3,J4,J5,J6,J7,J8,J9,J10,J11,J12,J13,J14,J15,J16,J17,J18,J19,J20,J21,J22,J23,J24,K1,K2,K3,K4,K5,K6,K7,K8,K9,K10,K11,K12,K13,K14,K15,K16,K17,K18,K19,K20,K21,K22,K23,K24,L1,L2,L3,L4,L5,L6,L7,L8,L9,L10,L11,L12,L13,L14,L15,L16,L17,L18,L19,L20,L21,L22,L23,L24,M1,M2,M3,M4,M5,M6,M7,M8,M9,M10,M11,M12,M13,M14,M15,M16,M17,M18,M19,M20,M21,M22,M23,M24,N1,N2,N3,N4,N5,N6,N7,N8,N9,N10,N11,N12,N13,N14,N15,N16,N17,N18,N19,N20,N21,N22,N23,N24,O1,O2,O3,O4,O5,O6,O7,O8,O9,O10,O11,O12,O13,O14,O15,O16,O17,O18,O19,O20,O21,O22,O23,O24,P1,P2,P3,P4,P5,P6,P7,P8,P9,P10,P11,P12,P13,P14,P15,P16,P17,P18,P19,P20,P21,P22,P23,P24
,1,10.7617831880953,4.89018929461599,6.57587908261849,19.9484984370024,38.8024058396741,18.8455675444693,25.3968685948685,16.5626170805513,25.064583732244,26.6905265248083,17.1516001676018,25.7983325155046,5.38189198613236,14.3518814770664,11.0025852601693,7.61877217625806,7.41744711918909,-0.248307131033926,4.76690267381946,10.8515988778686,13.3588000430123,0.74052279327816,-1.34547662488421,-2.32520906042237,25.4495066894979,5.90601717793652,11.325373587084,17.5433909995318,15.9782685106584,26.2430711033608,24.920616950656,25.0161123203243,21.9445215104315,13.6705155144214,29.4704750170517,19.7426872598762,10.5170289695025,6.94299914209432,6.0638625979941,9.78060275650023,5.49658300830151,3.36509787506202,-1.24842703759123,-10.4102443184688,1.52694948543967,-4.13241644240725,-5.68194960110122,-11.9376199160474,1.85571409210752,-1.93307454726209,10.7879763959395,5.5768395610894,-2.25532401581495,0.698744763874402,-1.32143020655849,0.500261767973825,2.12161208535736,6.65995969645246,0.92301219513638,3.2221271150961,-0.571411162584354,1.08966253318295,3.42116567725043,-1.61662046552692,-6.43442765131613,-7.12165101688106,-8.45537152717634,-4.53022503283455,0.417253422996964,-7.84731448778803,-14.3583313014806,-8.87685465811137,6.22638665299837,-0.11072967225482,0.286896587183492,-1.19383432916675,-3.86493931721498,4.97816838952531,-6.96404274626866,-8.35769446063841,-3.23328003322558,-7.72800508086038,-2.89416682728643,-14.1286895454923,-9.23996288883836,-7.71066138845936,-0.945082748826735,-8.8176030858067,-16.4514346014435,-8.43020779660537,-8.55282141463022,-13.9687592172827,-11.7010790918266,-13.3525597391558,-4.24121119009169,-5.67993151812652,-2.55347881796615,-2.08821024457029,-4.51906467217668,-16.8322407329674,-2.16830706008341,-9.03012049617882,-8.73672117498199,-7.20002363594131,-3.64267698105323,-3.8319133721825,-2.52447511943819,-8.44650525697989,-3.27518310649248,-1.67876031254491,-9.26166405659251,-10.5192173214582,-15.0242775486922,-11.4578476570277,-9.0115768664964,-13.5253063789078,-10.7563736761485,-12.8189803816854,-14.4601011116065,-16.8782855612694,-7.314092911834,-5.6128485161521,-5.13951802366182,-0.780386633833587,-12.3101985855496,-6.23594885112743,-16.2951804113732,-5.90032185605241,-14.7351641263044,-12.090250234663,-10.510705035877,-8.39301027154897,-16.9501544389086,-15.6691288625047,-17.5191235635275,-12.5095439006886,-11.7557936497747,-18.4129770931568,-12.6589201121419,-9.82816353291764,-18.3690909750712,-19.8901950177778,-19.1885143346426,-9.85093864392547,-4.58653255492391,-10.3718566598191,-6.45459889166295,-18.3172985259821,-16.1377659366958,-7.65583176016662,3.85863835330747,-12.2251608679212,-6.16133033754795,-6.73273213065977,-18.1097714375674,-12.328857283077,-5.3156456571437,-6.48784957773569,-15.5726942817728,-16.8418377163744,-13.955932810095,-19.1700808275223,-12.0256884797573,-20.0644995857219,-19.4714718420041,-20.999546291594,-8.96979665075196,-20.1636476322051,-8.52549543295072,-15.8473279373466,-2.91830106080579,-13.7640881783177,-11.9748703141595,-16.5523953693009,-10.1412841108709,-16.6348017628138,-15.1210091606181,-13.3032769321821,-12.4184593503019,-8.30017165447407,-19.7196739046353,-17.640226773985,-18.2926799792708,-15.3194128773844,-19.037263142633,-10.4067652953995,-24.3112469989796,-19.9249584488466,-12.0379866622961,-17.1944918887834,-7.58895838271837,-14.4496726473421,-21.5926882170052,-13.4431815971889,-8.08277248250761,-17.2703587802503,-19.4742944425302,-15.7798100954619,-18.4284804871922,-17.2614493010556,-14.9095135829457,-22.0315031872715,-30.0011848505719,-18.7510806103242,-16.4804905624273,-37.1849737178241,-17.861879850092,-13.9098044803304,-22.403502936972,-23.6136442362345,-24.0778382317126,-16.3877951618611,-23.1086377266465,-17.9815129882477,-19.7761677380454,-23.2709139271901,-3.3982214253424,-9.36593880013697,-5.98484394360366,-18.425933081985,-2.2892913559017,-9.5268232521189,-20.184862175458,-17.6441889574357,-17.2962108060769,-16.4652700183365,-18.529476586195,-18.8037165108317,-15.968638817521,-9.90448638026419,-16.8040443484265,-29.4428216305555,-14.026662615328,-17.3539595062293,-18.625253123274,-29.7637405824935,-18.765759385029,-14.8058769555555,-17.0935599416052,-17.1209664888406,-14.8630382054862,-15.6726908674677,-15.0192095581656,-29.5568983680369,-17.1268384301193,-23.5970871097816,-19.9794585883974,-23.250735874818,-20.8001734729755,-25.0785761873944,-20.0741238547512,-20.9332441514571,-14.8426485131763,-24.9467866317787,-25.3018798092166,-24.8915559774068,-22.0518812625101,-18.5236896804013,-21.1723838552962,-30.3237533712245,-21.5484537999187,-21.9958635536887,-19.7969002650993,-17.2772625187349,-18.2928187615444,-22.66302953991,-23.9952587083449,-14.3412057831624,-16.6099921061768,-12.9756712072208,-22.0280753761012,-24.0524578699747,-16.8949056223132,-16.9577951429019,-23.4415471818197,-26.5367480488962,-20.1424282825469,-22.8931421072366,-18.8068734831522,-16.2624895065769,-20.6913789734963,-21.104835229356,-22.4673165676777,-12.7009712700774,-12.2683409829856,-13.3575252063652,-20.5868608408659,-16.9844306679411,-1.28500032263264,-19.2368267006718,-19.2980272274754,-20.626286314196,-26.4060432323859,-19.6133383835468,-20.5731131762332,-26.4515621535547,-23.2824843637618,-19.0928960386177,-20.6053649106816,-23.5830227045462,-22.8931441063864,-16.8049439913284,-28.8320151690405,-20.6668488617552,-22.2338922905415,-19.4526068970667,-22.5747876339451,-18.4911830348233,-15.7555025828101,-20.339501759719,-20.7155413153678,-25.8189105294919,-18.1403990839317,-17.9309974261964,-11.4715941279092,-13.076901907265,-13.3915049595807,-23.7381364533799,-17.2301392715731,-24.9259215297325,-30.1125829562989,-13.7886399878239,-17.9191365876482,-16.8294725584465,-15.4406766005914,-8.80612074788451,-15.5874347472882,-15.8871053662647,-15.3306118945616,-14.1849882609918,-23.4831332120357,-15.195087373027,-12.1948662185246,-4.97249442369412,-13.566173908077,-13.1597476596144,-20.3941696094075,-17.1415434949304,-23.2873239463147,-26.9291099809207,-33.6516682551719,-23.5686545967751,-30.5738901148829,-20.4206149190409,-32.8790305986859,-23.1969793360308,-23.5794558686202,-34.8334320699773,-19.8079881375702,-33.3341562053947,-38.4984944494931,-21.2622468125264,-19.6067500269992,-15.2378983402741,-26.2967973443024,-22.2246232598131,-23.2091164015542,-24.8682289301209,-16.7251889741765,-6.22434804549084,-16.4855886956552,-20.2286383200144,-17.556070644192,-25.4562506760171,-21.697835941452,-17.3472400167138,-16.9595117464205,-24.3878039310093,-15.6084712116808,-14.4625695004597,-21.2887309709158,-16.2290735881861,-17.8531076791455,-12.417347076715,-12.0008883231112,-9.31940256898633,-8.41348533518521,-14.8513126932608,-2.91017570134272,-14.7300305412364,-16.2282591701792,-19.1976370363241,-5.50214671308413,-0.878951697869979
,2,-7.07304955212112,-7.43861016237315,-7.12891058514197,-4.34825918616434,5.52397520834165,-2.67118050886984,-2.72490514477704,-0.560637300856342,0.724955394456629,2.34342330139816,-4.97440226570234,1.38649361239595,-10.0376429064604,-6.62670438816895,-6.85757202561399,-5.7052804965524,-5.44774236645981,-4.18767549599534,-4.04557746537785,-5.88393863009287,0.630782375095805,-3.1942496331535,-11.230619630926,-11.4083405467914,5.71766421893744,-5.98401284758756,-4.26534845942888,-2.8688511350806,-3.01572850762523,-1.38686081950846,2.77566652446194,0.85278910741954,-3.12243730545424,-1.81679907709531,5.79045695693003,1.51108400087878,-2.8894606152503,-4.25692533684287,-5.40453850546419,1.85896784996294,-8.27563342590838,-7.19672228310219,-4.88115806669975,-9.63237896310784,-4.44588756183612,-8.0098394486763,-10.5010555436847,-12.9477636047873,-7.58338038556212,-6.83161419749695,0.0531248254865204,-1.57360578639327,-8.99957067797186,-10.2374311512776,-6.67570349897869,-8.50111683622436,-9.15130237877383,-3.80666873257769,-10.1586684894746,-2.66714376676146,-9.6922967706023,-4.85407464633545,-6.75919794178481,-10.5215919892025,-7.04373991144166,-12.5298175527059,-9.94936553979323,-7.63561882576369,-14.03257614125,-10.2110797792407,-17.6673346783077,-16.2091518726534,-3.70820271208504,-5.55241897714814,-5.2894597479085,-8.01476378921461,-8.21966390285024,-2.3613591027447,-8.91158869084438,-9.02855008521192,-10.6753868588403,-8.94021811067478,-14.5049240394378,-12.2522814366716,-10.9207685021797,-12.1300121985623,-12.4376982137842,-12.4048489309239,-10.3089180968955,-10.1563514483869,-7.16762978926499,-17.5979422465448,-15.9465701808354,-10.3462273829882,-8.34916789529962,-13.6330774356902,-6.35560302252452,-5.59708766546692,-4.6175855638221,-17.7604723998656,-13.0907737647703,-10.360222775264,-9.99963037189718,-5.43261453920286,-8.83229450776707,-9.63335824634532,-7.52012547745153,-11.8170540774263,-9.97299313388021,-8.92660874222065,-16.3541134477819,-17.2596254016571,-14.6391605096114,-8.40401140121321,-13.1130761923591,-17.2061812677557,-18.731268257955,-14.5993614904232,-9.67102869670543,-18.0438881286245,-8.00218545670214,-11.9149838600265,-6.18611444672206,-8.24778866422366,-15.6705455742449,-12.592428278168,-15.4983957480358,-10.5343741079319,-18.0496290249112,-10.931410807078,-13.5897719067057,-10.6671797369213,-12.7550015281081,-11.9062317336643,-16.4051388224761,-13.1495637009243,-12.4186291461492,-16.0782999867852,-11.872890911,-7.74734741773136,-15.4277784529036,-14.8052487111404,-15.3701269174535,-11.8446387855142,-10.0539962967882,-9.99534372645121,-7.0957685885096,-17.4062546005648,-14.672581728682,-13.0710006169857,-9.47487620222955,-11.5290423842143,-15.876044243581,-15.5525745893788,-20.2611896121362,-12.6217627456763,-10.6806478384419,-13.2039699029906,-14.9342758026037,-17.3473149779352,-13.6501691446292,-18.8687594851071,-13.3610155605274,-17.0409546254455,-18.5001538952229,-17.1749184354953,-12.4072806272079,-18.4420692398112,-2.89251177992401,-8.5523087124252,-6.10705728430048,-7.71775962729453,-14.0058297039322,-9.42459714580809,-13.3336811388758,-17.6438980361568,-14.8705782330426,-13.2432233654217,-7.78589717969317,-5.66641577468636,-17.8965169242192,-17.4961016301181,-15.9016422331397,-17.408014207962,-18.3412068445891,-14.7241960511187,-22.0963359661469,-18.1025485555538,-12.232483976085,-12.868145355189,-12.1085613504952,-9.07492337761914,-9.58124520019464,-10.28085518835,-11.9462978839601,-4.6712285705903,-13.2906754320557,-12.729008231046,-11.135790295255,-12.459737944996,-12.2860534995853,-15.1545139336799,-21.1464835089419,-16.609270469819,-7.82285194538736,-26.8256252581004,-13.6857414497977,-9.77734757001053,-13.2959550139631,-15.2891315970455,-12.2565232256384,-5.85227343815359,-13.8134345038807,-10.6574534946294,-10.7167096413309,-14.3321878572747,-4.90069214379992,-4.61191967045716,-0.773297316719436,-6.75325114757243,-1.03388110185097,-9.77373212642715,-11.2296525781203,-12.1008026331119,-12.0617491288372,-12.7323281986432,-11.9900756808879,-10.2592427910345,-15.3070708039345,-8.91427875580075,-11.2391691827888,-7.60734129130333,-5.75220007630696,-9.99418379664394,-12.2755162938215,-17.0215810139566,-5.13675734217622,-8.22503872759989,-10.3010455034964,-5.64142020965164,-7.00405158175181,-4.66521919580737,-2.23123616840803,-20.2994651780946,-13.7234598105433,-8.21742329699146,-9.67078626775583,-9.53963142017847,-11.0570087978645,-15.5280505652308,-12.2022750693113,-17.8428895577094,-8.25891705789081,-17.1299930661571,-15.5013295059443,-17.0184332083618,-13.9793741293338,-13.2146200127381,-12.9337302345725,-14.1631053833862,-14.0606913905754,-12.5706357238964,-8.98537826025131,-8.05380415927857,-5.70636372312538,-6.32840297330267,-4.7522592311866,-10.5077085345092,-10.1978474917742,-9.37516436210535,-12.5067798915461,-16.7624299589947,-8.90759777777475,-10.0847897541312,-14.9817666464664,-16.3068331308004,-5.43093257028931,-13.4489915793183,-11.1020498646017,-10.188052535379,-9.14704265936325,-12.7561002584207,-8.92314903975421,-6.30162698384856,-7.7754136735789,-5.16688487693727,-8.97203195869679,-6.4936505767937,2.27604090511431,-8.76193230345007,-5.33555067477118,-13.6670759708545,-21.0892374940167,-12.2043535637358,-9.78614920158998,-17.9497013567257,-14.3072743744979,-13.0549458345863,-14.1019700247916,-19.2870654338321,-17.735039569427,-11.0702151987371,-22.2725566665872,-17.215246826051,-16.9816766125746,-14.6327283659443,-17.3755076567882,-13.6225367408329,-14.7895772847801,-15.5423507393616,-16.3014013789798,-13.7395024243406,-15.0200202185133,-14.7973768647025,-12.0665947158045,-11.0233745842447,-13.7782904200553,-15.6039392041757,-14.7222833020714,-26.6953188539605,-24.9154169459389,-14.6283637979686,-14.2070868264791,-14.3614671255086,-15.0324361719122,-9.52566983414818,-10.1536237171681,-15.285170087453,-11.8580552393159,-10.913576529098,-17.8429763690965,-12.7647017576587,-13.7688007208744,-10.5813755269796,-12.8257808675053,-11.9267886305684,-18.0391400514368,-15.6732021375592,-16.0074131824413,-22.2208792201463,-24.2380049613953,-19.741150566595,-26.7136594712501,-19.0864842373635,-23.9228590709113,-23.1025352963311,-20.5907382610139,-22.8317811987204,-18.4455091354012,-23.7277793943808,-26.1751311221392,-21.8793306593984,-19.8355536039257,-15.1069825262016,-22.0836210847801,-19.924909137349,-19.0117830856834,-15.7407751469459,-5.77031429534372,-2.14170531270065,-17.5712501061416,-19.7071997722564,-17.044319434201,-17.4672563589907,-19.7987618806246,-14.0042171863652,-12.7939539140525,-17.0040638473347,-14.1369103282645,-11.121399038876,-17.1181814768006,-14.9429493730836,-12.3988784370476,-9.31119830276248,-7.72160460450914,-8.29982145732674,-6.47360070278455,-11.09842918302,-7.52989859140871,-8.71223133349895,-10.8993567889065,-14.1965957377693,2.45265406897488,-1.62988823388832
,3,-1.72864581220711,-3.73064410474399,1.36855220022517,0.485288658869649,3.90818464629911,0.737957567188914,0.97402682231268,0.151119655409275,2.20435610918548,4.67455414294318,-2.62968562953984,3.13258498036885,-4.39331726063347,0.653570900850809,-3.80104997386889,-5.92406517116069,-4.17228201660055,-3.02224575412129,-2.74410288172385,-1.00511949137763,0.680832453295352,-1.96351460398046,-2.84449395370666,-6.26201083523847,6.50517130990329,-2.38055639341428,-1.87617354371059,-1.31799721572816,-0.980388632066934,-3.30596643984654,-2.74025011613594,-0.512767145307407,-1.80090600523727,-1.29676492066665,-4.70569520372646,-1.82446728340301,2.05140769583613,-6.63247773147123,-1.96800922387456,-2.93708508599411,-3.39562653744724,0.533456340775047,-1.76959960989279,-6.77554168778261,-0.897298352841062,-4.26014436295236,-4.66149600758899,-2.88004378425285,-7.99226585482029,-2.19561428949737,-1.63292576787853,-2.17932169652113,-10.5647946500735,-8.6898988047642,-1.4065087627223,-5.61341813907529,-8.55320299620007,-8.80956692109112,-8.03728414273519,-3.67959554695562,-9.20172792114272,-8.1106292720383,-6.68621771521839,-7.22036903358594,-2.83221226431942,-9.1657841610695,-10.4568153302293,-8.53629661581545,-9.25345648439634,-12.1011352639098,-13.4060053099652,-8.12825517522742,0.179694183302217,-4.5020674896482,-7.72446469343504,-3.87781277609156,-7.2858903602164,-5.46975915535495,-6.16493943515206,-5.98034524511422,-10.5576470553078,-5.45867180429104,-5.85534419741407,-10.0384137664014,-10.5820352797109,-13.3152643624971,-11.3759554609846,-10.6922517390358,-7.57519260343224,-7.43529396034955,-6.92531378989179,-11.5781742802342,-9.80878179080491,-10.4562536492235,-8.74009033517086,-9.96555368904046,-3.8023872598892,-3.84777101224108,-2.51656756634702,-10.9705846749812,-6.79215624221933,-8.38871362409645,-6.33004678026555,-5.84231403311969,-6.82629041509517,-6.04128492908239,-7.29959213707434,-6.24396122482585,-6.47445452150851,-6.37220616215836,-15.7288901215284,-9.64004141918758,-13.0531621190639,-9.27238554440009,-12.9804166959275,-14.1987009248578,-13.8507972388129,-9.20045776152801,-5.01976972898274,-10.4845725919463,-5.88645470588608,-6.2121892760947,-8.070444280625,-5.69430888618263,-12.3123719656128,-8.5271953093129,-8.37952191991917,-3.36307195194513,-10.4895350370462,-9.45163794343125,-8.7792070503092,-8.00294092436889,-10.2511086017025,-8.51259672476272,-14.5923403740981,-11.5433004002134,-8.32102671042821,-10.6852996584021,-9.92277359103582,-6.15377205424375,-11.1254808530257,-9.37121454042381,-8.61525067260118,-12.6402970158365,-6.6015580971698,-6.98813734186479,-6.80624855462338,-9.27587708270357,-9.88464586016744,-11.3232111390216,-6.88510748620502,-12.8329642890567,-13.7301337661611,-8.96528129044555,-17.0046358760005,-6.06858736157028,-11.1324420340402,-12.3714427596756,-11.6469669985481,-18.363638146408,-8.76122069544863,-12.1023797198218,-9.63464524514166,-14.7784163333499,-13.2636708576997,-8.45546225310272,-8.61595058977127,-12.1444258862425,-0.677009634297065,-8.32765844518053,-8.71293328952197,-5.4091757505671,-11.585624270167,-8.22161626646994,-9.3768600491162,-10.6060402302969,-11.7929403436915,-7.0842330776627,-8.44992491767334,-7.63404489279947,-14.1432192915222,-11.941914002532,-11.9405129419188,-14.5193170573925,-13.3369530899099,-8.25953828715637,-14.2503843908858,-10.5890500653122,-12.9790633006428,-6.05643234398622,-11.1183613720123,-12.2028059557538,-8.59471233015393,-9.59924675594993,-7.29231805117433,-13.3325236161963,-13.5349867291538,-12.4867660543487,-9.22761531052902,-9.45631588891138,-11.6938856714983,-15.3979751178126,-13.416182237861,-12.6784315283148,-5.87174107410283,-17.7559153842699,-7.21594213528442,-6.16934419370637,-12.3129477233047,-11.6693579007551,-8.46235053533655,-5.59409286811615,-9.44444326590838,-9.02033474565769,-7.39351125809799,-9.59558492875294,1.47280451900224,-3.19545656695254,-0.0352384318157419,-0.613409342273826,2.91571167019856,-7.43400053549567,-10.1343530365152,-9.87839194774597,-10.4152581532976,-6.21346687438972,-8.03322547869675,-8.06371102016283,-11.0767734959568,-7.24509288996705,-7.72425150734125,-2.13568838014271,-4.05730643348716,-7.66897910699117,-8.06347132589826,-11.9413169033182,-5.71503560745577,-5.62471874366383,-5.33565663020318,-7.22907879366039,-2.94946786077026,-7.33335387067973,-5.32629004372575,-17.0293216486089,-5.67320185953758,-9.74569697538163,-4.30734598244408,-11.5600070070964,-8.77862597939475,-9.6306388667831,-9.43887682413424,-13.1093480976697,-5.18185246772282,-11.3441909198186,-10.5597366356296,-10.7457383878445,-10.7566230687621,-9.41973136769093,-12.7975050279565,-11.8614865861878,-7.63143954760517,-5.7072345167544,-3.14945907448555,-2.66375279683461,-3.01383284901067,-5.64721896509309,-3.88145522763807,-7.07620898149344,-3.47819069967954,-4.94050679510792,-9.77689793060108,-10.4431439024247,-6.86832190222549,-5.55737225888151,-10.2898816070533,-8.70497992335959,-6.45671906689176,-8.93611529850114,-10.9325379482452,-6.58351517260644,-5.28460695201238,-6.83842861400944,-9.85398510057621,-7.05770203766178,-8.41538005203347,-3.34782516457653,-8.0210495771953,-5.35702118989411,0.15366578468047,-2.70574455973974,-1.62487599130145,-7.7954609197318,-10.5126511391381,-6.82618162109429,-10.2938383301139,-13.3475217389177,-10.2779150973215,-7.83121700390757,-7.16294663832105,-13.0020416015791,-8.27095646559201,-6.48743971406293,-13.4253296615439,-13.4855385515775,-9.14841315843341,-5.80367107510074,-7.94074429190641,-10.308394284596,-4.02653288503871,-11.9165435867235,-8.92269572885743,-9.29049150340461,-5.38423348737479,-5.52949729329521,-3.05434216682943,-6.59937350748169,-4.22043529220764,-7.31530765949947,-13.2248613128349,-22.0170059345273,-14.6116656132926,-11.9192924219428,-12.0144582774319,-7.62523100150065,-12.6524606456469,-6.89127283690095,-8.74093832693461,-7.62785548633155,-10.4381709644567,-9.38522856518875,-8.00408882217789,-7.64224354878297,-5.01970879295777,-7.44436894386899,-5.24982809143467,-6.70032808363248,-9.02727049892064,-7.24289691948388,-5.19870204047083,-12.5004626730138,-16.25145940944,-17.3194872118956,-19.2131635044839,-9.90818072636966,-17.376801407162,-14.5006967235759,-10.9946982933261,-14.9476792595301,-12.5462342115184,-15.4029752450188,-12.7081003969706,-12.9510900347336,-10.5434577230558,-12.869603286003,-9.69787118639988,-13.8311617423665,-16.0816718728984,-11.1490775125899,-6.71551599381337,-3.23600715440398,-9.07736114550153,-11.6776513109994,-9.922229595506,-14.5742879618542,-14.2730476109477,-13.0068384846531,-11.396232750561,-16.9191078076578,-9.01412478394968,-10.980716175588,-15.167644586209,-12.8702185632214,-10.0640511514857,-12.1546153113491,-8.24339700780138,-7.1941731938573,-10.6030016512318,-11.4059101748744,-8.61258237763877,-8.81634453084689,-13.0357917255456,-12.4368470674235,-2.31443048204756,0.435879154091708
,4,-6.34537488333945,-3.13791288813991,-2.74929720373393,-4.07143913532354,-3.12660449698478,-5.89657350167454,-7.16613972957066,-4.54473535077886,-3.97964221925122,-0.32665217419617,-7.96525421016622,-4.3237790107928,-9.17624397988129,-5.92148630677821,-8.05499657186192,-6.36642835572684,-5.20216758067272,-9.76218072105439,-5.81741684482813,-5.3119442351076,-1.58978678046924,-3.33991356980732,-6.4647403730869,-6.1305707946326,-1.81419940502064,-4.22784361833101,-7.16810094470657,-5.82608283185027,-9.25350073073969,-8.05710340201995,-4.26936125508973,-8.45810641699836,-7.11556191086993,-3.61392330974195,-5.22977032886411,-7.76236192145188,-3.7852202699969,-5.36281918805253,-9.80908604069464,-5.77624423084353,-8.23777744894733,-3.96414765628288,-3.88330473615451,-11.3776790238562,-10.2029663673425,-4.97703016175183,-8.9633805064318,-9.01112221545054,-2.29355108436403,-4.98360097131763,-4.92065549126028,-1.66750264540406,-6.40585097584926,-6.76408055405454,-5.15824177237209,-5.38982804483703,-5.15040294615937,-8.60497751627599,-4.56889932552849,-3.82836994776608,-5.03615184192904,-6.81910087679626,-5.06224364058289,-5.96859167120328,-0.668590005325314,-7.4523943694353,-7.42493610093743,-10.9081422488721,-9.10761412941383,-8.2623117891726,-8.79453015074887,-8.42560720306892,-4.35642275090595,-1.54268983504471,-3.95878243734705,-7.32540223009892,-5.29501899416846,-5.05379489462439,-3.05241164909876,-4.58874980606288,-7.12189597223232,-8.41833589953467,-7.59537890716774,-2.47313163281524,-8.35432848689561,-7.01606083879051,-4.41664382314957,-6.84589645520327,-9.14234992107413,-6.10705835427962,-8.17527656235279,-7.83233360021359,-7.03294991628127,-4.12046171856309,-7.1369189449365,-7.22047163294064,-4.37721909989023,-7.29244994781357,-4.18223193594304,-10.1338545498029,-9.15222409665103,-6.17662925028617,-6.82113778452049,-4.05248540685034,-5.50668689704253,-4.75402619348824,-5.38087661434793,-6.79424758175628,-3.26488690720726,-7.81455199181119,-8.58872273934094,-12.5969314731865,-8.48006204696867,-6.42224379479921,-8.65552141202443,-11.0150552060281,-11.9632456569138,-6.17796336371748,-5.51930992759844,-9.06792591393787,-2.82728151945412,-2.38457766373449,-7.56571151458274,-5.97919884397879,-6.76715123921213,-5.50417080821489,-4.03591601916605,-5.03567122070172,-7.87828193029736,0.652024325580442,-6.97056652035917,-5.6723896910903,-6.56736047249933,-6.25853715399944,-10.8210783915279,-4.89925351777356,-10.0348709857421,-9.65938451203374,-9.26891695160066,-7.78859001281216,-5.30483391198641,-5.43183914071324,-6.98200438731283,-7.60500235027484,-5.27506429341111,-5.43092861467539,-3.82178346818318,-11.6021474483509,-7.32853130290641,-5.6618283259586,-2.10840138601679,-4.39385420071949,-7.7109031195846,-11.5194619134386,-11.5007735463996,-7.18824996438525,-6.85809824913986,-8.30648987144514,-12.9207058480956,-9.73394492498119,-6.67730698966443,-4.46960823843847,-6.04830216333175,-9.46638325085632,-9.37410518667593,-6.70923839789612,-1.51683204571873,-7.87166925599286,-0.627373846508362,-5.50868923005282,-4.67421291060373,0.0334621013957985,-5.18064680153248,-6.93525350950313,-1.46825630015519,-10.0841681982242,-9.86487956117935,-5.78828505384172,-8.75912812452998,-6.15316868624086,-13.1907557077152,-9.50326303834208,-9.31459790439476,-11.900087936202,-8.50127028856923,-4.04905452519733,-13.9645046264868,-8.28216962080978,-4.77844571069545,-5.76947578688714,-7.85300003348266,-6.6406601954136,-3.2511724197293,-6.1431364192772,-4.62034150986347,-6.59528134011543,-6.9051296652874,-8.74747921501876,-5.43386462281205,-4.93753402180664,-4.06514355781928,-9.14208431667157,-9.72497212163762,-6.79722322136104,-6.46046358915055,-13.4889101880326,-6.84434132255592,-4.20020189702518,-7.01287023563964,-14.2116464545816,-10.9116477890198,-5.33894176013064,-10.4402578369927,-10.0380383163733,-5.31127587595256,-11.3885316331603,-5.3537283206615,-7.02299931113066,-6.75201770357762,-6.19666506261456,-4.41234075832517,-3.87281405636941,-7.09464958881563,-7.4112201685798,-10.2358376956477,-7.10452993000035,-9.22743320809104,-6.26757487670375,-5.7933948744967,-9.21488750924345,-10.0591597725338,-6.18166580089337,-4.5595409425282,-5.71697509685009,-5.27049943800239,-10.2347925551367,-9.07217968040322,-6.46196531482019,-7.02713011769174,-3.22053145195241,-6.41591731794733,-6.76202151600364,-7.84035102043936,-15.4855179978204,-10.4472219083223,-8.03379256454537,-5.98002764816329,-8.69419359980384,-8.10095085657395,-13.0120101589255,-9.43061371976182,-9.08332917904818,-3.64866103457371,-13.2402033487892,-13.8167574045779,-10.9854223169696,-12.9955179211743,-11.0900883656595,-10.5077376707545,-12.2483610305517,-7.52825471943743,-5.60419243758861,-5.86273940920182,-8.21430871258281,-7.27204990959035,-8.1412602325122,-9.26122084858798,-8.63197839622399,-11.122369295068,-9.1585089812429,-12.1982804969139,-13.9969869164247,-12.7568838132165,-7.54122484737081,-11.083842139004,-8.91898726157251,-10.1476677927549,-9.0489264961584,-10.005336681244,-5.91113950385898,-6.86035725944475,-9.63619671632841,-11.4614053957048,-3.1092536073329,-6.3602377282582,-4.89425596070078,-9.95886946220344,-6.89527727947461,-4.81928843079913,-11.1079541541108,-11.3532011942152,-14.8818373428408,-12.6288207857883,-12.0029030480832,-10.945007272061,-15.527431388874,-11.4408949542394,-10.7828409001422,-7.52295959146932,-14.8818969824874,-14.878885378977,-12.6850826328027,-12.9354313780991,-15.4889931251187,-9.57381040984637,-13.9508037499227,-13.2676873595342,-12.5870252338186,-7.67602542716168,-12.9987491370653,-11.8105268049544,-9.93420948332323,-8.77651462691847,-11.1145999043574,-6.05919205429609,-7.9502650298291,-5.86293006676578,-8.18456909547012,-11.0528822970359,-16.3518354614848,-14.282759411718,-13.1642302959449,-9.86728974382095,-12.226423956452,-12.2365220016336,-6.28179922390518,-8.98673207676666,-10.695735701544,-8.17381567816028,-10.9436763794438,-13.3811245649322,-10.0528608211221,-11.6672322939057,-11.6963105612726,-8.50642909122189,-12.1513138470273,-11.9657304134025,-4.2926404317127,-5.75070091921407,-10.6009031692802,-11.8247393106017,-15.1066895668869,-16.1231901622882,-5.93685480778913,-12.021487073102,-15.3289697297701,-11.6772276850438,-10.1267584686916,-7.79147270377553,-14.2389491424187,-8.6690020430633,-9.59005977937341,-10.6349339860853,-8.0622473722442,-10.3612619849423,-5.12668375590738,-6.42396960020142,-7.30291048973822,1.95776021355414,0.656831067734856,-4.42371667671114,-4.64574935757173,-9.62160134884834,-8.3892659207927,-5.37085469596877,-9.14528680358126,-8.05337210609878,-11.1634822347783,-7.41716398208791,-5.07385599677855,-9.44324543546145,-10.0021305293194,-5.11171011522265,-5.70944856543156,-5.02730327274139,-3.37279108376379,-5.02006001229347,-5.46790723395543,-2.88853754868478,-3.14297128639555,-7.33359913112827,-7.7905177772891,-0.106697370636084,1.96234854777595
,5,1.15494201689171,-6.33223251583831,-3.51583982162083,0.864450081189261,0.805558777650276,-7.41772826085571,-5.95249716627541,-3.23742202124413,0.255513643489849,-4.82432015554241,-7.11250221550017,-7.24391059583468,-8.66653319656507,-7.2845470664397,-5.54517618372847,-5.20485623517698,-10.7631910303362,-6.43269438546531,-4.31850841834921,-5.81756392141551,-2.81109726863406,-2.61645353774475,-5.62704232348915,-4.06392147680526,-0.0836076288742333,-5.78005296482934,-4.62306694078188,-4.58531637780561,-6.93851469874198,-9.4342721248554,-3.54055349238024,-4.82355738120532,-3.76003702446997,-4.52637336162752,-3.12493249535737,-3.9598808083897,-5.64672906543092,-4.04472490219723,-5.69148673540985,-9.18180737497551,-5.38616360287097,-5.78515382798969,-6.41582582430055,-8.29431250683729,-3.19110327695989,-4.8753790525584,-10.8463452627138,-5.70332190162526,-3.0803532297723,-1.70128032075627,-1.51272889081929,-3.39316614646668,-6.66010491108591,-5.6317385097841,-6.42644755374431,-2.58209735207583,-6.96497777408968,-7.69650965853862,-4.17519085596859,-4.83043892025216,-4.76975480220472,-3.85894864504962,-4.54793452435615,-7.17814400556836,-7.78785259859569,-3.06704115619641,-8.16889808108999,-5.08658071408308,-4.83382354602645,-5.22927535931922,-8.13392088289993,-2.84941872056379,-3.92168006798192,-5.98604820383889,-5.24329988322961,-3.86612582014232,-6.40825437993908,-6.44378373351583,-7.22775997430563,-4.07871247337016,-7.52016065067892,-3.95827086262625,-5.88344690475196,-6.25145964700414,-6.29533520457107,-3.77622824442415,-4.49508206471955,-2.29000164122044,-6.665073936103,-0.68511460490663,-2.09588094543005,-4.36263109880065,-3.2079048649166,-8.54160562994821,-3.20449786329664,-1.46835997525204,-4.65528303307246,-2.27100109008779,-0.74714471563766,-5.41642096915757,-3.97531395287069,-4.75605542432641,-4.92888588392361,-1.60500480421024,-3.29556230659591,-5.65877852930635,-6.24179868330884,-8.73158211765804,-4.15865850963746,-4.55696641425811,-6.24032031733122,-8.77910723134119,-8.97217127789372,-7.53435973739261,-6.49919633661875,-12.3426507986042,-5.40041543509278,-5.10302203118363,-4.98363172253994,-5.94669999079542,-5.2488073198142,-7.53865898349204,0.865781096512364,-2.26847157019893,-3.82650971138992,-5.43464664319345,-11.2853501803011,-8.66450361403986,-5.23503079514421,-3.17498584827626,-5.61916549005218,-5.12575095903549,-2.59391865316911,-4.70975094102823,-4.86775242030581,-7.48518053414409,-6.23802965556843,-6.60456155468137,-6.46355537334102,-5.79930360122262,-6.23480485393065,-4.38482052847257,-5.79565496337227,-6.34255703429062,-1.66073510394472,-8.15499749584887,-2.27782343622221,-7.94443473490492,-9.41050203685563,-5.7808395047,-4.27760688757007,-2.24094713582099,-6.85588675845247,-5.94750303072078,-10.7909912083642,-8.48419255960107,-3.04838627437039,-0.58619115948477,-11.6034102147205,-11.0533744816357,-6.0793614349368,-7.84198646149571,-6.19792171997324,-9.00978982209153,-9.18197173013368,-8.62649481091375,-3.3157778481841,-3.69732340299697,-5.70663378120753,-5.03451510105606,-6.68628924861514,-7.43484565518838,-4.91495689021349,-8.50613791418891,-2.13340047646761,-5.70958692281556,-6.1360948238289,-1.1583731940591,-3.04456011030379,-3.52997043300502,-7.04445582645303,-4.76466101301094,-3.93081310892148,-7.26838055849566,-7.17967449235039,-2.68518741119397,-7.48216462446226,-8.54548709977871,-3.45774791377062,-6.77987305737588,-3.06333755607648,-7.79033498206218,-3.30092508654116,-2.86691001694089,-6.87006409805008,-0.90282439832572,-6.97200263588184,-3.97765832386813,-7.12250426322726,-5.25074380341357,-4.12129829756213,-7.88676420376032,-7.74228914745618,-11.8358085582522,-6.5351896702773,-8.67297697372032,-9.24675139425699,-3.62708660366343,-6.07160679824574,-9.4982480373651,-6.16537974152288,-7.33129216346924,-6.52797017223656,-3.75498278014675,-6.55573939631495,-5.66857212265313,-5.39499618440686,-6.4403514186165,-1.64958307877669,-6.67387300483415,-1.43539773484508,-5.51435559322863,-7.14535424588166,-12.2491035673406,-6.98955462238382,-3.83427260196731,-3.15290138726778,-3.97635996224562,-1.61333864855806,-3.47997629178371,-5.40796384780197,-5.06850118189959,-6.74211977470395,-5.67799323708959,-4.01932872639509,-8.94479500935267,-6.61542008744482,-1.24639579453742,-5.24309241527271,-3.69358746862099,-1.91493083710657,-2.92470511044257,-6.06209418998469,-6.14271977565022,-7.46840000264547,-5.37458358618733,-9.41081421039053,-9.43136442250807,-8.00076215773925,-6.52132048694875,-8.59072208705447,-12.6552209482575,-10.6515744304666,-9.54772651887197,-6.86051864378442,-9.54317957438025,-8.80774907383102,-11.6794197182498,-6.33259052538097,-13.7383648617883,-4.69982914603725,-5.9430713269162,-4.57626342796584,-4.98362638759045,-2.54980512674092,-9.82597353348865,-6.76868405244431,-7.68230952412296,-9.86927262502422,-13.5679129888608,-9.52162341072881,-13.2912337794892,-4.28696763928701,-9.32680900543301,-13.9348844915289,-13.5485922486801,-7.77428055214477,-7.93619367198335,-9.26266656070629,-6.81585977748409,-8.14149715254598,-7.90584131837431,-6.81344015764944,-5.07755669567769,-4.90030042554599,-6.73621220892255,-6.06839077789209,-3.10125059632992,-2.9120785783457,-5.72619956453445,-7.25135673103841,-11.8005625385299,-11.0927541157375,-13.2465822730583,-12.573051397223,-11.5897871355319,-9.91175045582804,-8.85469969067663,-5.963312131571,-13.7376983751883,-6.29385296927785,-10.488246952194,-12.2777894614901,-9.24993566964486,-8.20293865392432,-9.30894280363418,-11.0592165834719,-9.72528006505445,-5.92161420514367,-9.04727002868185,-7.89533757527715,-6.17887482677816,-7.79859115273257,-12.6369594932839,-12.7131946686718,-7.83396206032512,-9.2134466700868,-11.4476074452227,-12.8618969279564,-16.2859954487153,-14.3768385114495,-13.6069745501541,-15.2343624338273,-8.27985981249549,-8.30427500633141,-7.54405284292443,-9.48677428256087,-8.44245768819792,-8.58114004247955,-4.36174217272855,-12.0466266869457,-11.0145009397424,-5.9753499051244,-7.88547086653352,-7.48671933485866,-7.42454524916366,-5.5581929793716,-11.25626574838,-7.79544514949112,-11.309261769145,-13.2805856343925,-16.2058191308952,-13.2508956761571,-9.05578514756917,-13.6486375042018,-10.8779919520903,-12.00533423359,-8.79599023695073,-13.4982638081519,-14.0301826543437,-9.65751158155126,-10.4161232282831,-11.3671201296456,-12.8196488992385,-14.5725306760783,-12.0729808756346,-9.92480222129416,-8.41127716663414,-4.14288579739241,-1.05437390483439,-4.97849619121826,-4.3197203463983,-6.81922809013895,-10.0697640863186,-6.78108174163845,-8.87000852228221,-6.85655907537102,-11.0215193388321,-7.29050098654943,-5.41137143683363,-13.1451120676288,-11.213557025505,-8.19797321292253,-3.50323813320529,-8.12262964755064,-7.51367874086736,-2.61489648175257,-4.42562464782259,-4.86090921996856,-11.6791665833102,-7.17237019736422,-8.53315231524903,-4.78642400964827,-4.02878153706843
,6,1.41030921669653,-5.1971008866476,-3.03679849947912,-2.7441240683288,-0.03355115755312,-3.24279114137653,-2.98516293440616,-0.498107535509007,-0.398434937936145,-2.10926189328302,-8.10235877130208,-2.73273990170901,-2.44782457642941,-6.3979458912022,-3.64251915460454,-6.8729672037598,-2.8747297365835,-4.69549431020141,-5.10241478885064,-2.42837686915573,-1.77087377976522,-2.10022743461923,-4.236312354446,-6.03740875752737,-1.84873126864795,-4.7231035174932,-1.96003477604927,-6.14358270828734,-5.01995741573819,-2.64608726642518,-7.26754739170383,-5.71773117853763,-3.80752106785712,-4.74417692304132,-2.47267364640038,-4.32378967750401,-5.92105166264264,-3.3572228855528,-2.80660794210689,-4.43368769986637,-8.50595818899092,-4.73991473386741,-2.56836177214109,-8.91481901004818,-3.38492498009737,-4.67095332423696,-5.22617647745028,-2.75223610792591,-3.39473622545574,-7.19391053711752,-7.86009916848434,-3.16611683899282,-5.91257514080735,-6.32060516590172,-6.0425671331227,-6.08340485824374,-2.95481148220051,-1.39217460654072,-3.92126034821058,-0.269883884716364,-3.78911874936557,-2.65939753458133,-5.89816351170794,-7.35046732474893,-7.55924017493726,-4.41217609374689,-2.82805237269667,-6.2991140031022,-5.55272842217164,-3.78157159578541,-1.97648962230141,-8.96288395745614,-2.75245230887367,-7.92428072974872,-4.77224100840795,-5.09739626227565,-6.01474908040063,-3.40999828277108,-7.52262808036767,-5.83855256494871,-7.17946855756827,-7.47479051539676,-4.4904136601499,-3.28985541733982,-1.08048903695908,-8.18253943555055,-2.33679844025073,-7.96688351256944,-6.619594909228,-5.6610693026073,-2.83755557083396,-5.136632906866,-4.21814853094247,-3.96320826485862,-1.63302271939301,-6.26718202403163,-0.912413103302697,-3.09042821298044,-6.21003055400433,-9.4086816137401,-3.34785933103467,-0.974959025336375,-5.68301458174938,-4.41417837081144,-3.37314311834098,-8.8653905357628,-2.08557334327406,-6.80340949107722,-4.00610294050966,-3.32040942643289,-11.6603653901743,-9.67139905121212,-5.72806388534127,-3.70269699878008,-8.46446840606586,-9.16136138207594,-3.50326129863242,-3.02341044747618,-6.40759497309364,-4.62132780785623,-4.58925644331521,-3.0617760529567,-1.01043866952341,-4.74536999198426,-1.85098196606486,-3.63405891818957,-5.96056192121978,-5.73427140046897,-8.42960085949426,-5.41807048637611,-2.37674817035713,-5.59721141956607,-5.44556941120345,-5.02727414746369,-7.08794761667559,-4.09927862315544,-9.39778891409378,-7.8820679004275,-8.42636616594245,-2.968426265787,-7.34102984622996,-1.41910810079162,-1.35452400105305,-2.94453540963968,-2.31223134843367,-4.27707022746972,-3.83099358314757,-11.8337437690088,-9.9774325050862,-6.73450101394974,-4.73377647416464,-4.19919608869941,-6.9022623828605,-0.461463476307017,-8.60089643861284,-2.38194906318495,-4.96576945490324,-5.71763313701285,-11.2565884909786,-8.91163518877283,-3.1206409435672,-6.64596822970316,-4.86044271137644,-7.57523364957888,-6.2119409457614,-6.73392445559784,-6.65436978454409,-2.44586439375917,-4.44955275841812,-4.60924228252225,-3.21855283245714,-5.22755073359076,-3.89758026831669,-7.25903083043067,-6.78626588828593,-6.32967671107053,-7.12552647674738,-5.41981517496015,-7.17076459788586,-5.37818848490269,-7.63796268919805,-3.69396532212295,-4.7552922290497,-4.34896159008804,-7.05087718340428,-2.31403563070307,-9.59245494196057,-5.31533678580854,-1.85221615728187,-3.38269571280534,-5.43608238361094,-1.69936635831345,-4.44033871936426,-5.69039146691011,-5.43389730087347,-9.13481246328683,-6.07789323024826,-7.2851222377144,-6.23116729039748,-5.76210005172425,-2.71988813406279,-9.61846360344725,-7.1391543180921,-7.54525675032301,-3.47817655107883,-11.324566138866,-5.50901933117166,-5.02655448460018,-6.22668208165305,-3.93837262015404,-9.38515658540882,-5.45771604111314,-4.51734131486364,-8.22210979347165,-5.34355484050957,-7.0280945782406,-2.57057504737804,-4.85568504067624,-2.14731278947829,-4.65712192269302,-3.54260974894487,-7.26857519822806,-10.6833351572463,-9.44745383988902,-7.13565455087792,-4.37264214738161,-5.04673374671029,-3.76866094879279,-2.24809261854307,-6.62201723367843,-2.32189324129467,-3.93426827568101,-2.15079247351287,-2.97992942795281,-4.06308363123208,-6.55877983768914,-4.12598323691645,-2.15208267456728,-5.9010477667598,-4.55636547006679,-5.89221260529757,-5.35065147660544,-6.28196030372601,-9.38013001737909,-4.35190297735608,-8.32304014963802,-5.97268519834188,-8.67722747942707,-5.70600466795486,-5.98407976099179,-4.82926794877176,-5.77677390866802,-6.84513255065031,-10.0848910280633,-9.8406299191156,-6.42494837571803,-11.0801150161033,-5.13080520289486,-5.82402430489992,-6.79535532411637,-5.81677465532584,-7.56884665376401,-2.43199925668614,-4.4396182152559,-5.32648154457502,-10.1992802925201,-12.0264659580471,-5.79496906605118,-6.28123229468292,-8.00729629601665,-12.0323243486132,-9.26894397198748,-3.64601777476628,-5.42723022910195,-11.5597340792351,-7.97438001414957,-4.25922107646193,-1.65269495903794,-7.83196392800846,-5.72245173813872,-6.11289390311822,-6.2435115186031,-5.73292239871262,-1.78502080948419,-8.93794084418232,-0.356887458290657,-3.74685902692272,-6.47859928929347,-9.21645368920099,-4.7245374498516,-8.48579363551607,-6.05666139481946,-12.1488540703681,-7.08208677797666,-11.2470334678683,-12.7343126412297,-9.99937409877657,-8.03690646038785,-6.98532031670902,-9.91975034251664,-12.0689188543229,-9.8404022430982,-14.0278342952997,-13.0576018509896,-12.2381916702252,-7.74780418553155,-11.0589359668284,-6.84188149903275,-10.0080610120713,-10.1092608189488,-5.01968235409959,-5.9932302641414,-9.0969754081807,-8.46999187168331,-3.2847371677567,-5.7203380425417,-10.2658962505293,-10.0755008657625,-9.42437886978905,-15.5708257066872,-10.3741673993354,-12.1610687282496,-12.1084099507971,-11.6744820272625,-8.78205479628559,-7.44350752763557,-8.72253754763096,-8.38254636060037,-5.60041932241211,-4.7206297293983,-12.5865015152094,-2.61630321736357,-4.44188403673024,-2.65996258181031,-6.80439287046238,-5.14106912380157,-8.86899744978882,-12.0031218498398,-12.8492220052726,-12.5148265932385,-12.0990154950064,-12.076717295774,-11.6443239793261,-6.44992155588352,-13.135233653737,-14.3143602946161,-13.0806159714825,-12.2197608929437,-9.71941372817855,-12.4842211844107,-9.69047347786955,-7.58951572190199,-10.9647902292859,-9.27704262595944,-12.1032396373662,-11.1266838446904,-7.06596888474405,-6.79352123667513,-4.45457452135679,-1.19315081558261,-7.08146656934605,-7.07004690153508,-3.57766880587633,-7.09291524337641,-6.8954948251826,-6.14922626919088,-9.66170757525379,-7.01983399392657,-5.6984388369674,-6.81578386705087,-7.52386694569896,-8.76927702328476,-6.78772589235859,-5.30746105063008,-7.46293489659229,-7.57169290105958,-7.66210171558259,-2.45339551204006,-4.54398001423533,-5.90763994071631,-8.22672231225488,-8.47915808706284,-2.19044739146739,-4.4715232442245
,7,-0.331966448160529,-1.03103503568445,-0.0459950487979768,1.426080342369,-1.7611869002485,-2.01930491014127,-4.8324789989083,0.33570268760559,-0.573404948821008,-1.57424368898637,-3.47329002341166,2.48934523144862,-1.44057774727389,-1.79961293853103,-1.4102925242305,0.00764626039017458,-4.80994732977842,-3.50925584232118,-0.610198666446649,-2.75278051387022,2.04460461098006,-1.97882831835113,-2.88469591803869,-7.907643845434,-1.41014499291032,-3.18116368440815,-2.60561065012553,-4.54704624374563,-3.50147949123129,-4.49327982773866,-3.88572803790248,-1.95225888400228,-4.85111396431512,-5.25182916881931,2.18040112069912,-0.293566901914346,-1.37357510383436,-3.60979359080648,-3.13995576018442,0.107443738474103,-1.92879732005167,-1.25941313948579,-3.03895254728286,-4.04636095279557,-2.35648437887176,-3.26397752275716,-1.97961873690974,-2.55832439486903,1.38998774425318,-2.68802008820012,-0.144731487193894,-5.25601162648081,-4.78065780756697,-5.45928987461321,-3.71567939073384,-5.3089592937331,-5.55984457373097,-0.879591655800141,-3.84767720304262,-4.59328417715096,-2.37854364787336,-3.00584850183441,0.539065751506314,-4.40937158335691,-6.5203286309561,-2.46182837269862,-6.07580970682693,-5.52098933164461,-3.37017307554834,-1.67594257911242,0.0283578222761207,-4.01066976124548,-2.20329120349106,-3.71879915755881,-0.955332127918609,-3.00584643303955,-2.28328096494533,-3.5074539909474,-2.17216801798759,-5.83670272084555,-1.70834243028276,-1.49603093196492,-1.83016435809532,-0.803548437040718,-1.75665812726493,-2.53451076002193,-1.70185281371869,-2.22426741610661,-3.37763707674412,-4.88607970901921,-4.50538201020117,-4.51738935281401,-1.49350025124477,-1.93296949137994,2.37858467797923,-4.04194648524935,-3.81527505172471,0.428390410731936,-2.33645463903349,-4.39375368984656,-3.84148251661554,-0.599142528176344,-2.11867163805528,-2.95212110592911,-3.54418661314594,-4.16898533410858,-2.68527563929138,0.0966838860636017,-2.02373278714049,-4.89397601056044,-3.26031880256505,-1.94682463118534,-8.71312651482731,-1.32361804785751,-2.30568186710934,-0.674528600874055,-0.999452524504704,-4.28350783093765,-1.90321873355242,-0.0127409666174572,-2.36941766928567,-2.34349090318528,-2.07801581432796,-1.27334578192631,1.36743912714473,-6.29069633662812,-2.14114333765065,-1.30640921577697,-2.62622742841359,-1.59439783047173,-4.41110853184409,-0.495106408712218,-4.05127334135068,-1.67271447083385,-0.0956471870777023,0.163336631974744,-4.22794728814915,-7.35673772657765,-2.66161460709509,-1.55238356125392,-2.72880479775495,-1.30135025753316,-3.71573499808437,-5.40063003462046,-2.38747843945566,-8.73653763867424,-4.42288183529945,-7.4969475744565,-5.41470014834385,-0.0286883638473228,-3.52141334608541,-2.13699462412205,-4.49823218103256,-0.83382407689669,-3.30979803931086,-4.89509921172476,2.98528671358918,-5.96857906012201,-0.0800230224372172,-2.20344612560439,0.346891030570077,1.58152875931819,-4.10693703631705,-5.42901744246819,-2.53181514520702,2.76499532862408,-0.326355505738775,-1.2385601642336,-1.51712230712428,-1.07480269373082,-1.2492455216161,-2.96125182239075,-5.92495428461007,-3.90976972605222,-0.906816880640235,-1.83425063318373,-3.25793248987929,-1.88032807303716,-0.720809592627575,-1.19590741646562,-6.10284586833677,-0.0227109313609617,-1.90246939566032,-0.756542806776451,-4.75835919263864,-0.373367801027143,-3.90469111646644,-2.62032591485558,-1.14074386756283,-1.05006287422611,-0.789229208668985,-4.39381039688578,-2.09791194920308,-3.814502849978,-1.12230538706126,-4.94389631308968,-4.43636834233712,-4.16985582144571,-2.05827362570471,-6.13350007016561,-1.07746889075725,-3.11197932169262,-7.12460947274622,-6.70204702884075,-3.43986555297306,-3.43882424737194,-2.21172387882552,-3.11617944444197,-4.50200618732606,-4.45012000818224,-1.97994638701402,-3.59147098835228,-3.79542521039548,-5.34482286848015,-3.16512816076875,-3.45169201889621,-2.6463608138547,-3.66656719321054,-3.83719946061274,-4.6375103076648,-6.26480097805734,-1.05980174658953,-6.57087035420273,-5.35700079912658,-3.56409246373687,-2.95691050283995,-2.72488147697686,-2.78950376696093,0.0713514467124696,-4.12896697313727,2.39700623871795,-3.69333520076316,-3.94725563669954,-2.68582300505932,-2.2285681371377,-5.54927964436411,-4.43801572450548,-0.233041429822606,-3.44884705237155,-0.834545283674743,-3.31769539204015,-4.22347936201049,-2.8518904125699,-5.693135765443,-5.60027159734,-2.72357504834281,-3.93406572368349,-3.6613144503699,-2.38975110080128,-3.12377651100815,-5.24601959704069,-5.10450653834323,-2.33711507960652,-8.31374872011293,-5.54616208247717,-6.93651625577513,-6.43603970419008,-6.50859170989042,-5.8702862687237,-4.05216519307714,-2.40530741065049,-0.52250905861365,-4.90967687846978,-1.60454272367679,-1.78672400416599,-4.91526392222204,-1.36122536639414,-0.224105326581139,2.49712451464848,-3.08936136085185,-4.72501688183911,-8.35373219787743,-3.20802023320448,0.452407413115452,-4.57453762307932,-5.64838166058371,-2.25932753039433,1.27772397046374,-6.23715863432335,-4.3110657545767,-3.324708772745,-3.81189296562161,-3.51803203239569,-3.50649615381963,-5.51528540763866,-5.96841257000051,-1.05209443597732,0.373308147679381,1.75107827871398,0.117538221803898,2.88010507257422,-3.92525668167809,1.09732985968685,-2.04207986004212,-1.34015824561357,-2.30573245267578,-2.18794503046502,-0.885695976598072,-4.66052122908786,-2.35096204308093,-1.83385942983568,-1.36508474809762,-2.25835071217989,-3.06525766794584,-3.7366231734195,-1.9643874448916,-0.0293072102440419,-1.29397986911454,0.576618201550446,0.728661520456626,1.55066434207902,-1.45613272861465,0.427051521270641,-0.610853825343384,0.258099472367576,-2.04397384087906,-1.15095516310294,-2.03876692320955,0.0995616224086007,-9.64218206270243,-2.62803746434656,-1.16386932558862,-3.37583710226409,-1.70511209156575,0.655569063833809,-2.99141308789922,-4.99558456539535,-0.413311590197736,2.84429666673441,0.782791171626741,-4.35211769667694,1.48128952365505,1.51768660527341,-1.67277694672339,-0.85291586080848,-0.713488228377628,2.49524246278497,-1.58692714407152,-1.0830104175684,-4.8642291617075,-1.14736495944271,-3.67688420988134,-2.26115243656113,0.375889974995516,-2.10608244847572,0.486861327596671,-3.85230528043076,-0.992008956324298,-1.8693631306387,-1.68737569228551,-4.31329801437732,-2.36798664390744,-5.34317296432891,-3.3623910374049,-1.13296311162048,-3.20474632829428,-3.67283140918062,-3.65552069738442,6.22244957721568,1.97260915520201,-3.06277349091897,-1.5429045668011,-5.10526591429971,-3.79214287891455,-8.15899627610361,-5.22752057888647,-2.3556719358603,-6.0216057159696,0.816941372416295,1.05926852969333,-1.38488781756587,-2.03903392347365,-2.01203303834927,-1.62620393857515,3.59823134670205,-0.10620782324213,1.96452874478973,-1.78533091276859,0.400884764886541,-1.60753547896775,0.982210049141031,-1.67812013588036,1.1156242236093,1.56363360158048
,8,-1.7571501098696,-5.34751554253262,-3.63764769786621,-2.63229154020792,-2.02653050507888,-4.96328102869575,-3.45404953402203,-3.32214771276495,-3.73306420087874,-5.26244745253416,-6.44207806779787,1.13872856566104,-1.34187652656647,-2.85840073212785,-4.56475824936706,-5.92246953849735,-3.18519580519205,-1.11322894672912,-1.42172111627679,-0.529735373980202,-2.94222463081678,-5.11581012052829,-3.56287421385423,-1.68996603238884,-0.315328103432421,-2.87335070952622,-3.49162938377776,-4.27869177426783,-4.12551092816557,-3.28822722031373,-2.96269775292058,-5.70867276788113,-3.40567112853159,-1.2236126809712,-0.537410713839108,-3.72048024893911,-3.44976899510129,-2.45405974248251,-0.710828461362325,-2.91897285210325,-0.0418588144593741,-8.16626512597441,-4.22240866449602,-1.61262348870378,-3.63281927995695,-1.97472440514548,-3.28815304188083,-0.776465575439033,-2.59139057000993,-2.46475259735371,-3.70469412037482,-1.1763243217456,-3.81597005289086,-4.52387328888017,-3.21208407401173,-2.02750893016764,-3.19022818629855,-3.94174208170398,-1.89857000749407,-1.63036082762119,-7.54234593901947,1.45093298549318,-2.63629003715641,-3.20435097252903,-4.64929516431312,-4.02746267152042,-0.446383002937182,-3.82902279082555,-2.60354219449437,-3.67837859699284,-0.299486679768052,-2.47111817042651,0.80496850990221,-4.01105326411698,-4.14564953682248,-3.58148127454706,-6.30538640582017,0.35317543748215,-2.89393913321646,-5.94272585479121,-2.25750124616252,-3.15117416001067,-4.59078659706529,0.903974770923924,-2.8837572844418,-0.0408265976711846,-1.06437163426062,-2.41435787834052,-4.7905923133917,-1.62244398285429,-0.870067370027755,-3.05638030980981,-1.84713705512104,-3.57768847681655,-4.04100917891037,-3.13395346180323,-1.78171619755267,-1.81774252955756,-0.383142916371526,-4.70371710049039,0.0110024824984976,0.703268352458053,-4.9183544961993,-0.783889302648277,-1.70499309596698,-2.02187297725413,-1.62801854960571,0.610842741942179,-3.34537818384251,-3.11977027183684,-4.11201175088127,-1.61288212886211,-3.5410020183067,0.0137171131686955,-1.71307709320354,-0.13321891047417,-2.90038442585046,-2.58650295068446,-7.07037787273202,-2.73258269163443,-0.721049598445461,-3.24629285880383,-6.86637435332023,0.181800684357313,-3.34105314321323,-3.04458915328269,-5.46768674792293,-5.81212455314517,-1.04963220911623,-4.65946238044035,-7.12517685903458,-4.32335170756687,-4.6991708491264,-1.75720198233239,-1.92954388266298,-5.00871632154576,-3.32437433781206,-5.32335865069035,-3.18081615079745,-1.67476678811636,-2.80060329623439,-2.28071950041931,-3.90804982779855,-1.91381194252108,-0.501739515817007,-2.56841529685607,-2.00405991410662,0.806567731951418,-4.57099974687071,-4.34986160845847,-3.57107529500354,-5.19232639737993,0.860886907240911,-3.02521997105487,-0.754637737446046,-3.2215191137434,-1.39590687359396,-2.52340574175832,-2.76927368684346,-7.10940853657621,1.59942103278081,-5.49585859449826,-1.81455774677352,-2.53425417640437,-6.80115437591439,-0.495803610157054,-3.91039791329877,-3.33085851194028,-2.52694683971322,-3.53598273850503,-5.18854362210277,-3.91637073430502,-0.391538081709314,2.81451071725132,0.87266441871634,-1.46313771662199,-1.35641663571687,0.337555492325464,-2.24942386979683,-4.34541395918905,-6.57769543137374,-5.16657165295737,0.0299058873474678,-0.985864098843649,-4.46577225134433,-1.77947273093014,-2.54309656363739,-5.26625914179021,-0.834116800586798,-0.482385989793329,0.987617190044602,-3.51098052287807,-1.59960797127951,-3.61316723056098,-4.4871739410014,-3.64975364489464,-7.48769035607711,-6.67502822944152,-3.17183728093823,-4.36554364457288,-1.4654754984017,-5.28790971519493,-6.9065107940437,0.116178402678088,-1.58321829690794,-0.383899830068003,-4.1219040203714,-2.14659391755413,-6.521578462663,-4.60198429467937,5.25041489169325,-4.99189215609158,-6.15474283554249,-3.91327022227097,-5.67051204557401,-2.58414833213692,-3.00059036211951,-3.09843777762808,-3.60702664370956,-0.529041440053334,-2.34573807339075,-1.18114999065665,-4.69286815192345,0.322936629124797,-2.21075814143251,-4.81105651218513,-4.51964965213983,-7.36440547803977,-0.816628725806822,-4.60645144926457,-0.84922733084295,-3.95976778529121,-1.47749830422208,-6.62295831004849,-3.13919384699466,-1.18663533576228,-1.95103255581944,-0.147146335818434,-0.405563831464406,-1.71656985247409,-0.632208344633455,-0.832147226748475,-0.308027638964631,-4.96092637022639,1.09653463968743,-1.32599336939438,-3.67888494076442,0.198601145635621,-2.13844100704591,-4.43046740205773,-0.875051415145208,-2.90743914847235,-3.27487888276846,-0.022114073060493,-1.86042362575427,-3.72572877720995,-3.5323824640891,-0.918086809184842,-0.600035165712598,-1.95127179232441,-4.49165696943146,1.05409513342784,-0.285028437452183,-0.518885169980422,2.22047881127719,0.27859094870837,0.0539605073886378,-0.0949594126332158,-1.27592001145058,0.475310985557371,-5.26714580401858,-1.26412442220499,-0.563586427806058,-1.39778552720099,-1.10314534143208,-1.02214135788745,1.40698245033127,2.85601383973381,-0.331090555363517,0.581061681897154,1.52146397011484,-0.310623914831922,-2.54546295877481,-3.76466824009958,-0.135016979507782,1.91521134991035,-0.605206042006557,-0.183580256036294,3.16123009751527,-2.70187008638732,-3.80526278422303,-4.32571184511744,-0.732850921082445,-0.763523005728075,1.81079670995769,-3.44578229456829,2.09694785101328,1.52530774551178,1.46970258543024,-1.74070398174217,3.22223147056593,0.994450248160774,-3.01323730348213,-1.48074883335357,-4.75633011379705,-2.22719240499418,-1.5581329370425,-0.170707596305419,-1.48100421385561,1.93585966433693,2.74498770953369,-2.29568415043877,0.939153952393553,-0.99469738026346,-4.02319082786335,-2.46770533303697,-2.58902467582811,-3.30112923105844,-2.57825035614769,-6.7336224069827,-4.22739138358202,-1.94063756555761,-1.7476905235676,-3.2227582873661,-2.84270428116042,-1.70416268365079,-1.67245832183607,-0.0874425454007906,-3.38476203239452,-0.185012842437573,-4.06949201103953,1.32038852356072,-1.82845239356811,0.632644528929177,1.82475310882728,2.02844940619616,-3.76995036039443,-1.34258014447732,3.19367015063926,-1.62695855820448,-6.40136012932999,-2.82373465573755,-3.82113698202011,0.164262278196475,-6.25390806614678,-2.86133339074922,-1.5381088753652,-3.24420515896054,-5.88156684520027,-2.12063914210785,-4.02373223014865,1.40583474204277,-4.19654968622535,-2.1587902517831,-2.78694428984682,-6.51595707749448,-4.25358717014205,-1.44094319849819,2.6467747706638,5.20049760813845,-0.285324292432051,-3.70362300419583,-1.74740878410421,-3.76308832052609,-2.34275878486142,-3.4039160428888,-4.89556962505367,-4.78345934871868,-1.90511820420897,0.366250756769659,-3.29367007515111,-1.85118783228745,-4.10297507474843,-0.645479791752678,-0.0786781074198188,-2.34398481190783,-1.45286328182374,-4.5274371275159,0.468810996348111,0.366551894199347,-2.48367396049161,-2.10873089043434,1.36304669385891,1.88571903796719
,9,-4.93893011092405,1.16606970885687,-2.06626832135225,-4.64111735932329,-1.77411505101054,1.10543059965676,-7.65155148856911,-7.24829736450283,-2.14635694675371,-3.33374109787883,-2.55288154062418,-0.520077431212485,-2.42022217929161,-0.522058061458665,1.87576199148725,-0.717998055465159,-3.75325644520262,-0.521454361975884,-1.0917577569071,-0.403122940108915,-1.05757819390237,1.38809501666356,2.57028306765278,-2.83567824390138,-2.65291817704974,1.83802774962396,0.81977297901858,-0.146169418789214,-2.76537740500817,-0.244662025693287,0.113454025311967,-3.45023910040436,0.600533134346279,0.772773461896577,-1.97132069541158,-4.64310308418362,-2.68023155058063,-4.59471034831631,-4.78961857563581,0.51310573559158,-2.29245992032293,-0.562881061853659,-3.50315568122687,1.7493239381547,-3.47806859021466,-1.4634521937769,-0.789741081901866,-2.8127013248095,1.0537676266963,-0.730503445730847,-0.576249624636603,-1.04610435470295,-3.87916846231974,-3.63549123846042,-1.82809156969552,-1.15593627767475,2.6350509515778,0.255782785779502,0.0652552109045246,0.130152514266229,-3.28709452499697,2.7588082176444,-0.925883801390228,2.29009410397794,0.977635056845429,-0.850034113844686,2.76780038593824,0.280272473502009,1.35527782746294,3.15263097779325,1.73252548182245,4.53471829149112,-5.00179410932424,-0.143560943340162,-0.753367408593476,-5.32263456162354,0.920105055798558,-1.04061780613529,0.335831061308909,-0.872153283899479,1.00592252971001,0.944089040924609,-2.5031584970161,2.73352042008264,-0.157777559435544,-1.23195949438241,1.1053143735835,0.219474812204226,-3.53542651267526,-0.840783710933465,-0.127453707136283,0.899724101687752,1.79983222676719,0.76085632386139,-1.7237792332121,4.68265019239198,-0.375245812332651,-1.47497029800979,-1.70523723160841,-2.85653109711529,-3.53994555903728,-0.00834613407278084,1.80444553028428,-0.363896816051692,-1.85234438318184,0.947308582587084,2.56262193229941,3.22880245082433,0.913295314101561,-1.29178394319297,3.02149817304371,3.14622635719161,-2.1228400801615,0.0557078734764218,2.01093332848814,2.17123726151021,1.7913714696233,5.28270426626932,4.2076120957654,0.542924588331516,-0.857858920859144,-4.16592960076969,-4.07252554992419,-4.4363301378653,-1.72723888714654,-1.72070217593637,-2.74204322874675,-3.53421909404187,-1.47829560147466,0.423785851336561,-1.52555001838527,-2.26948701712263,1.05959818071051,2.54508149778894,6.92687626366887,-2.30901671119182,2.17581850799615,-1.13671209253471,-2.13648407756273,1.49784403488002,0.938443220094541,-1.46872363343164,-0.107100290614653,3.28752726815446,-2.80810334540456,-1.46496365245548,-2.90097592347001,-1.67852507147472,0.104001305376642,0.914721444517909,-0.525707019597576,2.92399565936466,-0.839917775733738,-0.455588874488058,0.382852693905988,-0.429467751469929,0.0593373073070325,-3.0011190926125,-1.83015018364085,-1.47040541292154,1.69540503322787,-0.387994298279864,-0.113765529758439,-0.0257826222409676,0.122831428728205,0.709056901253007,1.97051906472279,-5.52737827959345,0.874723183286733,-1.79982892375438,-1.74554839673192,-0.617454829964572,1.44763003120033,1.43844850028881,2.21170641703202,0.203451330259668,-0.359552581886874,0.617349011688475,0.667808096601675,0.221371218980494,-6.16716183592553,-4.3556550164717,-0.0465486711550511,0.210419109538634,-0.498184399521506,0.126304150247961,-0.371887143019194,-2.69058711022944,2.20442267531189,-3.52259131201799,1.1558021438982,0.33799458148178,-2.95101946052182,0.599747222275255,0.474662509920108,-7.23538495696675,-0.601967072685056,-1.84003831277005,-2.74603174341837,0.88089877352877,3.12686352445826,-1.50611836777034,-4.18448424763847,0.253222983179967,-0.702583827780018,5.05503273888462,-5.3473720137772,-0.760470111098584,-2.32688526909396,0.0946706451059072,-4.59378455994192,-1.01310124575684,-1.62507149955536,-2.68709435317987,0.509758569527548,1.19527641169816,-1.1277110295905,-1.4317171084258,0.829991047727162,-2.3700277087737,-4.19364941702406,-2.685051120558,-4.65624174771347,-2.27099588499277,-1.83241949270496,-0.597740262404841,1.04835393238363,-6.36574514039603,0.688394559376775,3.1323345533674,6.99734673951707,-5.29034395010103,1.95269702024825,-3.24216981696054,-0.582280507451287,-2.6548773421905,-0.430787683908875,3.38092816212702,1.3054125503736,-1.54603298101165,-2.91203648771125,-2.72040746558014,0.186604681982772,-0.61568578636934,-1.29798374580423,2.74928297013139,-2.31585352181901,-1.94788786954678,-3.43734751571446,-4.40112269181827,-3.64915962116129,-4.96178847232432,-1.54173858996182,1.35889072522741,-0.751603390297078,-3.71578137978349,-4.93589966846548,-3.41943902417734,-5.33888470915235,-3.68600404413883,-3.55747631289796,2.13253932904445,0.791935574005947,0.309389953379196,2.70038543917644,0.276723921180746,-2.98838830839304,-2.71951837481402,-2.59334244087813,-0.102814634571587,-4.70696251811933,0.952407874708115,0.403148371502084,2.43032251415571,-2.27299435079067,-1.69054617596203,2.06735361891424,3.23403466600303,-5.14936627000225,0.479185035153932,-2.31794490196353,-4.49645459179237,-2.05632106768007,-0.871983332277978,-1.8398100343461,-3.76219480920099,0.404541343097662,-4.86925028215956,-0.801277936250244,-0.917963461819909,-4.3130299490449,3.49038049241472,2.39233050201119,-3.6206778854912,0.469657788898076,-3.90036575848444,0.658099727605077,-1.49287295473005,0.711097224910645,-1.65495558712109,0.130308844065894,-0.115240949484814,0.1093598047255,-3.67336770656175,-5.39075416940159,-3.73153976280219,-0.483575988184384,-1.27374979071237,-2.4575907629237,-0.113567920505375,-0.731287014744794,-1.39597267268346,-1.59279923389659,-1.75464051420431,0.4875902414542,2.39271142184452,2.3145127927537,-1.77231170699679,0.397475140453025,4.39482183056498,0.15554516203747,1.33900461161238,2.10427788369316,0.516189036816741,-1.22772211551091,-0.291272470732565,0.777400838555877,-2.35812805779187,0.178615552809333,1.52020154147385,-0.515715186484158,4.19688499609083,2.08243937951374,-0.087031981641303,4.57474355290196,-2.36424618072078,3.08996866662847,3.90097923421899,-4.20847782776355,-3.55464918459529,-3.85687061285398,0.295789013094236,-0.108677073107174,6.6319153810432,-3.23710035991371,4.48555975274485,2.22890163650982,2.45488393200867,5.72063380661575,-0.592263820176868,1.83910671817557,11.027321055421,3.79311893078648,2.97590131762581,1.37171334627146,1.76500853488869,1.09543632315945,-1.81408082163489,4.82941760474114,4.33959636038435,-1.88074682698834,2.13662885963595,3.05931599554015,2.82765523763283,1.96369831637321,-2.78040817085594,0.812587121748493,-1.90472697141422,1.56539856661857,1.43790753712528,1.36845573912797,1.09453908931209,-0.0616525669170187,1.51632112504922,3.44511252910252,3.16600512546074,2.62069968531796,5.12417950761392,0.126422945894319,0.0875346646457729,3.81915534587461,-0.324682576650957,7.42800211323265,3.95153344161554
,10,0.0412076383936437,-0.768093409298217,0.531436505873899,0.172089621985378,-4.3966907961144,1.09756669459102,-0.476444359082052,0.133914102894323,-1.86687712416051,-0.834949777307429,-3.34386554031562,-5.22439879864442,-1.94401117048119,-3.54428167417245,-3.96384932044339,-3.42840275295248,-2.00993661279972,1.18399184039072,-2.25563240517886,0.423909561919572,3.79879254761363,2.90025057157527,1.00638674639185,3.44893115407285,-3.86618420995728,-0.916049242391182,-0.496852787738135,-2.17675758837049,2.28480259410526,1.51474903578128,0.77311878834098,0.0601815977124716,-1.75793653283517,-2.24152052294585,3.09448266220261,-1.52788294049424,-1.39631824198568,0.147385970702089,-0.525869175642583,-2.46532052371231,-1.44911853956592,0.452299581151237,-0.0436513849344919,2.50290344074892,-2.56973029766277,0.424276760491011,4.36520112914741,1.97000166492307,-1.34909628342075,-1.14816759641963,0.235581477165397,3.33242347549776,-1.46074388124862,-1.64046434659895,-1.05837701816381,1.43396046957605,-0.0417670251558775,-2.60073101150738,0.586106267243849,2.1062798747912,2.34390284629717,0.170753583439364,2.48847921021661,-0.489721417357032,1.55065167762586,-0.998493625740593,3.85676474746379,-0.498917139268542,5.28754796198655,4.29529839940233,-0.0768259264232256,-0.706239763052508,-2.23928692047821,-1.89195387059044,0.180629136283642,1.41800890908644,2.52708400953406,-3.01849393290104,1.28808724510918,0.984882418479174,4.67774445319083,-0.954709883641044,0.509416198099188,4.54234888167639,0.90328746223804,2.15409301204409,1.84747723173632,1.650646317275,0.540401953875516,-2.20275032781547,-0.706018523067542,0.310655229052827,1.49209133805971,4.47843097986106,-0.0262693201184447,0.954968907433795,2.72938961124828,-0.709594049768384,-1.81598570142023,-1.68228147756508,2.92697365786307,-3.38178974850052,-2.50928235435231,2.9787325180223,3.28167263663681,-1.07351777246231,-1.47433546121692,-0.729551781167629,-0.492117986123503,0.831058349790965,-0.352238648212278,1.13793443337499,-0.0530218328572118,1.46457507507876,-0.572950683518684,0.505868901487247,-2.62551488664803,1.85206442449817,0.464639620486196,1.29249729703088,0.554546508344629,-1.0439075529589,-2.69314462342481,-2.05337319473256,0.582194855195212,2.45109408055941,-0.833447875651473,1.59436572568848,1.38639786645035,-0.311961334538864,3.80153742276343,0.133879528722446,2.83925180576216,2.82824203121572,7.59287767810019,-0.526624005150552,-0.40161596187545,-1.40514948418058,0.933386129916471,0.010265022958265,5.09908736129864,-0.719235537453642,-2.43611640255631,-0.630737452708672,-1.23810601467494,2.02975030053994,0.103607769011887,-1.58643742382219,2.70711976309985,0.319155195482381,-3.42849068217038,1.98367348186139,3.84541678527012,-3.40512891032495,-0.120248878758957,-4.44075437304173,0.236179496977002,-1.81664121879203,-5.36973581444636,0.116110119552104,-1.28249267281672,-0.274462238222441,0.656180925636363,1.52804257934986,-0.26515590995723,0.726692895193082,-1.58887802559821,-0.248962458758797,-0.826098557723526,-2.77545286313489,0.75614526166828,0.64007418637766,1.64925846633923,-0.921561558842313,2.61292062441544,-0.983503526099867,-1.20470861137073,1.8261411431522,-1.81353899285841,0.49195577116825,-3.10732282383151,-1.95538324203244,1.18768367768143,2.05503950910224,-3.42024141525235,0.559503386600682,0.520200927887345,-0.264532060951751,3.00550981153629,1.43870269282706,-1.11127517347131,1.08023377886093,-1.02007097645219,-3.97429685949692,-0.463779518291631,-1.84155790318755,-1.75295970605885,-0.608081756489355,0.991100010069204,0.145996244147682,2.55822267402482,1.9825267571091,-3.41690235376018,4.79536731555208,-4.30154918239941,-0.550417870528236,2.94399653943128,0.28809918583238,-3.73447071795727,0.339770198519545,-1.80673923336553,4.31782159753902,-1.1987777405825,2.67091497048114,2.84220120056352,1.25014418284309,2.121981514862,1.11278525959278,-2.29335710045189,-2.54548094070742,-1.0026598161262,-1.80534914674672,3.1275035451863,-1.54475317604192,1.08419948762048,-4.20807041032595,-1.21138551663671,0.710348777668514,3.12348181694097,2.20933229413595,-0.658138462797979,-0.683896634431221,1.31284446419295,0.886415082317399,1.6879338327285,0.296669512975768,1.32957251596235,-5.28276974467599,0.253800137928465,1.36377687728236,1.51111641370289,3.36416181691993,0.805481022112872,0.325256958210502,-1.01992654787909,1.33583381927565,-2.02506369570528,0.292488161816436,-0.490596550345799,1.95776995204051,-0.00946854289668408,0.960051919284524,0.835749379657955,5.69238463154988,1.22014324875954,0.659016741166852,-1.54040183291636,4.11610921147758,5.66580654076279,3.42613540716729,3.67260060601575,6.6247385781171,3.96652329830158,4.6010353753536,2.75230833549494,3.84888069874205,1.09633072598035,2.58301580444277,1.51037104541729,4.81601693091807,1.32404043775159,6.08300379181173,-0.0851489167607724,5.54089841396535,1.93684810329751,0.377834524461377,6.9248516557368,8.40128615506455,3.50098918053618,0.351010056777341,1.90244805364682,4.47414791837537,0.552225341887606,0.500186344957001,4.13934778308567,2.78267221526175,3.68906301162224,4.08958573784003,2.13915080630341,1.49529475091913,0.792510988496815,0.762318304183282,7.95027544188542,1.9636155097769,5.42385118800848,2.11970454590482,2.87238552017016,4.49698091723121,6.05273303576314,3.00372504757161,1.53616507839661,3.94492563923905,3.09986964132804,2.22422277824126,0.777854933408889,2.54787807149478,1.6934693604253,3.71530311284596,-0.0486760067419709,4.7673879345457,0.0517420049682187,0.125324732304307,1.76014877044054,2.24956569119058,0.443014628106539,4.38821772809797,1.67836843509485,0.452301428942519,2.87483658803376,7.11782920819223,-1.42534835757715,4.99925506246245,7.13582550564615,4.32294956506848,0.238753757367249,4.06834828604678,2.70603159705024,6.0638089174754,4.05538033901257,3.94720415903339,5.9863595056745,3.95104302679783,4.48326290450359,1.40075459870832,3.84334290197239,3.02100846738949,1.68867099207,0.916313582159091,-0.553675108426887,-1.69442401959486,2.21063999217358,-2.06155536998085,-0.601469934318175,3.81163251985254,-0.347441365106079,5.45338203635993,-0.268220226224457,-2.85191121690787,0.809149425081614,-0.977460304966371,-1.45359812131301,7.02222260201734,2.75529231429027,2.55234618666964,0.409330808954564,1.84790651198819,0.188172182399285,0.794921357743988,5.87263545994574,0.737418847759727,1.08745245123919,-0.411781678378702,0.805652913531503,0.736663614190093,2.05888911746342,2.39162526419523,1.91423294665628,-1.46293751293342,0.924551052082734,1.97604228551836,4.22342475291134,1.62818424541592,0.239306994815252,-0.326681252351136,-1.30309662820673,1.55885661082584,0.895860045539393,0.53544424706206,3.19254999714303,2.99336470995331,1.89604082661299,0.873211003428878,-0.00332873112256493,1.17259797212228
,11,-0.927109192651642,0.769601113308454,-3.77655085563993,-1.49743540888767,-4.33667152903627,-3.79615394964367,-0.0414262919739485,-2.02788107304332,-3.22379608852316,-2.28210941604493,-1.98525183666925,-2.05855793389946,-1.74893251059757,1.18299013021442,-2.46574549101842,-1.744977084526,0.406799573526769,3.97532782851658,-1.01172506559487,-0.074151607004751,0.156965252075679,0.0153169710356451,0.111755329692642,1.5102537526468,-4.88410381765925,1.58623813381337,1.82695724809128,1.41375281095316,2.0416512897541,-1.23579636312934,-0.306216656053039,2.58335513088514,1.35766205670461,-0.296925198314057,-1.76699322004333,2.15465631644793,-3.72916551075059,-0.278199472215874,1.91520071077639,1.0266433678853,4.16616591822321,0.222528865921959,2.51972274745913,3.83080881666092,-1.90977092593084,4.50947567496905,-0.484181266092492,1.89554198486576,0.580770218838552,0.493542559293019,1.68444752065534,-1.10781436751085,2.07837565356203,3.28221915898712,0.135420419836464,-2.16421488066089,2.48174165161527,3.52260771128977,-0.586074431073484,-2.96019420580524,0.463534928431727,-0.426681092774743,1.81711355209609,1.02129102092704,0.520435981751689,4.20648703853112,5.02240106607724,2.45629400582175,1.96782043517624,3.15709401702225,-0.195938072824902,5.564969333303,-0.179808896321447,-2.09157839453655,0.819959968071544,-0.660810110029161,-1.06365791299686,-0.970724646355393,2.5860583531562,0.646719878901422,-2.79235879784301,-0.30747752235402,0.589574587591414,3.60224215346489,1.43313714872238,0.227251436104325,-0.364015006676254,0.987928827920314,-1.1463606839784,1.03385879135021,1.32990386669917,-0.0251485209796556,1.07277878233799,2.01467559529601,-0.815473231126362,-0.817248373190523,1.81438335022722,1.04573070743481,3.48512536629096,0.634067421499822,-0.999242814938498,-0.406171607649867,2.70465511223711,0.902828577327455,-2.89330129674363,-2.07626006708824,2.19225505317218,0.80304751604308,-2.214886204104,1.97771283053089,3.51475705088205,5.11969872793452,2.2671387770456,-0.393044179340905,1.99155723849481,2.10077103468848,-0.372820158615923,3.20508373386565,5.54026555143219,2.76880210671925,0.883162108840679,0.27093246542745,-0.776018564190053,0.830168060627784,1.5302663992411,2.55372342395685,-2.19847248860196,2.35616581625527,-0.342936644366546,-3.30012752460107,2.86192723900422,1.37306044422076,1.30838774411723,0.829590693154842,5.12584192730901,2.4981033258623,0.02899323012889,-1.16158706870647,-0.112532793772061,1.08906403580067,4.68613518453185,-2.19445700637152,5.58616223697481,1.47945694048121,-1.80713063198937,3.40080140591999,-6.04175835035767,4.50117218508831,0.45920914399403,-0.0665543377308495,-2.56757607640338,-0.403231134498583,0.782365977509471,-0.126057882611804,0.672166285392905,1.52376724967007,-1.47032275314541,1.4067222095,2.59267281239681,-0.123808860403187,0.719860509287628,-0.897990001499238,4.54121012930045,0.735988943030861,-0.300814898160752,-0.869441378208194,1.83438198587874,1.24567036165672,-0.518627205044595,-1.86842736708422,2.29867650387541,2.59753587469277,0.257864952708132,1.93029330422587,0.432379082219995,0.0436941553411998,-3.47705729733161,2.47362233613512,-1.41400746045929,0.536170177251734,1.27436088677905,0.799079717978202,1.64230668787195,0.438405448509457,1.02715327720307,2.91005959398444,2.7093342039152,2.25209286735935,0.153363377309688,2.08708293547761,1.48344706174066,1.45925614985663,0.0585631262651987,2.06853163057667,-0.00756957368366784,-1.7548007849532,0.99100351152174,3.27495116670116,4.3735102507585,0.715377684814939,1.67565239373107,1.18991456262756,2.48062300500806,5.46475051060861,0.927908799394572,3.54076766122353,1.16874439735466,3.90366964259601,-0.174599806632614,5.25406459398755,-0.392223377677055,2.09722107865991,1.29903559854165,5.14033292104432,3.04460565677391,0.580232447689468,0.624512715254696,0.258292973081552,-3.8175432981775,-3.25830324444541,-2.76849916078754,-2.83473884633304,0.54142737490929,-0.189831636136205,-0.0240567117302817,0.104848990207302,1.3692375669375,-2.17730412691571,5.80413155635961,7.25882165911344,5.54074046268579,-0.971949243946256,4.43073004054577,-1.5009991316042,-0.0184205017408203,1.59239489306083,-0.459853728187227,0.818538459981937,3.05552338092411,4.66807128809296,-2.06976046517548,-0.179001637728106,-3.68670879805768,2.18476879134869,0.0164970754685783,0.259148035970611,-4.83037267154941,-2.54974294084514,-3.06355129447729,2.210385701007,-2.47457579084903,-1.84121463659358,-0.943093002908881,0.224299457045163,0.380877726183826,1.88709918123868,1.02126879758907,1.37281946754501,3.40807017825318,1.32398335256403,-0.346337509428395,1.37446895282028,-1.02610032693519,2.64395467489294,0.157743315338394,3.94585148650367,0.439504595886774,4.45632261289484,-0.447081821399024,1.11213280446873,4.59369165781254,0.0698781401301858,0.701571211905502,-4.23221919343223,-4.96113448147025,0.532945627312074,0.961278267860052,2.22243124013812,1.72674122120179,0.97199922498794,-1.20453160422448,2.1147844653683,-0.523055308509811,1.01537757562028,3.86339864137653,-1.21653421698875,-0.611029860513554,1.22045295124963,-0.186911049243918,1.90821511187778,-2.016737484852,-0.588716312703582,0.912649750664968,-0.183664714697443,-1.04518475092209,-2.64911280177648,0.502499327840724,5.1916549849966,4.00907625744185,-2.95111162742523,2.33114524748498,-0.370981929366735,1.00582576818988,3.02656951687368,1.38418235830977,-0.175103487204524,-1.36027457224463,2.04047954393627,2.52342226660676,2.92872025593897,0.042540031615772,3.703861773266,4.87519288324347,0.787382148059805,1.82244995164319,3.20080138121375,4.84854643587505,2.58569190574826,2.85904693051862,6.2156823386531,6.03969601715562,4.16684879838658,7.34591638084976,4.70988363435299,-0.676894361930863,1.58195622176663,1.68460497531669,4.20949685694677,4.0346827753101,1.54782549190713,3.861875629103,-1.06536957824801,-0.946356219641075,0.537855799492718,-0.12797318944331,-3.90716497438234,2.92531674655493,0.342547049746372,3.81582394938096,1.77035425303393,2.44917249886521,4.59031011471143,1.55500840458853,8.960868483372,5.40556636536394,3.82104788785909,2.87636883147115,6.2531887552359,5.83213370211161,3.80752322536,3.8338780224758,10.9384109139551,9.86943738062973,3.00243082038469,6.42285021060979,2.93404161664239,3.91897574042878,3.44892301757318,7.78560958460821,3.7246709156334,2.6453946571055,3.22597411257448,4.09116034307272,1.81350495821016,2.99299190800366,4.56105119054928,3.901676830832,-0.624150466630454,3.25381575873826,8.09744253595272,1.07259763277489,3.17868909154822,0.954525944820489,4.5135767466104,2.36061067828314,3.10251148977113,4.27095966015168,5.26535578898302,3.2712186161848,5.63966455244145,5.35127850660137,0.708712058349647,3.83965909908648,3.85405356016963
,12,-2.18683735291916,0.790496758109384,-1.39778008806297,-3.59157992174687,-3.26955902915597,-3.87343544698751,-1.89038484821322,-1.08419688231697,-2.97469066212761,-6.94445231436521,1.27671289217005,-2.34031706744918,-0.117275362388682,-5.14507925593898,-0.380966655823158,-3.09364600090157,1.82256162643489,-0.132376942765859,1.71010238262352,0.865287946980516,-0.30185432721737,1.16032492437444,-1.27425000084395,2.90451563711667,-2.5782235547058,-0.381215072085524,0.225383970609073,-1.57896190818019,0.205768055117005,0.368540334000954,-1.86365571968827,1.13904747613151,-2.83066627370226,-2.19250836431956,-0.591438772356469,1.73655588214024,1.86265657859667,2.13869506609126,-2.10163673260877,2.74098852342468,-0.782699781804695,6.64234745702288,1.8608747856365,2.56197456669997,1.73842935520361,2.475849867325,5.63165160604922,-1.43308757524392,-2.12677297735991,0.831567659318807,-0.58053365125761,-2.8205514201768,1.0201475931558,7.2022123047409,1.65966500188824,2.65945476873367,-1.84614482075767,0.921558018581891,1.04897771813057,-0.11362704364501,-0.802163776500947,0.686725140614271,-1.12731714567281,3.99208403441799,4.57593433568036,0.74854239831393,4.72250877291162,2.8499682083434,5.02630277924891,2.14761658300677,4.69124575907563,2.13798183843892,0.940141280184434,-0.419131112949799,-2.8690294098792,-0.289151039645731,-0.775201164868577,0.0135612573985782,3.12060862322187,3.80089694472781,1.1725538496471,1.31246837238677,1.63601361376368,3.13502039417563,4.29116493438642,2.55106459150375,1.50380664625209,2.09996021716597,0.619199971773014,2.25334271138536,1.32362588876867,1.02363739283101,0.226779969701511,2.57875324032784,3.1994595295314,1.49356895200344,-2.74742757414333,1.91180209790673,-0.362901183455506,-1.61437232925164,1.00421793338683,0.810252836956806,-0.117905325618267,-0.781936888525252,4.30959730487803,3.17650061206632,-1.52457881274131,2.36445952975646,2.87004902241279,-0.0694808248535992,2.60507331479403,2.47866649580283,-0.674959583781401,2.20083900823147,-1.86249179769084,0.84344312107487,4.84845825692264,0.53168859542393,3.87001454012443,0.876803497726996,-0.970597777168223,-1.0264279660646,0.851184259870934,-2.20015943406588,0.979212578722127,6.46643061835766,-3.30262389876134,-0.791688810112191,1.61044421855695,-0.158322759136809,1.15279096511722,-1.35669523754859,2.4654899827392,-0.452768156684215,4.12271614947895,3.84415713677072,1.38503902939146,0.824889064048875,-1.53026634067191,1.5302998354714,0.240042582488513,3.64419912429912,1.33907225585472,1.54256042434918,2.17607355578502,-2.45794234609912,0.39242348253083,1.8871207157099,1.89603112237182,4.48205354920901,-2.9110113475881,1.31607770831943,-0.0515553479344817,3.79757451921023,2.94975791334809,3.43631112188177,-1.63097961757785,1.45063937303848,-0.371206736896511,-0.325859443749323,3.19175341882374,-1.63751198618957,4.51325980013826,-2.78040139929044,0.679921696766087,-1.5295543148186,-0.384851374689333,1.96827516618259,-0.196398637529001,0.269028958502531,-0.873161730801257,-7.24801961692265,-2.42339310606167,1.1632170591738,3.67687127078398,-2.42621974648455,-4.45910938356383,2.08780619892286,-0.55334420847521,-0.516702298918972,5.29092749516667,1.21400504827898,2.56593662365049,0.522833607360099,-0.274860046319191,6.14795781275598,-0.0651822091499525,0.421853339124937,-0.943434369487022,-0.475980835668452,2.63961723050079,3.57974838752079,0.293666751544606,-0.92938871395063,0.18500392332453,1.77208613874836,1.11408451718899,2.21800608322292,-0.0575660362205781,-1.25628574397615,-0.223810178220901,1.90267204539214,0.307562494329886,-0.769604276040354,2.00653088280205,-0.523074626192283,8.12387198132092,2.83717819382036,3.14667593001423,2.14088290631025,-0.280260028418979,3.85098337379623,-0.0678751161794935,2.31767695247936,2.7771289614634,3.58006533341722,2.51703239580365,2.86487263906156,1.68998816758631,0.432562304693874,0.143276299678746,0.131772110652037,2.68659862841878,3.94690805969958,-0.0388123990946951,-0.098798968504525,2.06880003625338,1.25868773412321,8.88712757518988,4.70455275179575,3.53491403954877,-0.469939974899717,1.26782280211228,1.08247812966101,0.476118392401986,1.82981235143416,1.0026756490247,-2.26722056125118,-0.894589214449752,1.9816465697395,3.44002218555443,4.03830603652932,7.63840646779954,3.62966704291966,0.158893128111231,5.03636281946274,2.24293396628946,3.45296498462767,1.98836247345935,0.814723687877176,5.31266348952568,7.90092608355735,2.0696641545037,0.464788722502817,3.00455200343549,1.65809292558606,0.417311380651427,3.69457143766931,7.6041618839713,4.73073182150165,4.26511436881037,5.87202671065734,0.559015974454724,2.98479604722615,-0.616619828231705,2.59777160760268,1.74777405185705,2.13926593233145,0.956189682617605,4.15311889998702,7.80609154043896,5.67433729322465,1.76312210307742,0.15305621330981,3.53314317764352,3.77912132148003,4.76772678232965,9.36448750561749,4.41802601578502,2.7386863269835,3.90527724007188,3.6679232050742,3.74993262559747,0.353052767972713,6.20983808390974,4.44956706540233,2.88881648856523,4.60222298329427,1.51066122628799,0.106757719667712,7.75909188079413,4.793042752367,3.01909526851887,6.57896249137457,1.8841701390229,8.29226447435667,3.90010656856703,1.77310907223591,4.01141319957924,6.43371071449519,5.31573139166267,3.68647269212306,3.66599119216289,3.19526471288782,5.84044077766521,9.45142730396628,5.55481308640583,4.13358572405332,3.95039621693331,6.63649656189045,4.59204207338416,4.82778919411976,2.66620364830169,3.24912081006823,3.60597851712464,8.22824472680986,0.78519577634961,1.45152204171518,4.75614327387848,9.91999647053399,6.63115867227907,4.71875149764173,8.03728288629463,6.95512330932843,5.07533808679227,2.38391633331912,4.98786394184708,7.38997862454107,7.0066603873388,2.86776296021344,4.8458212219407,1.20030741378287,3.63883238086328,5.33685399389742,3.67278883884956,5.60042473652811,5.50218185052427,2.22550824218752,2.33072615058882,3.67709970646774,4.99709107023546,2.79805290824788,6.96256006060275,10.3369984883325,3.90903297513978,4.71908663461863,4.56645467779481,5.30917704275134,4.89139733814955,2.9927762516063,2.63853233886948,9.57105401478429,3.20836243114991,2.28000297412746,2.65891972697546,3.13458321581675,-0.49778918459333,3.34577614216005,2.91161544329225,5.2690374819731,1.25843070323799,4.93731664191955,4.59580980828059,1.05606474346587,4.16731317884523,4.89969825025992,2.85505131110176,0.692758536180463,3.43862857026988,5.30032180388071,2.76026026886984,7.45990928967149,1.69788622472197,-0.626873780162896,3.70025025287396,4.85252063448388,4.04504572550059,5.03630076627178,1.23558784787792,4.98807717053523,3.63850740494399,5.59203527350928,2.44047233055881,1.58408820958402
,13,-1.53147958073259,3.07366621169695,0.759773752004094,0.109477977771803,-0.612488585346455,2.18997659131401,2.73609070326938,0.950216026144972,0.377756224452696,-4.92959512144307,3.54010205762506,0.764702087287787,1.88473993348225,-2.38170574411106,0.17617291657416,0.874917649084182,-0.374868396505462,3.70555415991475,-0.00464817303873133,0.525724928146246,0.730835577815924,-0.562654935525188,0.328143099654881,2.48751857764046,-0.200725515702743,4.89981397344764,0.563153132544358,3.36079739480556,1.42160568048394,3.75321241136999,5.37215229368212,5.63036629656608,3.72240520117475,2.18683759470332,0.220305669913159,2.7153930022555,0.616605128464016,2.3166134215744,1.46523303948288,2.43872231919022,2.25252964897845,0.828666068839539,2.32305550667388,2.91033565875387,-0.261157259786614,0.809540559538164,0.90566764082314,2.63035245110814,1.30714232085757,3.15580596995096,1.84685028661261,3.49858130744633,4.63628878279178,6.29299535930977,5.75213516758686,1.83357767020016,3.11486648459049,4.31857543401975,4.09647720194289,2.53217108714352,3.04820942380729,0.561195800389669,0.83801100507344,1.54014881734793,5.13235545036468,3.76878805146998,7.22621102684479,6.36427137782403,4.91654812203979,4.1476865133468,7.5220823315899,1.00391909818063,2.03109106053398,1.78664666719942,3.05127337323211,4.32502049385857,4.69809997426273,1.59969022241557,5.98362221399884,0.143859194598463,-1.50100974286852,2.76179085171952,4.34007421540491,4.21170775561359,8.66328827840971,3.87996252213907,6.06161825995105,3.57620811807419,0.139899823233918,1.50331217046414,2.07315489895836,3.46451948332378,7.12215938155759,1.94252114305209,1.86259308773424,2.57349172454997,3.23813709364094,4.93767090795973,3.8636649559644,4.52197585178919,4.02044949181754,1.90657803571912,2.9953831197945,2.63517099876708,1.74611091981524,3.0821966555136,3.01524140243282,2.98657851869802,4.38629416010963,0.389143387109016,8.07835364387529,5.04340426197223,3.90688796199902,3.45487703434674,6.55380942022248,4.4463654386027,3.93114903061542,3.02088041452407,5.84083883165977,7.90643118488879,3.39339944018047,3.12349875660993,3.06589108623029,3.26870071570102,1.27880889317657,1.48715674298001,1.71050574149422,3.78571566995834,2.3104351935749,2.82447145244305,3.16615528393413,5.18707839548188,3.38363282722594,6.7887965691466,8.85162502035018,6.52437056873896,5.67289795356146,2.24641531413681,2.76197587268598,4.87928935025866,5.58394486802536,5.46957883027926,4.92884441291199,3.01865256168639,4.10624062263287,2.62327876844256,4.0508151351446,4.2517605193857,5.07152941081904,5.22562381814851,2.66942078894954,5.917314681275,1.66831053239821,2.89795198201091,1.20625596854734,-0.385970631906275,7.96831235353056,4.8340108858406,0.911507784943296,0.880371540469241,2.94009107205829,1.41929612808372,7.00711390267679,3.23935234573537,-0.598825420129742,2.35912358008409,3.56283605562021,3.82202648671546,1.18945668081869,2.33094178574174,-1.03888121895807,2.0143303563641,2.53025596304724,2.22932031459914,3.3620049580145,1.29877094562289,-0.199523971987219,5.12172169866426,4.0536762031561,3.61290428639495,4.0236980926843,4.83494208389175,9.02184602770149,6.10393948846422,0.267499616532859,5.92656868324639,3.57080352941193,0.631496958767002,4.89044495206599,2.76292086230433,4.75377391617985,5.84512991474958,4.86739165384734,4.2712598193757,0.559587031531009,4.59554617667345,5.28531605705439,9.17636413097853,4.4466323290435,5.12732264443548,6.66271924929151,2.27772010001854,4.21311117145888,1.34776474970704,4.01323830819501,4.13123759012251,9.32616458798884,5.50778029575304,1.08885506745082,4.92291900701957,5.43636765039764,4.9609844855172,1.33610761028467,6.31806661711653,2.92474555809531,4.73578455931101,3.68456730446724,1.60284451044299,4.3902853966988,0.952542238226215,1.20226094564941,5.36384700319377,3.09329052918702,0.982147380718288,2.22732518544353,2.41088859691718,2.25192278890518,1.84260319314444,5.00929131721159,4.20486217089001,7.92454527835616,1.34335403648038,1.49091731606541,2.84491414857303,3.1876575420074,0.683491055902778,6.27319845460079,-0.78011561489302,1.47329240580484,1.56909465916715,6.74506995612273,1.64012319378753,2.19919421290297,2.9703714946113,4.30275644248604,4.25661140487728,7.65716237654487,9.0798804187375,3.86658652704909,4.92384922798192,6.06954302580789,10.1844469830407,5.1094580487802,4.25904712844704,4.53010441267861,7.3935608898114,3.70278360858629,7.77442194852529,7.07060611016595,7.91035279525067,5.45484601000317,3.54339296003172,2.370976836723,2.18419791432416,6.52725664040145,7.89649902288238,2.79377760672605,7.39073429763266,3.30287789309341,4.61571801898754,4.46615906266288,5.53158797558717,5.08709087437273,4.7167929246757,3.78984311261684,2.02034615371849,8.83737940734954,5.96409969285196,6.36998552952491,3.58225314535503,5.54116136779885,6.39211877392836,4.56787482447407,4.79410309553714,4.01342883948291,4.75294703981035,1.93673503516675,0.656397515846038,6.41112281849882,2.85752133627739,3.4772399547669,10.6290582077768,6.82450857715821,6.92393250521673,10.2874021737966,6.22671795698898,5.03366043813185,6.45560972567137,9.34961857305052,6.67975047698746,3.54740846469986,5.32152237880427,8.82014166815816,9.75380787516178,6.28040095728875,8.81476297912332,11.210736768478,5.33442020056691,7.70572710482793,10.2545304356795,6.59480469287109,1.59544226704156,7.78425752934754,8.42017628483245,4.70288136986073,6.54397298965887,3.80355940905338,3.93417443111412,6.52551229736673,9.04302497367007,7.05096147309723,10.3962071620467,6.78300470304293,5.80975528730232,6.86293436784308,7.04271383740752,5.94759870729968,5.91285355028958,6.44991358404513,5.31654297402338,6.95593016077373,7.69108423110038,7.96633376117597,7.53160643435149,7.20129838984622,6.3687930236506,5.78884366221519,3.12165584371087,7.22813231656255,8.5999176721657,5.341481961917,6.19138525571407,6.90259229897902,10.1959061959064,8.26734396701795,8.4537527046441,3.73260455868467,5.74477925518568,5.62034605153258,6.48357152970084,7.98286140016853,12.955093847534,5.71773791698888,6.89646441019477,10.3009756720626,9.18743576028419,6.03642929119314,7.80699664169151,2.76509000052238,6.85677494330002,3.11041476181481,2.94584431156181,6.93364403143914,1.64844304344615,8.11016400947392,5.68770059875669,6.00472510444797,5.69579312534825,7.16731440498188,8.68399407324023,3.41145220605813,8.16669380251324,4.90198998276446,4.25971727337856,4.50716387680404,6.67183487815691,6.87334226072016,6.21739702270543,7.13408302133303,4.06394119659399,6.01227985963033,5.01745229305243,2.6772185332793,5.10950576694086
,14,-0.913402331957968,2.69832868607728,-0.928214101811136,0.268076371796724,-0.573491178301083,0.0885704491693105,0.883911233532217,-1.32611731200632,0.306400926058359,-3.72929667770404,4.60422240086154,-0.182817259199965,0.540942345101939,0.770884397407826,0.973607638200519,2.66243190138039,3.02244687376151,1.45463636105251,-1.66986475750809,0.598619136569141,0.308936518306837,2.0254529091344,2.47219224274613,2.55709665346603,-2.27417589669312,2.82150500580246,2.20999480709952,-0.169114122405063,0.127252293801575,1.36699950759703,1.89919528909695,0.767229578036222,-0.480100875043718,0.26617018682191,0.758396268481647,1.71345057445797,1.06427517114571,2.47217643006661,0.866269179265146,-0.592142167889961,3.95974915022816,4.04280590050121,2.24820361479806,4.44240249233007,3.75407614060259,0.986959148726328,5.06682306555149,1.67268657946988,-0.42497537888994,0.608642650496677,0.756984280193137,1.84513855513296,5.94103308189415,2.56609053562306,3.185199675077,2.82634069649293,3.02142118829261,4.23913756632646,3.49835457053268,0.870866080215364,5.73406549682113,4.44278025919402,1.33256054558751,1.02647045024742,3.11940701067078,4.41645519355461,2.59756515066738,5.72689868984799,4.89998104932693,7.22439955264281,4.0443576922471,4.87018388973456,0.442573712617104,-2.44491530348068,1.81646709474398,-0.736574500016559,3.06773296622941,1.48969873660417,3.64118054079199,0.549856531712521,7.15026841408053,2.56561369918427,2.68008293715184,4.27489561174525,6.94753483638942,1.79153450343119,2.77885163464998,2.92795067767793,2.99804494895807,3.8295755976801,2.37956349919659,1.35380394226968,1.55250596088217,3.36092772747224,1.83700771232589,1.05579654273834,0.697247111765137,-1.14819766707797,3.50297004048798,5.38422763031895,3.8035763052485,4.88712883230119,2.62603398959027,0.891553290850879,-0.0938219350641702,5.89297740543543,3.389229300652,2.70116886263395,1.41818102611614,-1.97512885672768,4.18625858786845,0.726841896748283,3.18791902744852,4.71580031895701,2.93096201119761,4.60332725574153,5.45833486041738,3.04403899490035,2.57337755269646,5.70012788680106,2.56355607276328,4.07786807620778,0.953582765676401,2.95646982015523,3.95317634952244,4.90630807257048,5.62673818295934,2.30294031170024,-1.55084972571331,5.07698518769803,0.206247891183921,2.06437244011158,2.6358594607409,10.7034516112562,11.9625439109086,0.553667570588914,7.41516720519439,6.52496938325066,4.85731116668285,2.64458931912532,-0.12018051658697,5.49327653810406,1.31522928025561,7.56359865056993,3.48481807946791,3.64476071093441,2.74906572403552,5.87034052890294,0.0133556164264519,3.19273814755888,2.40096249295311,2.22929210253051,2.74443669545371,2.46135403382368,5.89273409910174,-1.45957552058962,3.92761193042998,3.30549593249179,3.63501251167827,4.71305375697148,5.17129719062405,3.43137850100266,6.99729359283901,3.07088900805365,3.29109240372509,6.1847721698623,3.29287409371454,4.42354858091403,-0.226195921055933,3.14083198358821,3.22418144252379,-1.28790790588255,3.08754953625203,0.215754348761493,4.277671880041,-0.136089446345068,4.32682918212095,3.90992530769608,4.52716820766091,4.14664564408167,6.35564061516334,4.33625201648647,6.20053739532932,5.0451207836345,4.06140632312872,7.05756405462535,1.82325083222395,2.41854802349053,1.41985831342345,0.58041180129203,3.94413933012038,9.40475795483644,0.196983803696185,0.872581289173468,3.55757218376675,4.54249526026797,4.46722641526048,0.762473625452913,0.96291672278403,1.70855840522381,2.61550099765782,4.7091601587731,4.68842286679865,3.99480572767288,2.6271832826119,5.25777959729157,11.1722249286227,3.60287072972142,1.25220107177574,3.6219495807668,3.71117330361312,4.95782141356494,2.90025667150985,4.95301041459879,1.9374170242495,5.72178822864817,-2.27536677864691,3.49233745489528,2.5924753575423,5.3368459719245,1.64724061787228,3.58566264439833,4.76187405301653,3.85948458281882,8.45925248456979,-0.363931801451599,3.1608270989027,5.29757014270535,7.42350289528304,2.93613079119814,6.37513172742683,1.5797945274935,2.83990904964594,2.40939164564224,-1.12423243675494,1.77415442896972,1.6731290776811,-0.436624356475477,0.459866168995632,0.617941052292736,1.90353585952698,-0.552315158342481,2.90203921098282,7.19850826547508,5.94146639148448,4.7827944221317,7.20933870502131,7.3209516105544,6.46992046498281,5.00042252726826,4.31787414556447,4.90892743998938,3.99710075518078,5.42572226037601,5.24626068838506,5.71031548822157,7.82996803699643,8.65485661518733,7.73692783164006,5.29564846222866,8.85052703514793,3.49698851577887,4.17362984865349,4.8611751052872,5.31157426996924,6.63012960168999,5.55051396121826,4.64224193511473,7.39538340604213,5.33333600507649,6.89688398394082,8.21363104836564,6.4186493751381,8.12505203452247,10.5300114336233,6.60789978126149,11.3666687031546,9.87580153834642,5.3509847674959,7.22946583941803,2.99096228917188,7.49244668970323,6.45065745311831,7.03979779290057,5.83443252119287,3.7936219536773,7.23999794849578,7.91268541583077,2.02256320674996,6.18346722032038,7.04498615238208,6.91307931488336,7.15959218991702,11.2371283447078,7.02220851149423,7.16019355273556,8.2533634764518,2.73538094969535,6.71454373129336,9.93892008303737,6.21197618618908,6.66802289608631,5.39239548133037,6.5808392734366,6.30240241740466,6.8880799657245,7.83727126550457,12.5105656947721,7.20773278872502,8.29746963285061,3.93579325316614,5.80225141944447,5.86509161063759,4.22435523783815,4.97717684545569,6.53629961870729,4.48177185609438,5.05039892603054,8.9979700687536,5.06872265783159,9.15000167924836,6.7892016615624,7.74033579531351,8.84882125358263,6.49666799836587,4.5242172504154,8.68593072609337,5.05230887828793,6.20574263635854,3.53290619450672,6.34175708879911,3.06807537744498,5.00234811283963,7.33437898732655,5.07233604773091,9.61779741482314,7.36497062006174,1.54307877975316,3.84481500866013,6.35478972139708,5.65808748907784,6.35592175166539,3.5697283929394,7.53542323654619,6.70700796650317,6.57777678893535,5.58392081714646,6.27931281817519,7.06647878661079,6.89503423849646,4.39462522345639,9.00049574730929,5.84890420732472,7.15920559000006,7.70693137191529,6.70799798863118,7.91521447285959,4.58750723779667,7.15865335540911,5.02296534477136,1.08546159577236,4.31841751132879,4.85932602488583,5.50451879070306,3.01802572658926,7.99240996778781,7.80059045133476,3.75813118534916,1.54716204208262,3.96522344114373,4.16066881040751,6.95810625265449,1.68878464964564,3.10098970224499,4.32699676288985,3.76337201684191,5.2932259245722,3.52947523673674,1.41726704282019,7.02589184352428,9.25951467517825,3.72540597473653,-0.807571774853386,2.09989772108838
