usefulmove/code/maestro/PCR-211006-1030-SB4_384/PCR-211006-1030-SB4_384 -  Quantification Amplification Results_Quasar 670.csv
,Cycle,A1,A2,A3,A4,A5,A6,A7,A8,A9,A10,A11,A12,A13,A14,A15,A16,A17,A18,A19,A20,A21,A22,A23,A24,B1,B2,B3,B4,B5,B6,B7,B8,B9,B10,B11,B12,B13,B14,B15,B16,B17,B18,B19,B20,B21,B22,B23,B24,C1,C2,C3,C4,C5,C6,C7,C8,C9,C10,C11,C12,C13,C14,C15,C16,C17,C18,C19,C20,C21,C22,C23,C24,D1,D2,D3,D4,D5,D6,D7,D8,D9,D10,D11,D12,D13,D14,D15,D16,D17,D18,D19,D20,D21,D22,D23,D24,E1,E2,E3,E4,E5,E6,E7,E8,E9,E10,E11,E12,E13,E14,E15,E16,E17,E18,E19,E20,E21,E22,E23,E24,F1,F2,F3,F4,F5,F6,F7,F8,F9,F10,F11,F12,F13,F14,F15,F16,F17,F18,F19,F20,F21,F22,F23,F24,G1,G2,G3,G4,G5,G6,G7,G8,G9,G10,G11,G12,G13,G14,G15,G16,G17,G18,G19,G20,G21,G22,G23,G24,H1,H2,H3,H4,H5,H6,H7,H8,H9,H10,H11,H12,H13,H14,H15,H16,H17,H18,H19,H20,H21,H22,H23,H24,I1,I2,I3,I4,I5,I6,I7,I8,I9,I10,I11,I12,I13,I14,I15,I16,I17,I18,I19,I20,I21,I22,I23,I24,J1,J2,J3,J4,J5,J6,J7,J8,J9,J10,J11,J12,J13,J14,J15,J16,J17,J18,J19,J20,J21,J22,J23,J24,K1,K2,K3,K4,K5,K6,K7,K8,K9,K10,K11,K12,K13,K14,K15,K16,K17,K18,K19,K20,K21,K22,K23,K24,L1,L2,L3,L4,L5,L6,L7,L8,L9,L10,L11,L12,L13,L14,L15,L16,L17,L18,L19,L20,L21,L22,L23,L24,M1,M2,M3,M4,M5,M6,M7,M8,M9,M10,M11,M12,M13,M14,M15,M16,M17,M18,M19,M20,M21,M22,M23,M24,N1,N2,N3,N4,N5,N6,N7,N8,N9,N10,N11,N12,N13,N14,N15,N16,N17,N18,N19,N20,N21,N22,N23,N24,O1,O2,O3,O4,O5,O6,O7,O8,O9,O10,O11,O12,O13,O14,O15,O16,O17,O18,O19,O20,O21,O22,O23,O24,P1,P2,P3,P4,P5,P6,P7,P8,P9,P10,P11,P12,P13,P14,P15,P16,P17,P18,P19,P20,P21,P22,P23,P24
,1,13.9278625964334,10.1702837090033,14.2499831497953,14.6018893366909,24.0242240084799,15.4625475770226,19.4507647079308,12.7230717209895,17.3292924409971,19.5413552326563,15.0280909164012,10.1720580827778,1.98171835770245,8.98614175207149,7.82512517613304,4.67370070499419,1.5484174066396,-2.74433749582568,1.44993132784566,2.34801898336627,4.78241742837508,5.29579885703333,12.1199834744011,2.32156367886819,23.1025181969935,15.7491087380877,13.5661890118563,13.9297937468509,17.1133052439864,19.5804859244618,21.123742984556,17.396420544851,16.8923260507509,14.6003190322072,18.7763550527934,14.54904682695,17.761284458471,12.4243941880986,10.2026640370459,13.4646140676141,11.0858137241685,12.0290652318372,11.8215645447999,8.33352869089686,11.5013549025061,3.29797771365884,-1.37976258340768,-6.45576544679443,5.92085392098397,5.79454123730466,12.9639536328514,4.352752851074,5.09301047542704,1.8642803404191,1.50677992679903,5.39561151420094,0.365945901619853,3.90201515141143,-1.43702277042939,0.371198039628325,-4.82031462435407,-2.15915251604019,-2.85675939447447,-0.321401723413146,-5.65904036697339,-7.37832012522813,-5.27939240802152,-3.3435909728596,2.33625789387224,-0.0871013001187748,-7.04651244094566,-9.08819864650104,8.09536263570681,2.59821560538967,1.9248819313716,13.9304375495167,6.54910191930867,7.301536711675,12.5401087383179,6.26004997989912,5.70922973174675,4.23489881656496,5.34297234056248,-7.39757062029094,2.73439629674249,2.11213438669347,-1.85883015187574,-1.35880882210768,-0.918475142751959,-2.36514276847629,-2.8247817166166,-7.63966286112372,-6.47371027604004,-9.10910700214936,-3.51369451232222,-6.81345380151379,2.15526581516951,0.683373967091029,-1.44861758976731,-6.75221352540393,-3.4671877197552,-4.21001799760052,-6.11867504066868,-3.70926039330425,-7.09720410450973,-8.28321601327207,-6.13173864611963,-11.5172947315077,-14.3290422547598,-8.98526837159352,-9.30942328179299,-10.0736709380999,-8.19732023041433,-10.5309498086035,-11.7133701919174,-14.032839180466,-9.8374291434684,-10.3477549300769,-7.23780161436662,-13.3405094337604,-1.83981775367738,-6.40688539339317,-4.45124489484715,-3.69800716507689,-0.229939030481546,3.29878191866555,-2.28378838165645,3.1067113834506,-2.20099111778745,-9.75243555429006,-2.56184582600326,-5.75609235112461,-4.69297901708978,-1.94175306060151,-13.1004760613414,-9.63404858973445,-15.6127901732671,-9.15262405905378,-8.42826130052435,-7.14572266640062,-9.72744880407663,-10.3808184736072,-11.6857948231554,-13.840748650744,-4.23510952899323,-10.0416807014735,-6.41702169790096,-17.0604712111535,-12.9037886141696,-11.2026225913251,-2.93587216438755,-10.804869090628,-14.0662588062178,-10.1788048310646,-22.3349249525709,-16.827561265658,-12.4273918944473,-13.9126212804895,-14.682962271736,-14.3934021649429,-13.1447237808115,-15.6235581411975,-15.3014363748471,-13.1211104412732,-9.67233766062691,-10.3374298892031,-6.28353690591484,-17.2026847943434,-4.83274217697362,-9.13465837115746,-6.72959364159033,-10.2544443710867,-4.74898752622084,-0.706704237847589,-1.06621026673201,-6.54727886206911,-4.41889701058426,-4.87403252870445,-1.19139927065953,-3.43514474804579,-7.13961005237161,-10.1329330963517,-14.6670250325569,-8.05561388253864,-11.3218593624397,-11.9118778730553,-9.47127303303841,-13.2361141123902,-10.4039238022342,-9.55213688990079,-6.15639454408847,-11.1436210530183,-11.0755380462415,-8.16869733369458,-6.07672592495965,-9.34440050315425,-11.6572344998194,-15.785882159109,-13.8887402476012,-11.6380936664737,-12.1139544698599,-16.3059590843041,-18.7460309929138,-15.1580381785161,-16.6875231885861,-23.5943780221651,-12.9156828144669,-13.271869027616,-16.2092622777327,-18.2406995540932,-15.2320948489396,-15.5853717672462,-17.7493177870983,-12.395835397695,-10.6850946171644,-13.901739408524,-0.82131340507658,-5.29626663580984,-6.42185718677501,-13.1815834286344,-0.495463359510723,-6.59715581645742,-7.51335978205043,-7.86625918599384,-10.253354681322,-9.87304565782597,-11.6004307705352,-7.98185567650944,-15.3412312807759,-9.71064248473704,-11.6987606607481,-18.6892435375339,-8.05422515190185,-12.3509862859728,-8.17680865397142,-14.071825024489,-14.6117790259423,-8.97888438928385,-5.74848137640038,-8.60513876323057,-11.8140738837246,-12.3265103844542,-11.7365645089176,-16.6602775534539,-10.6223887041197,-15.483905708149,-15.0923193679964,-14.5600808296722,-19.5160786307351,-16.2089010993377,-17.4194885418365,-17.5320897765587,-10.4668894730621,-13.0666247305571,-19.6818178208405,-13.1987580692139,-13.2784671507752,-16.5686330551343,-16.6011973336899,-17.7007765285707,-12.3242627361269,-11.4686785395943,-5.94772687064597,-13.1154342119298,-4.63899113709795,-10.7190274532813,-8.66958505774983,-11.0924881175679,-4.00227614935011,-5.28903820361029,-10.2804642686615,-10.0059432775743,-7.64255978590336,-10.4884069496384,-10.1577817749157,-8.67292607663876,-12.815266308683,-13.3055262761682,-10.8021920280207,-10.9820370591215,-10.8796201169089,-11.3895395314585,-10.8271927188962,-6.62784584111978,-7.34120582995365,-6.16893552415604,-3.97375117759111,-10.8001842612912,-1.02163962593204,-13.712786024962,-10.2111547578279,-14.2253936575244,-12.2612789589029,-18.6574731399987,-14.4045205246566,-13.0733213535041,-14.4126607731059,-13.1175830741895,-12.7114153926723,-12.5858346042651,-13.1932366406463,-13.0791037907275,-18.9473088622017,-11.9450145678584,-14.3605912243411,-10.0146584798449,-12.1106630110935,-14.3276546402094,-11.1674795977106,-6.76208431533178,-7.95973359322579,-10.332039203814,-11.4638999115032,-13.3170388012904,-7.13412702317328,-8.35447055261011,-5.97865985137287,-13.8044554672024,-10.6301691096487,-14.5334850088593,-13.2734997237494,-10.0538587026404,-9.1106318534321,-12.1184095055087,-8.41103707815728,-5.83788208774695,-6.68823178892671,-9.96831027618919,-8.57547743820578,-8.80337274827616,-13.0884230178444,-4.74422994653014,-4.04297223867252,-0.115073590610336,-6.02609565379407,-5.66917030405148,-14.6153813468709,-9.72160808126682,-13.6244681287626,-13.7139254946615,-10.1644463796993,-13.517153808154,-14.3686437487731,-13.7615671700405,-23.0278177346745,-16.3404637687336,-13.6444329651231,-20.2354330926291,-14.6890189030573,-15.8461645709649,-18.6446481467228,-12.8928309186476,-10.8696767011561,-6.41721278168461,-13.6047609592006,-12.6375889965984,-7.2952151550262,-12.1806879843298,-5.94806049101226,-1.86550406974584,-9.80247269733536,-9.19643185426685,-7.16169869653822,-10.7913479754934,-14.2256057199784,-6.40521785220517,-7.25896799650309,-13.0353090062081,-10.1726989713434,-9.11635216281047,-13.122442521294,-10.4398716993751,-4.61268257756183,-8.10703568521421,-2.12395596758415,-3.4641083776969,-1.07415082282205,-5.62589747273341,-2.01688025824933,-4.96499647825021,-6.84855984675778,-5.9628135851417,-4.55427323657932,-2.0221255172637
,2,-1.66887161965406,-4.56683058011913,-2.34388262796256,-4.01647057621358,-2.24178486462006,-5.14605167562422,-4.93255025878716,-7.52477529667613,-1.94764486994336,1.4359394292369,-4.79359180934262,-3.25553914291231,-5.96332438490663,-4.75258588336237,-4.50554077309789,-1.05111140235113,-2.94836569163544,-4.96677136948892,-9.16843938151305,-5.12441155745182,-4.69014502133632,-3.48423970950353,-1.29502173243054,-5.68601780671906,1.81460478671033,-1.20193130863026,-1.91406905368422,-4.40555824226431,0.274382042336583,-1.26907333854888,-2.57269040385563,-3.61290790165549,-6.29226792971895,-6.54013117703471,-1.3893529458428,-3.86598362371933,-2.77262890627389,-6.00385556531546,-8.74032850530148,-4.65915057884649,-2.97639280461863,-0.832342427142066,-1.24956416078658,-13.1288263722199,-2.20672896029828,-6.86403495387003,-9.81793322265366,-5.3153132261159,-2.27999779050333,-6.54073509466343,-1.34586226658848,-3.52829916515293,-6.89653159691443,-5.93350381482833,-6.68302210646925,-5.64242480318808,-5.96211904894881,-6.22207901921956,-5.79427262233548,-3.08523896304814,-9.24464998011536,-6.4737258665491,-6.7156773606057,-6.46544814185199,-8.32228554151607,-6.81057428052372,-4.42096404499262,-4.16077051724096,-8.16904577308469,-6.47252945055607,-11.4369701965979,-10.1012458682553,3.2557158670088,-3.31709707890332,-3.48156093600119,-3.03813618961249,-4.11208038377026,-1.45149597999625,4.47332211916728,-1.62685481513836,-2.16447623251133,-6.66144937360968,-0.0777325491808369,-9.52791742665249,-6.94702315291852,-7.5589137601055,-5.71640291814492,-8.76982916621091,-7.91818943734052,-5.32095131688584,-6.69803204230084,-9.22774315085644,-8.52201433821756,-8.2896672117713,-6.19242649028547,-9.08292307628381,-4.1851486084206,-5.3614699762602,-6.7461235257615,-6.66039587635623,-6.35345266813329,-5.43411191359337,-5.81033856916747,-6.05426645495209,-10.2384889977147,-7.96763517125873,-12.5773538985477,-12.077699891337,-8.03604525500941,-9.10433730967816,-6.58567515809955,-7.50490312691636,-9.10143834003975,-6.43919293063573,-14.0783892526888,-11.8417992852928,-7.9264044436859,-7.06934484820249,-8.11475722174782,-10.8061441505342,-3.87954154232102,-3.80776271401737,-2.16696783830139,-1.82518679316217,0.541434801619289,0.567393194803117,-0.505496259503161,-3.34249441591055,-4.50199282480025,-10.1899112319161,-5.26141455735706,-7.03734341278141,-10.8347584966405,-9.67635207364037,-19.6006991267705,-12.6933486450826,-14.9292930550364,-11.1615596430311,-5.84180554268733,-6.75679427552132,-9.41465145060738,-5.6889433914539,-9.14255820595099,-7.87677731587246,-5.93086681053865,-6.18168289160622,-6.05576668633694,-8.61407448535465,-8.86146156149425,-10.2348331934008,-5.59203211208387,-4.20627426181454,-11.9238377876491,-4.79838644083429,-18.8369176812475,-11.5509477428341,-8.15971606546645,-8.05616229240968,-6.68186515488924,-11.3258352476205,-11.9545586924432,-10.8984954156449,-11.6763555562902,-8.81469112328432,-13.1501461038188,-4.01663911135256,-9.61898989060319,-8.86483594911533,-2.5039756582637,-10.0471297223112,-6.66954703597821,-9.26320496592507,-1.82398747039406,-2.97420741006044,-2.68310249186106,-9.15381687576155,-5.09114870012581,-3.46744229237629,-6.41536571521556,-5.03117244175428,-5.33512394500121,-12.3050514955266,-15.0095394859418,-13.248032106746,-11.6694221605039,-8.56813941271776,-12.4783357708693,-11.1951685024114,-8.87598298004104,-5.49938401483905,-4.80175741943549,-5.83096076672336,-11.5221848941492,-6.8365635894279,-8.58216102939514,-8.99646951720661,-10.9072354591353,-14.3318192429697,-10.184828357721,-11.1107004980968,-10.3321072910321,-12.3787728013176,-10.8051181702531,-10.3201986754857,-9.19945843279402,-16.0945574660755,-12.2074670231459,-10.7011183162149,-14.2309586331439,-12.1442429132221,-8.6280804181506,-11.4921377949877,-8.57815667964678,-9.90724535230038,-11.6498075256768,-9.56968986532502,-4.98279293929863,-7.94293575762549,-5.99904285017146,-9.10211433989753,-8.22328593410748,-3.70982232560891,-2.9992499535856,-6.489367989112,-4.81651547382717,-7.97142969330071,-8.16270219986291,-7.20735299998341,-10.2614388981692,-7.20726344963259,-12.8183495034373,-12.3696345985963,-8.45457942875873,-9.69108028862411,-7.06432331418182,-11.8616132160851,-4.99145161218257,-5.42078870143177,-4.58028106526035,-8.2615009173096,-1.54615101798754,-14.1792867802487,-11.5485678169207,-10.040059816989,-11.0915720711728,-9.03193164443746,-6.18475877063429,-6.29732983683152,-8.42105240605906,-15.0369620961183,-9.35968076718564,-10.8997852700504,-10.7481769774604,-14.9672619386638,-10.8284799157809,-9.86474800704764,-13.6755043901276,-11.7321510368456,-10.3685378982273,-7.36299807772775,-6.16388819278654,-1.45404666030936,-3.25047682812692,-2.64438139045433,-3.94209439220322,-7.07893335166318,-2.64801529363285,-9.0938521154194,-5.93990505406327,-2.34955421373252,-4.17872583820554,-7.93360454430513,-4.00079527163871,-5.97591291123808,-7.8578105240922,-10.7239019182252,-9.4836822984571,-12.0999035930099,-14.6175452006419,-9.41593953876418,-8.81984209090206,-14.9971968715499,-11.0200475600241,-4.84467481402407,-3.83606361989951,-6.58867838553124,-6.75245257408187,-2.12286953052353,-0.233469362799951,-8.09758225484347,-5.26954949193259,-7.89660525397449,-8.1106723626408,-9.88342029281739,-5.40791776358492,-11.0781143182248,-9.82381198304665,-9.86744873929729,-8.70692237750063,-10.0733654914548,-9.31573501173261,-8.95844263925119,-13.8220373187478,-9.17564854643206,-8.6104021162555,-5.75870505560306,-8.48260159194706,-9.11942943547456,-6.23378557567685,-14.1429427935409,-8.93150703025276,-5.90552447301616,-2.39330947346934,-6.24147690747304,-5.29397483694811,-6.41202488180988,-3.8770533536017,-6.18224183755228,-3.3970689865173,-12.6230093320573,-12.2502057040556,-7.95233330305382,-9.33280587272566,-7.51986884840517,-7.81957185947795,-5.45075154111328,-7.35841695806994,-9.20335047759181,-3.30374709447551,-7.59273272069822,-10.5125094302402,-2.60421455878259,-1.50618670980111,-5.04103866482274,-4.98892039575367,-8.15671448895409,-10.6867869804191,-6.62736069003222,-5.24650326513438,-6.26966368915328,-6.40054318474358,-10.3482331646192,-12.4378050610821,-9.3391408460011,-10.8622932278877,-13.5556962740602,-7.42675388827229,-7.38499271808905,-6.68914063725333,-10.4897225300811,-12.8600491008638,-7.73797549455503,-3.41830974254754,-4.86145569357177,-7.21601497708889,-8.78014063825685,-6.02926259481046,-6.66461221857298,1.48917855227683,-2.37099992277763,-9.83881684386779,-5.76565210709759,-8.29971875327738,-8.64591803425446,-12.6149429541074,-4.11046115462068,-2.99468787326896,-6.27020016642837,-2.93193419595718,-5.20806263521899,-7.43905954647562,-8.29858356597288,-3.87273134162479,-5.89872696453313,-5.50092858665084,-4.98719119636826,-4.65807965078056,-4.57833748838857,-2.72232268117568,-3.70307378318103,-1.58714131386478,-4.11551831781253,0.351141886639198,3.07276022745282
,3,-1.15745439244893,-3.34957231739008,-2.48834466630251,-1.50397798479753,-4.37616688560229,-1.99369511931855,-5.51061218785708,-2.63244340096026,-3.9524908024996,-1.11226480087498,-5.47753009703138,-1.67078179667351,-4.61819817153173,-6.24515913953746,-5.11092887285304,-5.65174513796046,-7.78263573122149,-7.90263512393176,-2.32620499984478,-1.34549090947621,-2.91910081638434,-5.18837405805152,-1.90201986115335,-0.952180673352814,3.47523921020183,0.678140169876315,1.24380500203551,-6.27774698539997,-4.88327677022517,-3.90765119505613,-7.24872018146652,-2.47765916825483,-5.22887564346001,-2.574948902693,-3.13472397132045,-4.53089206129971,-5.16358018778919,-6.7144908177097,-0.0430117726946264,-1.36604919866841,-2.84444667040589,-3.85989349819192,0.380599074095699,-4.07896149294265,-3.4147076584195,-1.15829268488778,-5.74121864794051,-3.86881657154026,-4.32184603618316,-1.29211637584649,-1.76385319365181,-3.60326720289868,-4.44512861689145,-4.94400998147376,-3.94258614357295,-4.7040183735171,-3.92629996340384,-5.07775628666968,-7.13423703379431,-4.98535434151745,-6.27597399378737,-5.06330317300308,-6.20661461747659,-3.69071481971605,-7.96585582007538,-7.84755408786441,-6.03559857233358,-4.10097878705346,-5.85067926570173,-8.17486386480778,-11.5014324224003,-4.80535064661672,-1.36860190970037,-0.906878532321571,-1.35018736844904,-1.25370837917217,-5.05260302225634,-2.22853302197927,2.43125995875289,-2.94813914152655,-0.744879033087273,-3.26080366979204,-2.37270492029438,-9.87530292502015,-5.90866314563937,-5.59460299723014,-7.09779067007184,-7.08954243856624,-3.22937844806256,-3.98013698237355,-3.60981729493506,-8.53916019761891,-1.31877389797046,-7.75282666421572,-3.77122179232447,-5.52264875886431,-10.6916283062592,-5.50114452485741,-1.3532275569969,-6.71867542627842,-3.51438975746623,-4.53286828166711,-3.7154905696425,-3.13737015631796,-8.53770082376741,-5.30852834815596,-7.53748855181948,-5.47642008871844,-6.4804083686131,-3.76262082193989,-3.89415370206007,-5.84652684226512,-7.8575439089509,-4.45765401478548,-9.51995749796606,-5.45353022762356,-8.91650328221021,-4.94232575224123,-7.38007727243348,-9.51866479726596,-4.45217193818917,-6.56714312924942,-3.26245012060099,-3.82396494147542,-3.20612138649631,2.14650666166835,0.178400509030325,-2.14992591861665,-2.46850562938471,-5.43148621240744,0.490395654150234,-3.39344958700622,-7.17691029894377,-4.82603131543237,-11.6733978548482,-9.46661430456879,-10.3458299755412,-4.44591366742952,-8.69358217069203,-5.99354019488328,-5.13808844976847,-4.16703264079115,-4.55237065059646,-6.85448678543889,-5.9526759624805,-6.88442533235411,-4.18672321163649,-9.32104586782589,-7.34025063265744,-8.54270185152654,-4.49041620969365,-8.66277581264058,-8.20591374437845,-4.76670944713533,-12.2655973338406,-8.73342079275972,-9.0005422906379,-7.45753359040373,-3.61416412736162,-9.63592403647817,-4.02711633914532,-6.71301570488231,-4.42966468932718,-4.57339982697431,-8.31720975467488,-1.25913456616399,-7.97729841327782,-13.1801514129056,-2.33013218214182,-7.59526081919012,-0.146847337713552,-6.04300448311096,-6.16820281361106,-4.16711688296709,-2.7444793914874,-1.15421095171587,-5.25818887684909,-9.32331826010522,-2.4847075517373,-2.76259069747903,-8.5624795392132,-13.9513871250856,-14.4218578837617,-9.85317640340872,-10.1540226251645,-7.99240259057387,-9.49432061139032,-10.2634711075543,-7.81268534505489,-7.15709482750117,-5.13747134964251,-5.11542088588794,-5.78604903298219,-5.93531240841094,-8.54683375800232,-6.72200702435566,-7.21435096486039,-10.657662271874,-7.35338413190038,-8.74280450012975,-9.98180801751278,-10.679166631835,-11.8125908194816,-10.227343352798,-6.99120847231643,-13.3251304034657,-10.1964848860362,-7.58379641465126,-4.8756922815046,-9.00367388913583,-3.1325485158477,-7.50838099956491,-8.23191211361518,-6.63158871474843,-3.573038190033,-8.79501727735169,-1.3218477803257,-7.08895547030352,-0.532599057651169,-6.68540652093543,-2.01778086756713,-5.8858751040525,-4.04286322067856,-6.90875474303721,-6.37119077065199,-2.75758729859717,-7.88975435494103,-4.40014392027661,-14.4206124170514,-13.007316686223,-10.9832182524051,-7.41667421066359,-7.00228885126398,-10.3812527479713,-8.01166258459216,-8.37007273285599,-4.40658295348931,-6.94765581049887,-5.70736916988244,-6.95234029722542,-6.07934788841158,-10.4355185057248,-5.176449207931,-12.7200135540843,-7.36205515583151,-9.23812531347994,-6.29939282749365,-9.41948913858141,-9.79934313076774,-7.45682690461126,-11.4280755817736,-12.1838909387025,-5.26440920032292,-11.0777694413528,-8.94038767657548,-7.71445349445276,-11.2814382572005,-6.71501397494558,-5.19705267207701,-4.87262176248714,-8.1881122536015,-3.45006191328503,-3.14511888794186,-6.32734779048042,-2.53512017992762,-4.97478076824336,-3.91109001679433,-6.85522692646646,-3.92272664813208,-1.58435994771571,-3.88396587386524,-6.80149831061954,-5.84725098295985,-7.42966199978946,-5.72909196907131,-8.378992923238,-6.95653537069666,-8.33843262161008,-8.38505515833094,-5.5613211894879,-6.75742012166756,-5.4010056040961,-1.50663269623601,-4.03048160906292,-5.19835470715225,-2.24755024643127,-4.85321701532575,-4.87330394608398,-4.12827784794899,-7.71681545029242,-6.27255885928116,-7.04649992976101,-6.84076126517539,-6.49666102960873,-3.70983541044279,-5.87228867544763,-7.31472898867833,-4.30206384431585,-9.14214632368021,-8.80069787272259,-4.83920819073228,-3.92932492129148,-12.9614086844258,-7.61701495975194,-7.347354660772,-6.32253011463854,-7.81963904556687,-3.21941229318418,-5.50863445549203,-5.52799581782983,-4.50050414119687,-1.21241758260749,-6.68809077637889,-5.98828229714218,-3.79520342094111,-5.46488505998514,-4.56634954840411,-4.94683906156479,-8.6652301486356,-11.5433360944708,-8.6997029803706,-8.89747345527485,-5.02082275025714,-4.03907192273527,-8.15380593224108,-4.61638410177602,-2.54700474160109,-5.46355080516423,-4.30293063474255,-3.39939334788869,-7.50711713698911,-3.42765681973742,-4.3330666464135,-3.7532770505577,0.974584546081132,-4.33420563057643,-9.95640653735609,-9.81820571880144,-2.1379370091463,-3.64928249602963,-7.36677582367611,-6.30443228050899,-9.71509683039494,-10.9317026345516,-9.08783754423348,-7.87600853315507,-7.0183314038195,-5.97776774361319,-5.15399128049194,-10.7222423187359,-6.51509291798993,-9.07810790339681,-6.02139296415862,-6.0269272685191,-5.76797963002082,-5.71767904688568,-6.33391648197994,-2.90954138568486,1.18408660815658,2.36487160177967,-4.48917265813361,-3.65420775555231,-2.68242365687547,-6.03080201662578,-7.59186087200669,-2.72416309900018,-3.82723496195194,-6.18566608684068,-4.01954821951949,-7.32915511673491,-6.28277422644715,-4.32267908214089,-2.4898820770668,-5.33565642420672,-2.72092314033307,-3.12522903864465,0.57355276445287,-2.12215698046839,-2.53654960008498,-0.115454017079173,-2.20307807206245,-1.110384644634,1.32147733638521,2.43220558151734
,4,-0.947214046110275,-5.66453806024219,-0.263617824082758,-5.29285993761005,-1.86357507801586,-4.89021465460246,-6.76576391019898,-6.147872686337,-1.15663179639159,-4.71690953139478,-3.96579344794554,-4.05657762029023,-4.58844473118461,-4.86562474007587,-4.61645702096666,-0.559661017962753,-3.29014652575461,-8.00101260024167,0.480092057777256,-3.2496795090392,-0.963459847705053,-1.73690577368234,-2.84486389204631,-1.5847154531757,-3.15577624283924,-3.42399764246147,-3.88291915514219,-3.13321796601031,-3.29695333008385,-7.51057948754806,-4.57420609113251,-6.18718920132233,-4.02234966442757,-6.82951019572101,-0.692880751100347,-3.29531216112991,-1.67950629313327,-2.24464073711351,1.47474249529296,-2.06868960923202,-3.06628622051176,-2.84858315567544,-1.59827629230585,-2.15196886731428,-1.01089338946258,-3.23417357270591,-5.13198570765235,-5.51803088245561,-5.30203717201766,-4.08798225636201,0.0679642279446853,-2.37291225587433,-4.92072777581598,-4.58250643294286,-3.91819684903294,-3.32653899007619,-7.4950897757526,-8.30186328788841,-7.63986187949558,-5.70384627315616,-4.67767515451669,-4.56020796994835,-6.87541456771032,-6.25157908156507,-5.42967656928613,-5.48624924185242,-7.04952393547319,-5.33674845759651,-10.9129673224234,-7.37420076023591,-5.12102707199028,-7.22180723409838,-4.39747244154114,-1.87609834879459,-7.66877105307958,-2.24645325759229,-2.41783599232167,1.00332422433985,5.71163263144081,1.13950988978377,-5.32769573718633,-3.92896023723097,-1.88153028911347,-5.07406876549157,-3.98684412232979,-4.02542376024394,-1.57274156216317,-2.92176531365658,-7.24105931647318,2.0927956487194,-4.14125553108624,-6.90620998049872,-4.67071874674457,-5.39376003669713,-0.960382370664775,-4.71864566808472,-4.74051503223473,-2.15015145447342,-3.49756582618011,-4.00658056087559,-4.8777588077337,-6.52952561202255,-5.24305210699913,-1.44362445541265,-4.8949702281252,-10.0237409594756,-4.91997698996784,-7.43751965390129,-4.35107677710221,-5.51301164741653,-8.04524117514939,-5.50439399165953,-6.47296678263774,-3.18313954047426,-7.87885820187694,-9.06252164393936,-4.52852711846754,-1.10146836497006,-2.01544279702739,-4.42240274560936,-0.0417968553992978,-1.32958472093196,-1.99997927188724,-5.82549258648487,-3.00894545328629,-3.09851060112123,2.74227363911905,-4.30574614553552,-2.04214212742772,-5.55186959685034,-3.4713511728587,-3.88185028274074,-2.9540964893522,-3.84297247494851,-7.75757391354455,-3.58353037218967,-7.74983189039722,-4.83724490384975,-4.1467480217143,-10.3779937942509,-4.38784729732288,-1.67903637399195,-4.14236492616874,-3.49335288219481,-4.13087476973487,-3.82921070324119,-2.87191057863038,-6.02981467411701,-5.61213115717146,-5.88288707213997,-0.489115786427647,-3.75378212939268,-9.93936831870451,-4.30261405518922,-9.18652080685661,-6.30289943172374,-2.83172115897196,-8.46035527303047,-6.83268359821614,-6.22169451361151,-5.25899087680864,-4.62083243173311,-4.69308297393036,-5.21000604844539,-8.35371754903645,-3.3486210927922,-5.0212305944342,-5.466052935476,-0.796798820424556,-8.96047958417694,-0.957103439909588,-9.94285080955615,-2.13765689111278,-3.58030770340974,-3.3018462802238,-6.64678187234858,0.486305235192049,-7.12043497105788,-1.81808509439907,-7.47854001778705,-4.22262705396861,-1.57478705560607,-11.8368886065218,-6.91085299333736,-6.1185201743865,-3.89601065316128,-4.03285310296724,-6.00631695231459,-0.102089571256329,-5.21337671377387,-3.67097772809393,-5.54513875986049,-5.38236766765385,-5.28488775535334,-1.50823223373209,-7.11809223238288,-9.02768627630849,-5.65265784357962,-2.67283649460023,-7.5382874666866,-8.44691134422101,-7.40293866826414,-6.35221490068579,-5.32178044888042,-4.72710919110159,-12.0697706532092,-7.55603544080986,-7.52002119611279,-4.27212251053879,-6.9886256150603,-6.72313444678002,-4.94850845145083,-9.60593675159998,-1.55985008871994,-1.21211446505004,-2.01377326446618,-2.19169284983855,-3.79890967343272,-1.78583578688722,-4.59104763549112,0.318684468642459,0.268197472453721,-1.69782674640282,-7.12130270697344,-6.06824249449983,-6.16641279690703,-2.71520129942837,-6.9447399760611,-3.98574764059322,-5.33582725796168,-7.73292088551079,-7.23267189872695,-1.92646345322009,-6.15972987119676,-1.70743165304793,-5.39609401100188,-4.64418739970097,-2.72759663462239,-2.96698238707813,1.41984064757798,-4.61342641220108,-3.00042791031956,-6.70347716263495,-6.10365953766723,-5.00137196855121,-4.37380328161362,-6.80559434088627,-5.58983095530675,-6.30214269711541,-7.33080077365867,-8.0246639336392,-8.9334806804718,-7.26735915333938,-7.09322041608539,-7.6142534397577,-5.12793494489233,-8.15765571399334,-5.69665400786107,-6.21215065042179,-0.39834195057756,-5.67085492546539,-1.08178823725939,-2.33765712665991,0.671014736614779,-1.46825078075926,-5.62856319264756,-2.61165893701855,-3.44184394765762,-3.31202887214295,-3.68940326292341,-2.59282372460257,-5.98122830321881,-1.2253768845776,-5.15119707336362,-6.93728823477977,-7.56762933828213,-8.08341690579255,-11.128086831749,-3.66120770115958,-4.45059203501296,-0.9988889618744,-6.66412730473621,-7.35874044879256,-5.47259104729255,-3.61014101759974,0.119543180409892,-4.59214084752512,-3.36265333736083,3.55641144618585,-2.17393442578941,-1.19636453224575,-1.62314592464918,-6.30155038107023,-4.08373931058668,-5.08256747605083,-4.53846149614674,-1.96056188310467,-8.30326312076704,-7.44076263938769,-5.99562147482175,-4.09609625987287,-3.79417668226961,-7.4555088295856,-4.5913252164537,-3.50449484383262,-3.77557512110707,-1.48121103022822,-3.04802581029708,-3.4450078007867,-1.21903071364886,-0.471483659623118,-1.76786097461718,-1.40334821858414,-1.3610411302152,-2.44755644595989,-6.04507872850081,-2.63612842819566,-1.43758195892133,-2.31489631710974,-10.3472671216014,-4.60144288018,-4.47432057299739,-5.39097717514142,-5.68877071185671,-0.885939740100184,-4.05666119956732,-6.82577377373036,-6.35854414551432,-2.75150542640949,-8.53670481021254,-10.0582674200705,-3.33111138365257,-5.34299306325829,-8.77784363205501,-3.38499177447375,-4.05409189537568,-2.77604338014953,-2.52228819384163,-4.2761438366224,-2.81884181791247,-4.38589444117497,-2.52236837496457,-2.87370202447346,-2.98890724812918,-7.85270785172725,-6.8550864038034,-4.39393784184085,-0.667755655459587,-4.34212761813251,-3.45984357289763,-3.24632862710223,-0.918946052909632,-3.65192954443501,-2.86802316453577,-6.08727434060256,-0.270039600110977,-4.72754118102694,-3.22024793313631,-1.02836815712908,-1.06207925844046,-4.32650069644023,-2.05757500288291,-2.586673773445,-6.12878127996919,-5.4423660893699,-4.88321816846292,-2.81938638221709,-7.97371168799782,-4.65607241289308,-4.43855393133254,-4.68619988262708,-4.3136100833417,0.761517261253175,-2.95576087086374,-0.371623679541699,0.549245581484684,1.85737540070022,1.37578442727863,0.231925245828279,0.730793329622429,-2.23065090407454,-2.21808510933533,-1.09709145170473,0.346318927634456
,5,-1.05254354805766,-3.60006012446956,-3.7773197790566,-2.77031794493541,1.90524807577913,-5.35940877435678,-3.65946131051351,-6.49661575565551,-2.76076467274652,-3.0278537069089,-2.72900820655923,-5.1975983647535,-2.24982852915127,-3.98109326988288,-2.71644750492487,-3.64315913387782,-1.33566046652959,-0.0616541248400608,-1.28459307022331,-0.00901453378901351,-3.15262871558298,2.78723992634059,-2.83970654552195,0.583540946337052,1.23945734647714,-1.91892014980476,-1.9102865696259,-5.72234806109282,-5.71359559592474,-1.69811312716229,-0.444957774408977,-2.56594383098491,-2.49589881567863,2.12325293555477,-2.28980492478695,-4.37142858722837,-2.91979536297094,-5.31758426171564,-4.99085921888582,-3.13969711150457,-3.90601530886124,-3.52659987682364,-1.76245981775446,-5.15988198717423,-0.747941697743045,-3.12428086571799,-4.51738831799685,-6.00361960805549,-4.31367087852959,-1.09570752359832,0.508933247724599,-2.71720204593657,-0.581863915242138,-2.64025364775898,-0.65325681844115,-4.70640988095784,-5.20365792590201,-5.96584153307322,-3.50692973371042,-0.707889619560774,-3.52031018128855,-0.902414939544542,-0.126079842280888,-2.27222934689053,-2.15490723235143,-3.17738878809632,-3.38064752117953,-1.99869877516267,-2.88094885155351,-6.60610526063465,-3.777823194745,-2.57632634385845,1.87653975261946,-2.52430714661477,-2.42054229780206,-2.44586995786176,1.59604359407967,2.89630445218882,4.34916626705217,-2.13169912800186,-2.78221575047792,-6.28894210683757,-0.0875045365310143,-4.09892082125953,-4.10665065322974,-3.7512720718787,-4.92985182856046,-2.44468520844021,-2.28899746666411,-6.81642578748779,-2.36751531768914,-3.2853929963685,-4.13367463442955,-2.87851337193297,-2.19076571871119,-5.62682621034037,-2.97924763543324,-0.803919954387311,2.58034165909612,-2.74421807518593,-0.837321616217196,-4.19267101136484,-2.08675700318963,-4.16174307562414,-3.03902831996584,-7.6079157064305,-5.51501802269922,-7.16844742595549,-6.75647670515264,-4.66032484488369,-8.61755322816407,-4.83477449457314,-4.58738863431881,-2.02699809916794,-6.1026033767339,-5.65345434588835,-0.199624667952776,-2.38882085033129,-3.21833994918416,-2.86047039864752,-1.26207647118645,-2.41632919318727,-1.29314205609353,-1.77174277225186,3.37124828396281,-0.781579194089318,-1.10414916258742,-1.35353476264481,-2.82407384188809,-2.71619977279897,-2.25395443665093,-3.75909993608275,-3.239288666211,-3.63000259785895,-9.39546451804745,0.60482119876815,-3.94673998073085,-4.24723143569281,-3.26728993966572,0.253482726951916,-0.655811132317467,-3.60967334198631,0.695640980717144,-2.18864656372989,-4.59015269204519,-4.2467923103095,-3.33871100860961,-3.18179701523059,-1.62490339312808,-2.62208410265612,-1.19502777080106,-4.08371630402416,-2.53797993883109,-5.28488311659476,-7.5803029646504,-6.00061483009904,-6.7106241411002,-4.16417112791987,-3.03926310856059,-4.30642593352241,-8.00574743752713,-2.6716826631955,-4.37357352152776,1.13390301495019,-8.86909289688811,-3.56380847614128,-4.12652405734843,-1.81519543192371,-3.30526023290076,-3.53972300889927,-2.9981180745699,-3.74805322144221,-5.8098191343197,-3.48892630619866,-1.63973360079399,-2.2740654068366,-1.34601003875196,-6.48690482175789,-5.30940162576098,-4.33208261543678,-6.59525004421357,-4.88648433659364,-4.02070769521106,-6.4760751364729,-8.85505293225015,-4.55314934850776,-1.44309764780064,-4.26621783233259,-5.90303483694788,1.74545790483535,-4.56038010764587,-4.85815471987644,-2.46564252179724,-2.55472852870116,-4.09767357586406,-5.41858277888969,-4.510713537421,-3.62663855658957,-3.01301197643625,-2.39460620115551,-5.34776564127515,-3.79756313339112,-5.93318571637064,-6.20140650758367,-6.69100701333264,-6.06567655351046,-5.65415333217243,-0.720066614841926,-3.16098149492336,-8.16013200374437,-2.75371784152048,-3.31652588315683,-4.90212156926373,0.0761972730988418,-1.79123777079258,-1.96419707825771,-0.48842950285507,-7.62817904217445,-1.33688636480747,-3.49926288929692,-1.90075814311604,2.35430304368219,-0.62639202981336,-5.98236034773163,-5.81633491551929,-6.50020661864983,-2.03877441129953,0.0050557243057483,-4.58142030204635,-7.1523182768733,-3.21341896145987,-1.85733445598453,-3.43004961036877,-4.36389471132134,-0.823159683476661,-5.49788178774725,-3.49563281612336,-0.843866976780191,-0.956947436746304,-0.438500196721179,-4.41614072342054,-5.05997047994515,-5.04069422235079,-4.95055886580576,-4.53678669685996,-2.46827820266299,-4.33751314260371,-6.32767571014119,-4.80299114600894,-5.172928168211,-3.54243997381855,-6.16471486469618,-2.68823641977997,-5.47524922318462,-4.31860278478598,-6.37825589211843,-5.58156032477746,-6.40257446154828,-6.40472107419555,-5.64692666915016,-1.44672666687802,-1.34199914561668,-2.61980671598121,-3.76524959042672,-0.878145649844555,-4.08616772128335,0.388630616549563,-3.88101841401658,-2.9071965551575,-2.45274287818211,-2.92713637516954,-5.46890290584179,0.158901228617651,-5.57247507686134,-3.89335020075487,-3.10862019586148,-1.52665462306049,-5.54813950889366,0.726868586794808,1.72854960658879,-2.21190542394197,-5.2707652215031,-1.6617539930603,-2.31985725891082,-1.98719961727147,-2.71842060703966,-2.11196701163772,-7.28422358346961,-10.3371694733742,-4.085894599536,-5.91891138073606,-4.33665394788568,-8.18433447006009,-7.16245738603993,-6.90098690004561,-8.6801274008385,0.162244113714223,-2.70098870017046,-7.54995859259088,-5.95788010738215,-4.3542167497244,-4.22425302418651,-4.06814245832356,-7.31647066903315,-5.06134059839405,-1.99075863719008,-7.01513275173602,-3.23473351377834,-1.35422574940185,-2.1055385168047,-4.80682742916451,-3.5909345252021,-2.63317588208429,-7.10490587727145,-3.16632562905306,-2.02870457152494,0.860345983498519,-3.71853704513433,-5.82697466569152,-8.05687002933155,-3.87187272198935,-3.11906537216237,0.440971988075034,-5.64930049514714,-3.9093158716887,-2.12328531699404,-0.919242563576518,0.606588421977904,0.98935325182174,-3.78238672685256,-4.14847639119125,-5.9297165699636,-0.322284747981939,-3.17757889189215,-3.97060824312757,-3.75804834571136,-3.71915485184036,-4.05913579897606,-3.17870021811541,-2.08296886562857,-4.32484932568241,-8.72415909990923,-4.25446961004309,-2.58945715433583,-5.48431901023378,-3.50773410237889,-4.24840695169223,-4.14197554205839,-4.76369538245035,-1.76643239792702,-3.96013524846057,-6.01989303962637,-4.85237414845597,-1.09289785663805,-3.16805090134676,-3.73503284143862,-4.22335720423325,-0.116800054440318,3.10809676258668,3.88398239292928,-1.27030836714221,-4.02763017054895,-4.41394586926344,-3.11440969191244,-5.28584644348484,-4.83280568390455,-7.04344687362936,-5.5429329773242,-3.47323359510847,-5.01801760731723,-0.98598048601616,-1.54207127268455,-3.40944009932127,-3.55555236065538,-0.0290187595428506,-4.12904088413597,-1.11508767579289,-2.16516702863009,0.590657051795461,-0.620428245673793,-2.78695410079854,-3.50991428199723,0.255001754706427,-0.0722698996369218
,6,-1.83548971798336,-3.84015623151754,-1.67921664452751,-3.97653092006294,-0.173244565297864,-0.568484306566461,-5.28969551826594,-3.94776344676484,-2.75339602049098,1.38329937359049,-3.3254925003539,-0.83831350625951,-7.71001457199145,-2.66555717260417,-3.72217625568283,-5.50438886695702,-2.91298293112231,-5.07982850597909,-4.18361603928952,-4.64758768955744,-4.65305331137006,-2.64232097637341,-3.55839391147765,-1.11961751403032,1.15779435439163,-0.825538102876635,-3.18276044884806,-1.98184421750193,-3.39806018267518,-3.33026174079623,-3.80452726936892,-0.370707891376696,-0.114770591744673,-5.16483185262587,-4.79241242932585,-3.43302330487859,-2.27800214333911,-0.750405901034355,-0.366994153805535,-3.55271337957947,-3.11790766127888,1.43872772078066,-1.48672952219113,-1.52012370060129,-2.90374336316836,-2.62465530666304,-1.03601769202123,-5.39204246134523,-3.13514560988006,-3.15633012035141,-3.26565767930242,-2.65415066728838,-2.4518990455399,-5.52793349028252,-5.86222844091844,-4.92197521383969,-3.71336418849569,-5.25154541560278,-4.0309250153523,-1.85395160565713,0.0451584747024754,-0.551718381794672,1.85076562641098,-3.48287881824126,-2.77036614254939,2.2237576658099,-0.605293926442755,-2.56942035448901,-2.17821863844983,-2.52028504136069,-1.51052668449756,-2.23146871916106,0.478552082486203,-3.82347002596998,-1.27280896337106,-1.50097458037908,8.28887841255801,-2.16552527924159,1.18150001920003,1.72349090828902,-4.17203246987538,-3.99551463737589,3.60687081662491,-1.76400439823192,-3.81013431336396,-5.08524858206329,-4.29714592798973,-3.8317319437474,-6.55470292114205,-6.25283494214364,-4.70505568045701,-3.6939788365753,-2.64463110568431,-2.32121018610815,-0.11765848583218,-1.43119269906856,-0.546787998157015,1.84307137146698,-0.75305831255082,-4.31541829386606,-1.1445163178596,-3.3773144199813,-0.120031978025509,-3.82347607910742,-2.79902045242852,-0.537434425740685,-5.71016098413475,-3.92600023188788,-4.25847595656614,1.07606860485157,-2.42915777362759,-6.59499848111682,-1.22438132572461,1.66380169611966,-4.94619053364841,-4.16715029537954,-2.37244317978002,-2.59434845308078,-6.17031493879767,-1.47059980624726,-0.316666429396719,-3.29833380682157,-0.495837052314528,-0.947257393362634,-2.75785133049339,2.94015276414848,-1.52191519927601,-1.61040064175722,-0.257157873819779,-0.592470699392834,-3.99954235441783,-2.10565571161442,-5.7595630075175,-8.81479734928598,-9.8152475631332,-3.75569787175209,-0.724953278791872,-6.38877123331804,-1.6378972802022,-3.08208952849691,-5.72560345343845,0.0518626053744811,-0.0785393189198658,-4.53998727957878,-3.10041326035935,2.48261368379463,-2.16882612612699,-5.95706114490167,0.258631788948151,-2.16703622616023,-0.32332744933683,2.06725364984413,-0.0640775525926074,0.122736271129725,-5.19528381242799,-5.46926974669259,-2.30293964465545,-2.93563680621355,-3.12111388019821,-1.60838737567974,-3.37431025756996,-4.77902399562936,-5.73260304772066,-3.31836004283286,-3.46207541606509,-3.28509639003642,-3.29387564747594,2.17326388253423,-0.838203102985972,-2.9352666478726,0.91244614052539,-2.81043006039363,-2.82401431073959,0.0217605582092801,-1.23596097148038,1.99678976333416,-3.06111027640964,-5.2118417618185,-2.77815486823783,-3.89525186625633,-5.39902012899984,-4.16367060949869,-8.03856793360592,-3.26141917619134,-4.54338225811898,-8.08746238448293,-2.99206621107624,-2.80913045804573,0.41504406052718,-1.01101241532069,-3.14947976202984,-4.94823416382224,-1.28581515300903,-6.09009544023502,-5.74959448714344,-4.81211180570244,-4.0624957102491,-2.3651169806617,-0.427372158303115,-5.08039916021335,-3.6985836376798,-3.01742606695279,-3.47673127050075,-7.68554028916151,-2.90674488491914,-10.009623244754,-5.96571096524349,-3.97104946461241,-2.3151225813026,-0.792701844991825,-1.84699576869025,-1.32172608004839,-2.44081139333957,-3.3798994993158,-4.84353114753867,-4.0692628508541,-3.41933603941743,-3.66203308029526,-2.95370750835355,2.10207221358542,-0.157356286988033,-0.734000168203238,1.6793457631793,-3.26913054080705,-5.14899954807788,-2.83903422762523,-0.532247837571958,-3.50967773176944,-1.8963234632165,-3.38145437517051,-5.74414790532228,-3.89995552377786,-3.23302218694971,-0.750520601526659,-4.79563461032558,-2.60323510784474,-2.85329263557105,-2.41130476955459,-1.02054829056578,-0.387500956056101,-0.643213036599263,-5.33560078784285,-5.68692743120482,-2.46872909750437,-5.45963775384917,-4.14994800731347,-3.32625700879635,-4.68085090738805,-0.965150974656353,-4.6707702512831,-5.82314657724964,-4.40497722452074,-1.82579811773758,-3.65221790710075,-5.19817596575467,-1.95678051569848,-4.66328564597188,-4.19078321141296,-4.37330935356385,-4.01579340659555,-2.39210225514671,-0.534679499275626,-3.21383081231579,-0.82888752800045,-0.813406375499653,-6.97469408107645,0.333207222581223,-1.16387239604319,-2.46610144425722,1.37448604555084,-3.91374936604734,-1.97014320587277,-2.07427470799757,-3.94394699413169,-5.77796041110742,-7.31164532528965,-3.39893827335072,-2.65180569823951,-4.21063553907334,-5.08260307201908,-3.99055035414767,-6.01056524667092,-3.66147521462426,-3.3940494843464,-1.29108267956326,-2.30464385674259,-1.89606439077943,0.923484235210708,2.89363380294344,-2.20320431255368,-1.25969808182435,-2.63260804837773,-3.79270009036009,-6.55458784058555,-6.31597750367655,-6.32954290558882,-3.4485279631499,-3.71195952782728,-3.34992288449848,-3.93934093319695,-5.17919269620961,-3.18435568605764,-5.05056004066319,-2.20122391478162,-0.861774309281827,-4.18523593814007,-4.43874621181749,-0.53975586146953,-3.85811938793358,-2.48004756298178,-0.935872116997416,1.79291754720907,-2.24548755141859,0.135189762808295,-1.16687077008191,-5.44629659835755,-6.51236817265271,-1.58899698424739,-2.91663162225541,-7.26237589706398,-2.46991390499807,-3.08384017187927,-5.9113083192151,-5.72365890573565,-4.45304125326857,-4.56747474914027,-4.56096661240281,-2.45733203857617,-1.81411225313786,1.47102474151961,-7.19748622198404,-1.37945679365657,-0.510779149375594,-0.697432578857843,0.596423642276022,-2.67244103905432,0.690108451438391,-3.33923518370466,-4.8883100766534,-1.58175605361066,-3.3823846625819,-4.68016930053818,-4.78658111494951,-4.93860764371766,-5.57391277832539,-2.150479592784,-2.0301610910692,0.138793182528389,-2.67391606405909,-0.739526806275535,-4.32728035156833,-8.02249362514431,-4.71247856749505,-1.88236407503337,-5.39618294199317,-1.55664847206481,-0.740535242286569,-2.12940396695558,-1.18664110219379,-1.75078374073382,-4.03517529141027,-4.10597274938755,-2.74672917288353,-2.32600001940409,-3.46279828009574,-4.54626112520145,-2.51737414296986,-0.968197741023687,-1.27298113395864,-3.69237386601435,-1.65839772079926,-1.69917639763025,-0.0449826279386798,-1.46333251779197,-0.574140055724456,-5.69177483796648,-4.26945609012728,-4.24347210465294,-1.06838393486487,0.238230993672005,1.34947518396984,0.365536369384245,1.78254404196105,0.522245159743761
,7,-0.322729856943624,-3.81821264626797,-0.61535688596814,-0.684080225761136,0.505751238964876,0.202664041770731,-2.50486410320264,1.08345215374447,-2.82535347058274,-5.56889163822052,-4.11018991421406,3.57675929113975,1.20204172449303,-1.22513209478802,-2.98947340934865,-2.85924585058547,-2.15401549450689,-1.1257860248943,-0.328080359338855,-0.0419974892884056,-0.142424778640816,1.17694425313039,0.540969264081468,-2.4918918983949,-2.07030258994109,0.604921946588547,0.454513702472468,-2.73990676121775,4.09088513925781,3.59616331019333,-0.329409660918827,0.669992158265813,-4.76566113864556,-6.05055529660058,-2.75829617803993,2.21560346677961,-0.848157640747559,-0.75672726097855,-3.62656583376429,-1.04670747219916,-2.14181997252945,-1.87958117886592,4.07235319468055,2.63806452284098,0.178180882139714,1.71853018910133,0.379098405292098,-1.39399101339586,-2.51689803945374,1.12037931919804,-2.65854088240849,-6.22215292431702,-6.28595540756851,-5.57063683672823,-0.240237107430403,-5.8054509729609,-2.16530064662493,-3.72590454427518,-3.86874792101116,-1.43347166333297,-5.26710148189977,-1.84069615336193,-4.67082385639242,-0.779705306292271,-2.04558241811537,0.14261954657286,-1.24525398215519,-0.783778498442189,-1.08405041277911,0.0986672067738255,-1.51065757772903,-1.26741251339354,1.8883489844884,-2.89935455590967,-0.916431556613134,-4.31706615726398,-1.82201687578618,-1.24489197110051,-1.94930902515534,-1.7536213958565,-1.04677228669971,-4.34193827800482,-1.93185790714415,1.80692273027853,-2.99696460346513,-4.17327721841684,-0.256366780918142,2.36151501780296,2.113597607884,-0.65452519979408,0.632512419697377,-1.76852007644811,-1.93806324308662,-1.28154812287357,-3.16951334199439,-1.79543314432249,-2.57254103833657,-1.12259247937709,1.4529911565196,-2.53397235380999,-1.07882738378248,2.28836110270004,-2.26437982000516,0.999615440306115,-1.83643738788032,-2.97650134099968,-4.20390885840879,-0.0958646005410628,0.520542777913761,-3.41736604017296,-0.161798783897211,-1.08993900009864,-2.15761044621104,0.809080674348479,-2.79812871937702,1.8101494147495,-0.529140853580429,-3.15818873179069,2.139001181401,-1.32963377595115,0.347322012685254,-2.58046551380539,-2.99227128932307,-2.26786982294743,-4.23992197831285,-4.07971621816159,-0.320086719039864,0.516314917190357,-0.535774374086031,0.214733663437073,-1.70890427033828,-4.3698717483494,-4.05983024591569,-3.11421385328504,-4.80602353475297,-2.9123209393365,0.905452924539532,-0.585728939140608,-3.17516681632696,-2.11019892758941,-4.0204704676853,-1.74044130164748,-1.4582351756244,0.627599144513624,-0.26209181525337,-0.76373891817093,-2.52852239758522,-7.04405437001969,-2.85459256494141,-2.91717616350979,-2.97614315508235,-1.30445001771113,-2.85698886809587,-0.578882475030696,-1.88802015844158,-3.19645151993518,-1.26249882102729,-0.841484312784814,-4.06908624092193,1.88579762574045,-1.32974209608528,-4.45658679685675,-5.59432118094992,-3.16916595985185,-0.591395373352498,0.80999311776759,-2.27732895642566,0.433950865210136,-3.62959080917608,-1.11775234527704,-0.236012448499423,-2.92119197915326,-1.24057427862408,-4.20069243594298,0.269776830496994,-7.32310352160584,-4.19700073244439,-6.77196387561617,-5.48387460687354,-1.21711354280887,-2.17711470978611,-4.34180974221908,-1.18841700831581,-1.31964181054082,-2.29241872487819,-4.40659700931155,-6.32347702944026,-4.86591493475862,-1.38634038410601,-3.70490884812898,-0.445007413081839,-3.05054233282044,-1.3928229372541,-0.00487092043476878,2.11952122007006,-4.9524826734696,0.867689867747686,-4.02672458863981,-3.55643131607121,-3.41835772910872,-1.11542507017202,0.160655562746797,-6.68833463013743,-4.69371206522555,-1.75487185019119,-2.19162287984727,-1.00777835249846,-5.94282468803249,-1.70427643862422,-1.26909987317777,-2.85011700067844,-6.54496557784296,3.86378281718044,-7.70372160968964,-2.70921095027006,-1.63175841498378,2.16713959407934,-2.67385897051918,-1.13080103984976,-1.42056729433989,-2.28269415306841,-1.08167793113626,-0.897588165729758,-1.58313498294046,-5.23458040622609,-2.82061552228515,-2.65198278632579,-2.94185450530676,0.373581082421879,-1.97617136326426,-2.15740779766747,-0.252983984410093,-0.868753036575981,-5.67255215372734,-3.04515890370112,-2.19344813096814,-2.06546273624099,0.0539995268027269,1.45212441729745,-1.60638296294201,-1.70784577942777,-2.37418001687365,-1.92450241071037,-3.09329593402617,0.163856999997734,-2.88688601918784,-3.04986432557962,-3.88204041232621,-4.95282992789089,2.35463694831105,-5.82265065069896,-3.25739832119598,-1.58608705022925,-0.433415835024789,-3.52871039742513,-2.02656332838342,-4.10124675593033,-4.44922890940325,0.0715089742579949,-3.88134741892372,-1.20057777784859,5.41433594836144,3.20664942149415,-2.64289884568461,-1.29898796270481,-4.25538264807074,-3.21117147261066,-3.68789539704539,-3.71472358694518,-2.41948140663771,-1.46103065497027,-2.11810345482809,-0.311263828565643,-2.80467497536483,-4.32782615475116,-3.5172188342458,-4.30749282897068,-3.28297138342987,-3.97449508763839,-2.93462129276759,-3.41794043200116,-3.0424561080963,-1.02485090492974,1.63451133011858,-1.57875115969091,0.498947512521227,1.88596983285515,-1.19063097021444,4.0402646315315,0.0285055356225712,-0.0238039921659947,-6.94372239022232,-1.01864235559697,-0.627915293697697,-4.30511968447263,-4.57405713093704,-3.61666112546391,-1.14416673809501,-5.10190729530223,-0.162170641114244,-2.04782600655653,-3.7456394207793,-4.73348083885685,-3.73367848485123,-4.60631237609323,-1.83938839487564,0.534797707930011,-0.658624906499426,-1.4884468834889,0.0357172740723399,0.424609128124757,-2.43213754584031,-1.01533340215065,-1.76677125331753,-2.85390467350499,-3.48742883477826,-3.32981160269173,-6.07544684976165,-1.1452062249964,-5.90471253589658,-0.174224618302105,-4.65144108215191,-1.02270505990055,-2.30599488991356,-3.24775692465664,-2.33412158390365,0.139547704930919,-4.08040623021952,-1.67373098735243,-0.799259352360423,-3.57452056905277,0.506163313792058,-1.03299315254571,0.622977546188849,-0.279978795716488,-1.5531690670141,0.094637692217475,1.81995585221375,2.98069041679992,1.95000672495189,-1.86449093338615,-0.623703693189782,-0.436203005259813,1.05133681036386,-1.13057768690578,-1.92851040717778,-3.66247346973523,-3.56820034946668,-0.998630301985031,-3.62824531279784,-3.58196262258207,-3.3146098064235,-1.85351945278398,-3.40135213644407,-4.52954761674755,-5.12893507034187,-6.59283800427966,-0.60735796984045,-1.55899495300127,3.03242776490424,-1.0952017509062,-1.75894862965288,-2.35852404054731,-1.01398441989659,-4.03447831070935,-1.11587117773524,2.7844747197023,-1.67429576988798,-2.54047160717528,-2.9548641490037,-1.20124866066635,-2.91405845248391,-1.16636638540012,0.890355163292043,0.51542416709799,-2.917786570727,-0.703729305010711,-0.833111253187781,-3.78410888904273,-2.40078020987494,0.449938502331861,-1.27631564419971,0.716735992466056,-2.92751280208631
,8,-0.314904283864053,-0.710976010157538,-0.90824542082828,0.595070711295193,-0.515470453537091,-3.32696959905024,-2.65774635729758,-0.835952336012269,-0.0494668319834091,-0.0792425384324815,-2.58786261740443,-2.8704137054001,-2.36992034150171,-0.0564522563063292,-3.5798704181434,-3.72356877724542,1.93916920540323,1.13951314355563,0.56703414698859,-0.481999224707579,-0.93272662714935,0.40739586858399,-0.8990617318359,-4.11025861315284,-2.24538903895609,0.145103253625166,-2.43593503229658,-3.23522156863419,0.208608409051521,-1.35833101811477,-1.64043018282246,-4.49751214251501,-2.58058390394035,-3.08168122860934,-1.35788185914498,-6.70443363245886,-1.35852099152635,2.57583923882703,-3.32317782339214,-2.97866932095076,-0.512368878051348,-1.44218912304132,-1.90265628006182,-6.06492197632906,1.99066826943817,-2.26867928692627,-4.28372403077447,-4.62672523821402,-4.65838321782121,-0.324327567322143,1.62615624157934,-1.87784768546862,-3.50663092702234,-3.69842223828618,-1.07075258061559,-1.72205397526523,1.45815010548358,-1.22463764556869,-5.16660640066584,-3.24125470227591,-1.24733632542757,-1.10120147062116,-0.753623864417023,0.378678194807435,0.132354503300121,-4.46296604218696,0.391454163698654,-2.49617079201198,-2.70037550452071,-4.28730350875958,-1.38224350532892,1.81597549440812,0.512885395244666,-3.82431418495889,1.12680872542569,-5.08672467695487,-6.68233922882064,0.176399675950961,-0.664118142057305,-5.02668487628034,-4.74223747019732,-3.69269717485076,-5.71104588530852,-2.85267675928935,-5.86779485292573,-1.62825037852963,-1.14986448771288,-2.33385141542658,-3.16086650868783,-3.76841031355343,-5.80311023183549,-4.23668514244491,-2.72630569057583,1.24233397032276,-4.06541972448849,-2.16148239437734,-2.09274539483886,-2.13901513217843,-1.28046617715972,-5.00920358224539,0.732692282684184,-0.0656036897598824,-0.894225074619499,-1.20557329085113,1.61848645662667,0.437795473936603,-1.85987387101068,-1.31383833025666,-2.18854569944324,1.81846124459753,-2.29636668381499,0.662219878133328,-1.38296507275572,-0.624997339753463,-0.631096036408053,-1.93746721216758,-2.33038752769789,-0.767751239609424,0.084958022716819,-0.532760280596449,0.181290921096661,-4.37405958335785,-4.599211151085,0.124423672931698,1.84112464308237,2.80006195951773,-0.187167160337594,-0.619612406238048,-3.6020508073625,-1.6895941997609,-5.5276809407369,2.03871616044853,-3.93049085396706,-7.44923567293972,-4.45000325072942,-2.25378787306909,-3.54488847074663,-2.39045144915053,-5.95844300728913,-1.68481463726766,-4.54082903153176,-1.63767304679186,-2.51597765318638,-0.540565160280494,-0.732364049983516,-1.27568902103485,-0.268531660702138,-1.03788658277153,-1.84204344288628,0.794710906003274,-1.65119957294155,-0.468170255052428,-2.09163596561393,-0.456721233713324,-4.50254171483812,-1.17219026322527,0.561113071211366,0.209547479628782,-2.11329853691495,-1.08054615580295,-3.6018490628021,-1.64267332325198,-1.82384883418672,-0.134086764113817,-3.95230887361231,-1.12209783455182,-3.37983404334955,-2.26882203206424,-0.75984065620014,-3.91429772866013,-7.11219386112589,-1.66126060592433,-7.70911551598238,-3.09613624913527,-1.95504118458848,-2.6143821214464,-2.64074213288131,-4.02974930029177,-4.50483643677126,-4.27672350375087,-6.19684726829837,-2.94245045113894,-2.51364546626792,0.676355914868509,-3.5786726147935,-3.77446832702753,-2.44395752039327,-6.15396882173172,-3.15339916348785,-2.02375905641838,-3.00409786328419,-1.09020319578303,-1.88508346265917,-1.84812557103942,-1.93161900636096,-2.23804537378601,-1.95460380047189,-4.48313365758622,-1.39217977883345,-3.97896835812844,-3.09440111862205,-4.12230412742611,-4.927547227594,0.0218004407961416,2.18769629402959,1.36883871701048,1.48985997243835,0.487077229299757,-3.17650145648713,-2.58385279736558,-1.4492379624653,-1.03481939914036,-4.31386267261587,0.254929017469294,-3.21473056659124,-0.579482919294605,0.42483881926546,2.71526110149534,0.73277190553199,-0.367020964441508,-2.1050953250151,-1.09415381085273,-1.02422694492543,-2.17457477810876,1.09954397892125,-3.48468285397757,1.23908752111129,-1.36572527374665,-5.30622153172862,-2.99446253205133,-2.52058959790338,-1.03420813206776,-1.74386515679635,1.83940359556345,-1.44755910504045,-1.77881116275239,-4.44955278142425,1.10422318580186,-0.869028395993155,-1.10881512972901,-2.2944945922427,-0.589573200076302,0.404065744070977,1.96947431268018,-2.84318941036327,-0.96086613206171,0.696613120238908,-5.98623938408582,0.276366549114755,-2.34384712110386,-1.40886187113392,-2.54232504271567,-5.53961536317547,-3.67994635980449,-3.92612581846606,-4.34010201545971,-2.63950034377922,-5.38330273872543,0.493775971227478,-1.62986647605794,-3.88836980223186,-0.652691808187228,0.138798301167299,0.847765059244921,-1.14101815162849,-2.87726863872467,-1.88679464763482,-0.798739099461272,-1.76686727017477,-1.84293893365975,-0.0261527904849572,-3.0579991333725,-2.7599016076374,-0.802074628035371,-5.23476301131814,-3.38152109999101,-4.98992721904597,0.750952049962507,-1.16638425993006,-2.28358032866799,-3.89362864706436,2.31786697469397,-2.41523255574339,-1.86088764742453,-2.10938562605043,1.58810719938083,-0.166162489028466,-1.20780318235302,-4.45988061305161,-0.652418378520451,0.510797146182995,-0.910703467910025,-2.48012952028785,-0.935633651476564,1.60974281756535,-0.600374143586123,-1.39843283216396,-1.39639888056263,2.44065049794153,2.85897649117669,-0.445467921481395,-0.438814896715485,1.4519255031646,-0.62905564679113,-0.115113029023632,1.00583730125891,-1.12594756049748,-0.18698233957366,-4.53312823271881,1.27814435967775,1.56725461736733,-2.72570331471798,3.2869070625693,0.772345889989992,0.800576189353706,-3.0258507783301,-1.51358846176754,-2.269363675764,-1.52414949526155,-0.210037889525665,-3.7848572463281,0.0619727056000556,1.93509862112296,-3.50601796070259,0.31871493557901,-0.14856653491006,-3.27185512178767,-2.17758895720181,-1.38192460956816,1.87406407038634,-0.936227095698996,-2.06268507226014,0.623447757898248,-1.41747252458572,-2.65298900262769,-2.22296670061041,0.0848785700491135,-0.161649540634244,-0.256127697046395,-2.54784924716751,0.126424353163202,-1.76843248953901,-1.95797325889816,-4.57505069315812,-4.18355921906641,-5.1393304636731,-2.66646572955597,0.0502984105942232,2.85872079756064,-2.13915062867454,1.95143110869503,0.182770017090661,-2.37522137166798,-0.120845853887658,2.84710200301743,-0.240963076252228,0.943742017341719,-1.65719410312977,2.50913354733439,-0.435136593267089,-3.60153446318236,0.574707783623126,-2.31285269005366,-1.68504462836881,2.2577252976389,-1.18936897175081,1.2454067996041,0.283756873148377,1.18075809043876,0.419213792639312,1.24285778684316,-1.20828816672747,1.2738034066424,-0.180321748154711,-0.819379359143568,0.158954724124669,2.60591226475299,-2.82854177272293,-1.2470534251197,-2.88566856943271,-0.422570214237567,-0.193706958872099,1.78283619638205,1.39278866349741
,9,0.446324773359265,0.882392300822175,-0.298165291582336,-4.11139129149433,3.58466294682239,3.94960355289822,-1.76312775354563,-0.774526605461688,0.3510364463109,4.52714901400759,0.232636436192479,-3.1495337141987,0.760427113379592,-0.912799196190463,0.163031251624489,0.700641300353709,0.480507090735955,1.24762416733029,-0.175014552878565,0.805459434123804,3.58901117569803,0.922622132123252,-2.86801778756671,0.0993827931060878,3.81197101989164,1.01692983195608,0.875315608819619,-0.749293451245649,2.07345392249772,1.79719298948839,3.91924639602348,-5.28938446369011,-1.20988854058942,-2.3709568655795,3.75772318560212,3.68854018733418,3.29654760180711,2.79950422327238,-1.70075337719754,1.45789073413562,1.13756559839658,-1.73298840151256,-4.26336181473562,-1.40727654475268,-3.24444770726132,-2.6925884453558,-0.0545518215294578,4.14854050410486,4.0429925139706,-1.33656379674267,-0.815886929533008,0.271873139687159,-2.0114249075823,-1.43534623954656,-1.34180249621204,0.410604891424555,-2.3524848595498,-1.59240339545886,-4.80215926104393,1.23416313991675,-2.04429573940706,-2.21583957437269,-0.93192345069383,2.91683701845341,2.73625946986704,-0.504192807669824,5.01488202507517,1.74208340919813,1.89948785789511,2.41980069837609,0.570339280007829,2.63410616109104,-2.54039157221632,-0.116738824110143,0.749219316031486,0.915919375760495,-3.17898056904505,1.85572886411592,-2.86937775916704,-4.4166160461582,-1.41145279293141,0.020796190136025,-1.09529869658763,1.68222718443394,-1.58674676778992,-0.214012383333284,1.06539768530001,-1.86016032205225,0.125026526394322,1.72931238633373,1.32648707531098,2.510639764183,-2.30253945389723,1.51351833692024,2.38733584129113,4.13466850012446,3.44699677762492,-5.44835342750503,-3.47530493142222,4.74314577824134,-0.993997260556171,0.763167706887543,1.86286043501696,-1.39245508113891,3.99886591388804,-0.0616919742351456,2.06707641165121,1.34333045016592,1.63366789720658,1.02714435051894,1.56301591897954,1.79331552750045,-1.0350288975842,-1.90162183251869,2.28690483153878,1.92521987286182,-1.18621668637206,1.19289855194529,0.699714853419209,0.579862424489875,1.67341012476754,1.94203798197304,-1.30158890932762,0.421357580322365,0.996775150039866,0.982208212899423,-4.04731232708855,-3.91400575429634,-2.5653711457544,-0.0249403972620712,-0.295955186476021,-2.32967827728498,-0.709158175989614,-2.74221053526071,0.892259524955989,1.02670010264592,-2.02844367317084,1.06888551151042,1.78287034138521,1.23470374150747,3.92171644792597,2.21803454680594,1.30924582094485,-1.76513139673079,1.79371845852165,0.854583512887984,0.929728025197619,-0.0336881272969549,2.13678105801318,-1.00435065825332,-2.15886317237801,-3.93745199390924,-0.197003980079899,-1.85255068760671,-0.115643342628573,-2.13150777373903,2.82243057821688,0.949322806081,3.71447547718708,0.739763755152126,-0.323698783849068,1.25367498499691,1.48290025175538,-3.22905071320292,2.35334097593477,2.13834669360313,-0.997414462533015,4.18821933398431,4.45908510168374,4.87837757090438,-2.27910879415231,-0.433142355948803,-0.644557801995688,1.9981351660399,-0.01522634837238,-0.62850660296499,-1.96732397488267,1.17881988237514,0.579181204376255,-2.00252979777724,-0.575452432452039,0.6473430756987,-2.58450012211233,0.0573933424193456,-3.06100405130655,-0.158367698104485,-0.136179815753167,2.5015376303636,1.8441491469448,1.92419570749917,0.726065332279177,2.80873129970678,-1.13845984089403,0.931992854536475,2.11344088611986,1.97498226330208,-1.44997641488771,-0.451939780670727,-1.78269058071965,-1.40735868008414,0.394262742047431,-0.358516505610169,0.768418816630401,0.563917121110535,-0.719398949581773,4.75026024626186,-2.15599359161388,0.517244989848223,-2.84717846123658,3.48990196294471,1.71303725265716,0.0356838839907141,0.986727279683691,-0.231873211483617,-1.45690393786481,1.83657382284673,2.50353270582673,1.62247584609759,-1.42269965000105,-0.252452364224155,1.9882563342926,-0.0182969024726845,0.675677532676673,1.05780712193973,0.726579342710465,2.17065462940536,-0.268221727353193,-5.71398532906551,1.12321707132196,1.3347897864096,-1.14033653466049,-0.0186256166189196,-0.152890399475837,2.20325183304794,2.15854203124582,2.65022143288388,3.4036848425294,0.839713636481974,-0.375396121041376,-1.04263795248698,-0.887455609773497,3.16257768520518,4.01951658527014,4.91242278300433,3.07998340729864,3.50270487435682,3.92019006380542,-0.481080801757344,0.132299554106794,-0.194087273780497,-0.0333526606655141,-0.76437462019021,-0.763498412160516,3.82803909934955,1.94632883948907,0.932703814509296,-1.44932911267188,-1.13108520813239,1.9174920916621,-1.03356436172817,1.48097130414953,0.230143231017792,-1.64116901308716,1.26315676676586,1.79529337771419,3.50028469263816,-1.72097062561079,4.42868265462221,-0.971252323920453,0.183175993997793,1.17378475796977,-0.596247884401237,0.415147326423721,0.704318155326291,0.0957937307957764,2.58523074558525,3.91325300213066,0.390579693079417,0.766435459406239,0.31082522674842,-0.0260581273687421,1.82428375537802,4.77178017431288,-0.359897805423316,-0.524797438564747,-0.972172878982747,-2.49003184517915,-0.344719549822003,-0.549875149165018,3.55453155251871,5.983098723701,3.62824672513943,3.80074108175631,3.22157025191609,0.315921814389185,-2.68350673830628,1.96376608283299,0.357242061725628,-2.51469888630709,-1.06502956160421,2.52794353402624,0.960248090925234,2.32069062054961,-2.40557678253754,3.28825832985422,-0.415626610457366,-0.864062467484473,-1.35488378922491,-1.6950154271226,3.45610603340629,1.93946917446829,-2.69225634108261,6.53569319174767,-1.14691588724054,0.876001454550533,2.4586745084589,1.78735137013609,3.15400930300348,-2.00947499336235,0.956122404943926,0.217760297507994,-0.797442587505429,-2.26177883421951,3.34192660291319,-1.00590468610881,-0.577727338041768,3.29795568553345,1.27296091594326,0.144630099176538,-0.25153360508466,2.52417358386992,2.02606557324543,0.297575238666468,0.307146288091644,2.00565378741612,1.78226158888083,3.09601446353645,-1.0609576123361,2.05310880418256,-0.275557789914274,-1.47556600669577,-1.07115828610858,0.708324002160225,-0.710748179896655,-0.223909476819244,-3.00890831021661,-0.636748813554732,5.70490020947273,-2.24858298732488,4.8789535875967,0.669046237126167,3.76700212583,1.17675714414872,-1.97502635422825,2.70554129883203,1.10666305743325,3.3118949136533,0.90384468366301,-0.0606668707923745,2.76048713478849,1.28894654143369,1.51875781576837,0.377834737780177,-2.98116879438476,1.54268105368919,2.49331275150143,-2.09928075629523,3.68202621980345,3.00786656804667,2.64843781646141,2.83051304844139,-0.701020165777663,2.19072894052943,4.28555605150086,1.93664757814531,3.10247388756761,0.51918198858948,8.07877272858877,3.04543149499023,-0.580382811175696,4.09642303344117,3.58978567795475,0.692090798782374,1.63776956937727
,10,-0.289982927367419,-0.693564780261113,1.58901693334337,3.91473309225239,-5.95678017972023,0.140141263427722,-2.94809774851001,-0.236140905816683,-0.0448555443426812,2.08299522607103,1.32771577378935,6.53897163612783,2.56328877955548,3.70582873910826,3.74079533214717,3.49916483102788,2.44593585629173,-0.559041783538305,-2.22134604492112,2.07759008147514,5.77793022403239,0.669091231534367,1.50571496651719,5.08860485642163,0.547772070454812,-1.83773429899611,3.36347383865814,2.38297195608357,-1.52854793007373,-0.494636017102494,-1.01283020351002,-2.08732970375877,-0.736762121062384,-1.24330071183522,-2.09654312268049,2.84542295447409,1.38459966918708,-0.829371442613592,1.34206201156303,-0.299981840359578,-1.16102473528917,-0.05079945576108,0.969831941719349,2.93456283041542,-0.461285574011526,1.4071933679943,1.24238900079126,5.45733328719507,3.70609971317936,2.50163943963344,-1.59908866001751,-1.61912292040961,2.22208562230298,1.59505925463873,-1.19475785316536,1.67786452003202,-0.508527355811566,1.73881923238878,1.3845094450453,0.42316469877278,6.15978563159115,2.35796254775505,2.7069813725011,-0.412723509199168,5.65482808955221,5.21220080310013,-0.921086915907836,-0.279963870997562,-0.951919557533074,-0.132161092496972,2.86472585004594,5.37914735175036,-0.0746158092870246,4.18101677429786,-0.30567530035114,-2.5033513147373,-3.48612354114539,-2.07394729924908,-4.28150721604015,-0.989798669759693,-1.70255958258349,-3.09411582363919,-3.03393501443588,-2.24690955478945,-1.04486878111675,-2.58662685108084,0.55496631220467,-0.205497240019213,-3.36676299520514,-1.04022022425761,0.976192127140166,0.637685254971984,1.38040343504235,3.10028431198589,1.29357556353534,1.15387482258211,1.4612831034392,1.21420670404586,-0.576538548636563,0.564748313892778,0.852044717353238,-0.745964498640205,-1.51141792618091,0.167108348790862,0.713510758843768,2.6459453344778,1.43521208953644,3.87010240060772,0.910263503062197,-0.384804926737161,0.808922580147737,0.211711367337557,1.54439863570678,-0.0753376950688107,5.31644818366567,3.24462287064671,2.11649728035627,-1.23497728423536,1.48474008205631,0.865094417060391,1.27641385493735,0.403593697580618,2.71419650332609,-3.95735179838994,1.47823572696507,-1.2607489721313,-2.02622508724562,-0.417220247902151,0.301002587399125,-1.89194622697323,-1.36793171048521,-1.10402284548218,2.30650804737706,-1.25208286042016,0.812235188119303,0.122559187036131,-1.48066477931297,-2.11733555438332,-1.09624482758045,-0.547001286530758,0.96139636063981,-0.377751238842393,-3.73084628400284,2.89969216258305,2.071018222151,2.14155480738737,-0.045219270195048,1.31517470903327,-1.45001983475231,2.40031210494362,0.110273179547221,-0.0514924166664059,1.95753726236217,-0.00558149198150204,3.83067281442345,-1.18109655085118,2.60560142033319,1.60390611985986,1.96509729702211,2.6688635151786,-0.157312045202161,-2.60794026990789,1.54949585962549,-0.754853857285525,2.54060893515179,-2.92992891931135,0.52002484460354,-4.16999853425295,-0.757481020210435,-1.8443222609385,-2.86141899331597,5.53349097730097,-0.278188810184474,2.57534635533466,2.46626122002999,-0.344146417655793,1.14436176252002,-0.459327340214259,2.20197174436271,0.508060532797572,2.97257874157094,4.00486754194571,-1.5925540399985,2.95093896636808,-1.90327387823891,-0.339250474032269,-0.321631209354564,-2.11160742183984,2.56464916606637,-0.145608414951312,-0.158053663888495,2.32898584203758,-4.22791786610833,-0.194116421615036,-3.93033023494627,1.17794224003683,0.117261727632467,-1.29661182171003,1.66984828276509,2.30471502548789,0.898159162910815,0.222525058762585,0.496658614280022,-0.865329442339316,-0.611521994896066,0.663234196683334,-1.47860207477606,1.41120900156511,-1.3309178029167,-0.844525844353484,-0.342094201174405,-0.163956920818237,1.97357120526158,-3.48944897957062,-0.106993132361822,-0.0134279729500122,-1.18288805174234,1.49611049736632,1.56636936859559,3.3617581139797,2.07789638010217,-1.0983964732086,-0.50470315066832,2.19455916629977,0.717352961610231,1.96416904753551,-1.2405103871688,-1.38484588441224,0.452036721165314,-2.53022872406655,2.5177984073116,2.78207677407227,-2.08202948368216,-2.08523588311346,-0.515530909562585,2.2974378572344,2.27745726627927,-0.383676886273861,-0.434274164045746,1.30179934494845,2.28613105414934,-0.856913007138246,2.63656604034441,1.39489817225331,1.80859638565653,3.90282810118788,-0.841520993792074,-2.93714902446845,1.44665463982801,0.716811336678802,0.743859128578151,1.25880185371716,1.01352494687035,2.84380719367527,-0.0187332592749954,2.66458873366446,0.393008975485827,-3.66504124732637,-1.65100499291839,-2.52365001525777,-1.59715217309622,-2.64587484174899,-1.94207468819786,0.317920225461421,0.436610656986886,-0.522628842502854,-3.20336182432129,-0.563016000221978,0.94118118595361,0.890147393950429,1.35127728663065,0.992270078900219,-1.17534122517191,-1.1606792364164,-1.20203874331946,2.3470065803067,3.64392751508058,2.48414361165305,-1.33679108765682,0.883443138372058,-3.60831989199869,0.440305866613016,-2.60369116704169,1.03872163027245,-0.494967225144137,2.33147356639529,1.36266777389847,2.69962874516114,4.05696033724325,2.43055390169502,-0.528671721389401,3.22685668605936,3.69811080440468,1.723379164996,1.44644536312717,0.920445252028003,-0.122785669206678,1.94547552427593,-0.743619195792235,1.05356855241916,-0.674309185644233,-2.68874870825857,1.48892298122155,1.53498482636951,0.427829090172054,-2.79343250439524,0.759637154393204,-2.61811431365368,3.4253253855959,1.19004873955328,-0.263222955595666,-3.39155648748783,2.80260774333237,-1.53543600636567,1.4451414852374,3.28024970799288,-0.63492135373599,1.47139850653275,2.19615898937809,3.62739649088053,-1.01990473010301,0.173269911648276,-4.01110692095699,-2.81129580632842,1.36020059308794,0.0607016302083139,-0.754415387952577,1.75364607019492,-1.05956528048046,-0.473191068985216,-3.37043595680643,-0.962500927443216,1.1738757578496,-1.32928904096298,-0.273529265611614,-2.32412309248957,3.27230589803821,4.47586310573297,-0.918400591560385,-1.23329255057433,2.28903196652755,2.61641524993229,0.270165990699752,2.09573477116737,-0.747345425525054,1.9626366495786,1.59635115499259,-0.422260353036108,1.69383528193157,-1.8528997180656,0.142306845118583,0.181410918686197,4.987303306586,1.23526606754604,0.695570275368482,-1.32272300153818,-1.63862123852505,0.0338570929461639,0.453693198426663,2.89763318850964,2.79600710400973,0.0876886396326881,1.56961049487018,0.863736021844488,1.75147781404667,-0.574019975714691,3.83535819920417,-1.26445814589351,2.4990031753905,-0.183986444382754,0.815740074348469,-2.37846178677228,2.54722835767234,3.79269262766957,-1.1256877349233,2.01746874025775,2.14730780784157,-0.333906240018223,2.56351369978984,-3.22994820620352,1.16034568134,-1.57319419434407,1.99395609631574,-1.24923687654518
,11,1.56950047720329,1.03298501423524,-1.62218300121913,-3.01412677135068,2.1181559900815,0.315825551340822,1.17498161943331,0.970261313694209,3.35428915731882,-1.3000883419727,3.6218028391886,-3.05108095916239,4.10706672099695,4.83897935027289,5.73222174292914,1.91296008753397,-1.27795117295864,4.6204502086448,-0.0148979455771041,2.8434173732885,-0.801241648852738,-1.53722982914496,3.8033905363036,2.45263016160061,1.61957486071333,0.622392297162151,1.11102489277073,2.96921744562496,-1.18315716144843,-3.57937100928666,-4.69147501688803,-0.938304075553788,-5.74261012783245,-1.53058079366292,-3.94856983904356,-2.66894341562511,-0.128320138643176,3.4106745507288,-1.76830283933486,-0.737599255448004,-1.47974490218166,-2.61620641561785,-2.15429711584238,-1.5166628532088,-1.37540457352679,2.82864764124042,3.57954359919859,1.77894919156461,-1.73577137494431,-0.314075127341312,1.2721421406095,0.785318091326189,1.72751870655338,5.68020167133272,1.38817591524275,1.89412333513974,2.60994389926145,2.83890111645815,-0.631379065291185,-0.577477963083766,1.69846155368759,-0.118543548019261,1.40564075580733,1.50221041077384,1.57929885529575,2.476100095123,5.1690261043359,3.82858415880037,4.59737728106757,5.99106293149907,3.81575203856664,1.43867377736115,-1.88003982421833,-2.62980207940745,1.69843829811362,1.29335938933582,1.96018971613557,0.104363790771458,1.28627184044399,1.43588532111698,-0.668526214375561,0.0610708366330073,-1.04664221578423,2.4285084315261,1.85574792635634,-0.208156179241087,-1.68971728544966,1.05437183780214,1.51650095291461,2.12975941395143,2.10480656696018,1.60830442390761,1.84937745681418,0.859913431946552,-0.47356727537499,2.24453981384522,1.48837691025346,0.764724786140505,0.460329735851701,0.997428601823231,1.60207221999826,1.1003890032689,4.11673717442318,-0.184430953532683,2.56864077954015,-1.87309591534722,2.52967939688551,1.2359322869861,3.13147573086462,2.42120749725473,1.49960475996886,3.19148521312491,2.41327452643691,2.45688318267366,2.58196595277514,3.22565373217185,2.63907697018385,2.10356387705906,2.942941127224,2.95546418657068,-0.800492808964918,1.93723917997522,-0.0287130967917619,1.89991621308218,-0.377788912042888,-2.15618934778831,-2.65423456371354,3.22178207431352,1.15106636637574,-0.334063990489994,0.57165059522049,-0.412546111560005,3.32163543502065,8.08154988821843,0.031065281953488,-1.54298902517712,2.98958422688338,-0.105274876447766,-0.413362477220289,3.33224245690508,3.56260071078759,0.253821027662525,1.51833214289945,3.52981059336344,3.93665708137087,1.56071476934721,-0.0645763866150446,2.33699987991986,0.369990066120408,-1.29358927612429,-1.75228680420514,2.13358624392731,6.162862657613,-0.589521406766835,-0.648761958611431,3.89074823222563,1.35532809221422,-0.313498089487439,3.64107623352538,2.34284835443759,2.76595850861395,1.5275521512458,-0.197500652659073,-2.42157023351774,4.43604338921614,0.551952159667053,1.68835867646703,0.591946492759234,2.33504776411155,-0.0190934380116232,4.0552687325735,4.14439691748703,-3.52961508727003,5.17928742982167,0.220923751070586,2.33222851355094,1.17961071047193,2.20757756493458,2.40070820492565,2.99855371427111,2.59461867684331,5.75569599192659,-2.93624184003602,1.09574065886864,0.516941032414252,3.47186744672672,3.15901339844095,2.44696824127732,2.18472841396397,4.57924637044653,-0.145188127912661,2.36175788289802,-2.27106819366145,0.0461809376174642,-0.0699193838927386,-1.90432554025938,5.23682745329188,4.00233931431376,-0.294535605813508,0.0590869174575346,3.2372560819822,3.33577504276309,3.66635562576994,1.42716779517286,1.52147357243211,3.2683612811843,0.595571088469114,0.892589865689843,1.45653267606485,1.99493474313931,-4.16776405926794,2.88318420006726,4.6295483805543,0.909368132560303,-1.01665725414205,1.06182286808507,-2.95576805206656,1.57911137926385,-2.07648929765037,-1.36891919620939,-2.20414969085323,-0.522434649868046,-0.883612487843493,1.45376231320461,-0.545818933875125,2.83303384879036,3.21705157441465,1.22782095290677,-0.820175240349272,0.633234152863224,4.79449328544433,1.64492760968733,-1.08728240247092,3.68207933438407,2.51627214786549,3.27100824039735,-0.279146541458431,2.53934533248503,4.48805083094067,2.30586814645358,0.679878778903003,2.11117183049464,3.65940684560064,2.44409128239113,3.5337414355381,2.10014607472021,0.823420026200438,1.37590904221179,2.93902647533196,-0.39438014064217,-1.0050037327328,-1.72791139731089,2.98793582359667,0.698706370081709,3.50920106088415,-1.11741243797223,-0.993741228792715,0.845860852694386,0.677131541600829,1.20832726276512,2.5712554763395,-0.0868560518756567,1.38940834707955,1.57552855073027,1.3737646453128,0.130556298397096,0.906114104073822,-0.304574940908424,2.15653288146041,-0.238317066403397,1.80433655920297,3.68529732883508,2.9372538600428,0.723827622370663,-0.892867920859317,6.2372159943061,-1.40777178252756,5.2804482463107,4.31260205264243,-0.615726778910357,2.59513268274804,-1.54102077379594,1.88444602444815,0.819506062798609,-1.86276614621147,-1.73575296598665,1.3171621457368,1.34694872504588,4.23592779011415,0.0197285472286239,-1.49376138701064,-1.27580544526336,2.84626062250391,3.31928681999761,1.03328269758913,1.64608582997425,-0.479403523700057,1.78816189359623,-0.11260043395032,-0.887651188922064,1.62194912614996,2.9189876003511,4.67772694691575,2.36400852224961,-2.59337759513983,-3.75335230153723,2.78708840719992,0.843645742774243,-0.236499800829733,-1.32161569960226,-0.422738269528963,0.939842371171835,-0.457136198087937,2.19382331411725,3.13492857220172,0.40020273132086,1.51804194343003,2.90799242366302,1.25929145341252,5.12215336362078,1.80711296749178,3.01011362122063,3.36798788988926,2.82911568473537,2.58869325546493,4.21201731618112,3.28556012844729,4.98179194670956,0.0335865475881292,1.89702174549893,3.88286339248316,0.911527195087729,2.61363731475922,2.13204050975673,-0.388029507242209,3.60498352635113,3.45459952079364,-0.320533344425712,-0.714148825675693,0.374917431725407,3.88851104207697,-1.89029025445689,1.75303323752905,-1.67991433762199,4.21278516943858,1.15266658063865,2.13582818653413,1.66289448670523,0.69058241003313,2.13425064237072,1.97409969922865,4.13910879356536,0.994104277654515,3.0677943673918,4.26674255974012,0.302513570756673,3.57962752043022,-5.33545413895536,-1.96381643359473,-4.73878691752543,0.897236302314923,0.454330019222652,4.39253224126333,2.49889870990137,3.22126897897397,0.649419462698461,-1.12948114899518,0.0787163585982853,-2.37220060427899,-1.03977981956541,1.12978096468487,-1.11331858745052,-4.11549947105368,-2.15472702383522,-0.302957513626097,2.81442212742786,3.06655308246081,0.636973818483966,-0.339935855005024,1.06785133903395,0.193327985536598,0.689240099592098,1.49236359578572,-1.24233290242228
,12,1.34548583070045,-0.397279206104031,-2.2257082373917,3.43793863197061,0.153750031707204,-0.337789205990703,-3.88556435970258,1.74893981581954,0.908092275972194,2.30758809271265,1.95210856710128,1.81574117220407,0.715202684192263,3.18831361645971,0.320145854061593,1.53277738008092,-0.40130332427907,-0.961872686604693,-0.829550529733751,-1.78290319607277,0.849320569922384,-1.32635167546232,-0.471669947285591,-1.26753485795234,-0.724917469756292,2.01692370153432,0.357976067411983,3.23150990491649,5.41073328598213,0.382711712326454,1.69892684697425,1.40381495375277,3.98969767331891,0.375610059432802,-1.2385496935749,-3.47448773159977,1.31400688858594,-2.8126561805957,-1.99315659793319,-3.22158103770198,1.24050354748579,2.94124761401963,1.40909912817278,3.02031731162515,-2.70230006798465,0.323703688441128,1.4307353092745,1.65550673228427,1.88706036040821,1.4880959667471,-2.10594593816768,-2.02564262586748,1.59775552004521,-1.43037321190241,-1.57946687541335,1.64519804396332,0.199910270822329,5.61190663080379,6.08445712978846,2.26918519101309,4.7037125281413,-1.34241319045577,3.49200977549845,2.03455815223879,1.09357011108932,5.48118436310324,1.01445648873778,3.11664406657201,4.31154930155299,0.457123747523838,3.64796126563851,2.57847041151945,-1.45879451317069,0.26746437469501,1.95543386791451,-0.63294290291833,-1.07484779188326,-1.76370282993048,-2.79056282972761,-3.8607558878266,0.225803931521114,-1.12267783880452,-2.08369564855911,1.01952412283572,1.97810818569087,1.34197122239311,3.06638486670636,6.16318975477407,-2.680858252912,-0.568296922444461,3.0356052684765,2.84364157147138,-0.0143455022307535,-1.24739774775571,2.84133893669787,-0.606421690450588,2.35855070886737,-0.680899974539898,-1.37788697428641,0.950638984450052,1.44343474897869,3.51775174806971,1.41205257823458,-0.243730744202367,-1.32007219870138,0.0243345850440164,1.86882739565135,-0.194403885779138,4.26061099742674,-0.935153420724419,2.77107647312096,6.08954546284804,5.24424166223343,0.985685154911152,1.4209463200541,0.486890096658499,3.41191557897037,2.16470388476409,0.700057078762256,1.42570307097139,-0.797641345080592,2.77042938040177,-1.90648342582699,-1.5515013435861,0.00575096142802067,-3.43826577454092,0.648803755117115,-2.10536867659266,4.01159639152593,-2.3347910137345,-1.40804870115335,2.130862256412,0.684016002086537,0.640969651181877,5.2067232835625,2.90839616162884,5.27180147667787,3.60653856574754,0.43234183518689,1.76911834132898,0.802002257486492,3.19687381789754,1.85563382036162,2.08250722100547,-0.7306610507203,-0.955408364540745,1.89107810226233,3.03142635430504,2.7226781037225,6.1334610431777,0.365583243017682,1.16676296158494,1.00575225601006,0.915211030745013,0.856382148922421,2.83814769055607,2.80597199759814,1.9045588872732,0.00970186772883608,3.73873926249507,0.937675421183485,1.84323145812505,4.61868316685559,4.85073754817131,4.4062011302567,-1.59634235857084,0.177862839566842,-1.42317352721057,1.04169234397978,3.77409302325032,0.971827370854044,3.11396165992574,2.1829095965486,1.88597504790323,1.13745932024813,1.19088429191197,-0.347040007600299,2.41343579220029,0.567201326472059,6.23659336815854,1.73221594651386,0.111303225464326,-3.20275334714734,-0.675752282636495,1.29859522933657,4.12837302928165,-0.944050390282428,3.5382101246696,-2.20309716066367,-0.859299824228401,-0.70623619152866,3.9550949774648,-0.193733853271624,3.73406803492708,2.19040605190639,3.40613052448407,4.3341663907886,3.36759374765461,1.05146765160407,6.62753022762899,4.39267836157705,6.4844607756886,5.73912696764,8.82226309363432,2.72721432931939,-0.864305282608257,5.81070802555405,0.784566714841276,2.45839199791681,6.32736508673042,2.86051433476223,2.07424904734125,2.93538573324349,2.0286169155288,-1.48884179982906,2.26604635008334,-5.60870198680823,3.18096304464871,0.642606831946068,-3.84965823667153,0.356635959638879,3.17517660612066,1.07563405305518,0.387383134414449,-0.196976148961767,-1.48463818779146,-1.51960810499259,0.311022868334476,3.59347696738951,1.02540237520952,6.0520217052308,6.03189938864944,-0.109476156627352,2.63637455710523,1.98790830590406,2.25268105213581,4.49120705224323,1.71559028511001,0.913305394134113,0.312515581566004,1.78340796913653,2.93122904331813,0.0159800831152097,2.96672834209494,3.96726634684546,1.65839357305231,-1.34261026541117,1.59197506761393,0.655070666683969,1.23656678867792,-0.588543160045447,-1.03783992697117,3.52349116074765,-0.292309974212912,2.37081756246334,0.291770677817112,0.281699558348009,2.60656472023038,3.53041134589603,2.19660515277974,0.709134781539433,0.53301271744931,1.99606107797081,3.74163856815721,0.852877957046985,3.42184653738786,1.1035731046486,2.41787746936916,3.07549300532173,2.68123688091782,1.19566344608029,0.244562116793531,1.00309391499195,1.8966043835353,0.657302598436218,0.349721052222776,4.18808429356068,-1.8534332786794,1.13199387907753,2.04956419399059,4.01731750465933,2.59262960612068,-0.790197494624408,2.13500310556537,5.85932526941087,0.358415575841718,-0.51087070477206,3.38422753229315,0.0891688506553692,-0.376538761331176,2.97176477441826,1.12254082537311,1.84542931084525,1.47774225715784,2.17092352879354,4.66408633512856,2.01783269719908,5.00216151860968,2.10935457385767,0.194401420930262,0.360610258718225,1.69337027159509,0.16259579969028,-1.42008629179963,4.99346195492762,-0.233824419447046,0.675565190133966,1.60989645895097,4.06491232802455,2.17183589688557,2.07801043408926,2.59195524489769,0.810838400851935,1.33787100209429,1.97950547033179,3.39118389486339,5.21545527881062,2.59151283802839,1.55409180431616,4.64016185087166,1.91906706034843,1.89492463603892,-0.551105997904415,2.73743980290419,1.51583552179909,1.38790977981898,-1.4441752550656,1.91985303449019,-0.233197640831349,-1.28211297651706,5.27496056758446,0.345423027155448,1.25274001776961,2.71908296091078,1.39414902552107,2.73808113864561,-1.66156453293115,3.17089946802662,0.462305750510495,1.68773148023865,1.06507494109883,4.63358414192317,1.0832786072433,0.653975494507904,1.73859015903781,1.02584029416994,3.25930975545907,0.527364545680939,-0.122380551529204,3.78406287296275,-0.229606297171813,3.54684779081617,1.37707235830021,-0.627228015936453,1.34382055572405,1.79261242343273,2.93256139536425,1.27216856031009,1.73418267512898,0.667552557873023,1.49490952284305,1.50676194941479,-0.126064425860022,-0.319606283332178,2.15250472366552,0.496925048642879,-1.11438867552533,-0.352618188379893,3.21849325615131,1.48224020648377,1.70218731320801,3.41386627919655,-2.24018119848051,-2.3551481946015,-1.65904024539577,1.80644997757281,-0.159518284431215,2.83438763077629,0.211432266722113,2.72555352875133,0.769398792297579,0.592893509117857,0.62893383442497,2.78502749404834
,13,0.521730840553573,1.83757236079782,3.90611543706291,3.65450178516585,-1.05612060527437,-3.72670801740696,-2.65551449762643,3.56029185289299,0.722939513884739,-0.814615073000823,3.49389108032574,0.76320198060148,1.36996455069766,5.18906839636838,1.98385822740693,2.02108806718752,4.28601319135305,0.767424715092602,4.85338187574507,0.99712915861528,1.1465024432282,0.862627941789469,-0.521559338299994,0.167563293802232,2.18354663011633,-0.506077823749365,0.923047410975414,3.23778741874321,2.84248223406212,5.99139601085972,4.72685105348592,7.8720950920806,2.87526437537417,3.48715879315114,1.49961002220334,1.81064623866405,1.75891740969291,2.03773480361997,-1.33536869127056,0.772587848699914,2.87487130054706,1.1234882128083,1.33450249626912,1.42201645984551,-3.72621303104734,-2.63303187174188,2.02609248675344,3.62419998523819,2.61787021631335,-1.15429785084598,2.07005749490327,2.8199762528393,2.29889608100984,2.90012052927977,2.6472247437614,3.18431810207312,2.36775641630811,6.69293116935751,3.81187284224688,-1.63291601645687,-1.52355351795177,0.105938534985398,-1.79310001316207,3.70900987127243,1.47624348718182,3.65244663326484,1.40143664897914,3.45627639225768,1.26495854187397,3.87636078541618,3.56292631601173,2.1716714202621,-0.767136351518275,3.03359969399389,-0.737524226698042,7.01097326076524,3.57905971148648,-1.09363711847254,-2.58013124043191,-0.788527983302629,0.0100644601980093,2.78542256851051,-2.2546431541632,1.80248218287397,-2.17447128138065,2.06498644860767,0.890517990769695,-1.19789921063602,0.305714589338095,2.60826237947276,2.15924990376243,2.69015133550511,3.43742851205934,6.46213200856891,1.17892827282867,0.849326334350735,1.29397001194775,4.34024056915496,1.16860454076323,0.427201267012606,-4.51661336441975,3.95095865853455,2.62463169886087,2.84730973766818,2.64978179022273,3.07150864316191,3.4520033168701,1.41004461443754,-0.0242568315070457,-0.536472271615821,0.612746572800461,3.87384060256863,3.41652641719611,-0.222615010692607,3.4737728985674,1.18911967323857,2.96413013349775,2.16612266941684,3.14148236680558,2.00735603322482,1.69478865566452,2.81730225410774,3.06370842092292,5.33747662050337,3.58242571374831,-0.210746579155966,-2.21029343472492,1.30864282240327,3.07951920597407,4.26836702058608,3.83085583479624,-1.00374860626744,0.0385562181809291,5.89758167264426,5.44519558597949,3.13420071731798,0.846919712006638,1.09613836019616,5.68061230054536,5.41595163416605,6.29097543599437,5.3478667006566,3.26050108201707,4.89052563862788,3.93426191777053,4.24704015911448,-0.242373733081877,3.89908758496495,3.14273321408564,0.867438649844189,-1.40084573141667,1.75088934520863,2.77456920779241,3.32017394364811,1.73693597467445,2.60745375601164,2.90471349893687,0.00606877781228832,3.00850059247659,0.893887012991399,2.93244407651036,3.50134795398753,3.68384355853414,1.22230542557918,5.00719753048816,3.05208536524879,5.83067540647426,3.16175901783936,-2.99206583429077,3.7919416867544,2.16039645836554,1.13085052462611,1.85620622875831,1.09158910342376,2.32511595861433,-2.0934599427228,-1.09399194108028,5.4944041407407,1.18946383446837,2.18439193935683,5.53979818515836,6.00132696480614,6.40752211871222,8.83079335847378,2.81962717423812,5.11888359918976,4.62161682958504,7.73515952437265,3.86081552764972,3.04577149724901,5.94422242153451,2.63409564910035,5.16979615789569,1.47454114398442,-1.88601022448984,3.65058750461503,2.6408190893917,2.27712948143108,5.0170191556017,4.96401058057108,2.38561728731747,1.1950538938645,5.12682249665249,3.73212062172479,0.138459471907481,4.51752181591928,6.74428154882935,2.55466042602893,4.10857439003394,3.33870302202831,5.80805515675092,5.2737191544602,3.11636456156157,3.11414006363884,5.18088905916102,5.13070254263312,4.88390846367565,4.64973731115242,2.69947934306492,2.70288052101841,1.73415410078997,2.30737573701845,0.269341221042851,3.12447564958802,2.23217385198677,2.94049077415912,4.9925153175127,0.708058811042974,3.81710699929226,7.73221502341858,2.30341406734351,1.25606394695114,1.54940685288602,0.790868245423553,0.390005407068202,5.33501577477364,4.2849660955535,1.40766412193261,-0.874167208196013,2.77807540905269,3.7043672511054,5.04089033794207,3.55588310273743,3.74139213142189,1.76613533507134,4.07417560882368,5.1060782893037,6.46809310174831,4.7078495009182,1.38174675036316,3.52982159955354,2.9881304606115,1.86567622839266,3.88479496610762,6.06987691925315,7.31621482898754,4.23075817419885,2.96944947802058,6.33749240075849,6.00982586192094,3.33938304213461,1.64058356018722,3.22921368135576,-0.721993887385906,2.79368614552914,-1.88712568633582,-1.39936083677003,0.73388878120204,2.960270784778,5.18597748364391,2.10868450411817,5.4700856332247,0.82598469748973,5.05385375498372,-0.702701775451715,5.15472449795561,2.46348799104726,3.08544071518372,0.255136710205988,3.67603740375216,1.32013315162931,5.89050076992044,2.37405739424776,1.99825404944841,2.88127448490832,3.16495284895154,2.73795113367396,3.93786454520614,1.34771088275647,1.9527925248276,1.71255371795905,5.49176421383436,0.281654385746151,1.72430966550928,2.59871807901891,4.13454059589458,-1.59434105390574,4.35904191894315,4.67990080527579,4.8540043865296,3.50302121029927,5.07720937771956,8.06801790712234,4.32275904468952,4.06506640210227,5.34780549745119,4.56387395052207,0.498221720481524,3.38394529253583,1.39016029436334,3.98387679481584,3.46416701794715,1.52403702420997,5.19775898836724,1.58115287335295,4.48906101925786,1.04694865837791,0.26809949561175,6.16581687165035,5.47963214501033,6.151872920811,2.21407961381101,1.67664525795954,5.31809394668835,2.93783224932577,3.2282736258494,3.38174877220263,4.32571075061333,0.785081869628812,5.56267739536361,6.37997870494291,0.581371807423238,1.48120980456406,5.27980527571435,1.83063130625851,5.41271139498349,-1.95077527738795,2.37133319589429,2.5822529263105,0.78619600129332,2.44209887922352,5.52169449086614,4.08661997789022,3.70715229386951,5.50006646163274,7.4731675632047,4.59717370216731,2.1353400552216,3.12284826471659,1.44221330213441,4.91646166976989,4.07019281527391,6.57342015784616,7.20083930640885,1.48962994265457,5.66126188770613,3.31327815636269,5.37844066950765,1.54025174454182,5.32078241707222,6.56813984488417,5.23630065241468,0.981649527351692,5.10245481678976,8.46728099135453,5.42307426171828,4.77607221134531,3.30505749790973,4.64823787256501,4.02104670189328,1.90761614233998,2.80348685167337,-0.623848382642336,-2.27333821580669,1.16998165702626,0.962536310727955,1.61735115662214,1.60250468032973,0.92980883627024,1.67553540704921,3.64393908390866,-0.493625642613551,1.08741868494599,1.87846621412518
,14,-4.03905877690522,0.132019312359262,-0.314054234710056,3.1218277953476,0.567338270703658,-0.971833865120061,1.30149630140568,1.2520741963599,-0.249443503887051,1.12348447598379,2.46677569581152,0.756602605161788,-0.32093509790684,-0.28351505444607,6.88584392451139,2.71036063041902,4.40133766096551,5.53700890890286,-0.656208960503136,1.44945481862669,2.13492028359087,2.46004500574509,2.87779393094661,4.68043855461292,-0.287785545308907,-0.107630794894249,-3.5021219464661,4.95167028096239,2.0163091240247,0.091169126441855,2.91537742093442,5.54929946989341,5.98124982502031,4.35849314328243,3.84572420868699,5.27812660000018,5.2501094130339,1.17537591901873,3.59245457710495,2.7852842928678,2.70220028284893,0.322569131277305,3.34984115650877,0.880372603125579,2.91660170721207,3.49034982974354,3.1358560214203,1.6602956057186,1.80299249038035,0.484855732985125,-0.331540819155634,-0.252428975138173,2.30422685224039,-0.959321339679263,-3.34724128181188,2.63505691633964,0.894927254680624,5.89449570589841,6.30672476483869,-1.65154161650844,1.83091086524382,2.69481988543703,2.23614273583371,-0.334890068923414,-0.588063800195414,4.54297650926765,0.652967042939054,1.91791229853061,3.82016614185613,3.33040731686287,2.29616384309065,1.48433018024025,0.228840187743117,2.46907342933537,-0.543984137862026,1.00573394277308,-1.89937978475609,-4.20787404493876,1.4692429324723,4.39952890906807,2.04577577320561,3.38994509179247,1.79360034657384,2.54556861883884,5.89677675530038,1.6880485361462,1.0781472443341,1.81504001946087,4.62253779308594,1.65313835185952,2.36659871551819,2.16722166902764,-1.49346935072754,2.82143132478177,2.03273409165922,3.50766928723169,2.29765810172012,3.40418019620392,-0.169680200991934,-0.385384042489932,1.98231692168429,0.409495639897614,0.326497335808199,0.153818043429055,0.982195235751533,5.00668488391239,2.93398121701557,4.13026621009067,2.90884247612848,0.113922179499241,2.16564487660162,1.98029176063301,4.08416513925295,2.32429635769222,3.79778256663485,2.73949599338175,4.15408610690793,1.29115048992844,2.00478507369462,3.33422374236579,1.98478094114307,3.09745110020867,3.80242918430304,-2.1683964404765,-1.84332681704109,4.31146062701555,2.14082774859162,-1.67623062669009,1.75120747972778,-0.438156952493955,3.8403644717655,5.4701323862455,5.45916565181415,6.07234081217302,4.12354896967099,4.11405174699848,7.1771649934899,9.07655537159462,5.92297752810009,4.00610010967648,4.51032285330075,-0.705541555485979,3.58396287189225,2.65525134295694,5.35607669235105,1.11506988163455,1.22280285088436,4.18395825676089,4.50852225750168,2.96911843667567,2.97260541062406,4.39701093922668,4.02946948065801,2.96636926611791,3.04972418138095,7.68254649969731,1.10674462549014,5.14635135086155,2.92328101970179,1.00906638643119,4.55765262871046,1.02377133074606,5.61579983089268,2.14146193297529,2.87809030947483,6.05593051242704,4.17928182275136,3.18382979114449,0.667389124132569,7.10638086724248,-1.19787169072333,0.267975883842155,3.76144245421983,1.86356710117889,3.68131863569033,5.3203080918156,1.61164814400399,2.35700273864495,2.85872941824346,6.15269375362186,6.13713839100637,0.229139160759587,4.52830194947637,3.91466266487987,3.24424778651701,4.78385708904079,4.63793160071145,5.84312756493728,4.60432740760007,4.70533699067437,7.7644186804655,3.47140526894236,0.106426647876106,3.42217804484062,5.1303127563051,4.92418801764234,3.51551024731361,6.68292759614269,5.24292654569945,2.90380246802943,6.53749242371123,4.28393076968769,6.12447305017758,4.17923842218443,5.65605578045415,6.30577082959917,5.94948901658427,4.99377627695139,3.6749561312954,8.97955709367852,2.99546902074781,1.10868926652802,2.97203000737409,3.47306841921636,3.55269971741109,3.58548449418322,-0.248718117315548,3.99644082832037,-1.80672892022631,4.86846870182762,-1.27893949154259,-4.39811924966125,0.0633086522602753,6.56292761917211,3.21777237587867,4.12536918630667,0.630072154120171,5.15425239938122,1.64484587703828,4.86489246361725,1.08119921552225,0.220792335670922,0.10600623713708,3.76437420638013,0.495003124953655,1.56932758574567,0.74876769808543,1.00179882990233,-0.057909826939067,3.63945982847417,3.53286829254193,2.3605449308352,2.58773720243789,1.41034583504006,5.7810849708876,-0.153776692090105,4.31470132319646,1.3333444845839,5.28741791476568,0.67189179824345,0.820133652427103,2.23633433052964,5.51584041963815,7.83666455069852,3.97493719897466,5.92846740097593,5.01380695162425,3.92787233488343,1.26827178496842,6.27604215670999,6.81856588568826,0.523521590394012,1.46659157303111,0.962116830098239,-0.918181294735405,3.59030175477164,9.25678495138436,4.0695021052361,0.592475834828292,-1.27411644113454,5.18076457998905,5.64410554550796,0.198278255821606,0.849377877054394,5.33575247937188,2.56436400490747,4.73791332527344,2.40846061883167,2.90778430885621,1.35992017272565,2.15060870042362,2.59040501529125,3.32280865424309,2.70599713252523,3.38782245541097,-0.163248308736911,1.5891382906857,3.95486118582994,1.83625676248084,5.04304892870368,0.974812895668947,4.81594707989552,6.27674746546563,3.20870394163467,4.81420830860316,3.81765603956956,6.78828318710657,3.68265134479316,4.65279829526844,4.35579071771735,1.87887189433513,1.86711121620101,6.59410685734656,7.45682252597817,2.54361172999415,5.37443810801233,2.70408111451979,7.38252933580952,5.28336161254902,1.72268547713065,3.7228481238717,2.2960568961671,4.03641973511913,1.95403120302035,2.14080698644739,2.55912077902576,-0.774062638878604,2.46982571399531,2.93681000897232,5.24207927561201,2.88694554803988,3.49800329014306,4.69149734615257,3.02888633480416,2.76516607475605,2.04354882289499,-1.37718789432711,-0.110148208881583,1.22144718888921,4.16618343479149,4.5463036899373,5.13100119949559,4.47721361004915,2.25263028737572,3.86621973314595,0.863992682162461,4.16686098353148,3.26517663763752,5.3804053939848,0.490679607470156,3.22410989826676,4.16084108551786,3.81937710463626,4.16527055318056,5.01028877282533,6.9512674431744,4.2771704760271,2.60147680646423,4.86398518802798,4.38864211110104,1.08898874838633,4.22050643084913,0.505003262404898,5.84741572982148,5.81845405009517,2.84995140712726,0.984692877683301,5.16287252729126,2.74337147559163,-1.94696327617839,2.422923426544,1.94660840431243,3.74871577477734,3.39537996190302,3.41537976133441,5.20644763326072,0.780736942245312,2.55272637923463,3.35587699872212,3.4170198152442,1.85508022739032,5.85719447727934,3.42575199522025,1.01261672150667,2.72282509766956,0.899973611735732,1.57054547687494,-0.656765397494382,-0.845400486628932,2.14459804246053,0.870334668487885,2.41697487056445,1.45036017540315,-1.90627232098541
