usefulmove/code/maestro/PCR-211006-1030-SB4_384/PCR-211006-1030-SB4_384 -  Quantification Amplification Results_Cal Orange 560.csv
,Cycle,A1,A2,A3,A4,A5,A6,A7,A8,A9,A10,A11,A12,A13,A14,A15,A16,A17,A18,A19,A20,A21,A22,A23,A24,B1,B2,B3,B4,B5,B6,B7,B8,B9,B10,B11,B12,B13,B14,B15,B16,B17,B18,B19,B20,B21,B22,B23,B24,C1,C2,C3,C4,C5,C6,C7,C8,C9,C10,C11,C12,C13,C14,C15,C16,C17,C18,C19,C20,C21,C22,C23,C24,D1,D2,D3,D4,D5,D6,D7,D8,D9,D10,D11,D12,D13,D14,D15,D16,D17,D18,D19,D20,D21,D22,D23,D24,E1,E2,E3,E4,E5,E6,E7,E8,E9,E10,E11,E12,E13,E14,E15,E16,E17,E18,E19,E20,E21,E22,E23,E24,F1,F2,F3,F4,F5,F6,F7,F8,F9,F10,F11,F12,F13,F14,F15,F16,F17,F18,F19,F20,F21,F22,F23,F24,G1,G2,G3,G4,G5,G6,G7,G8,G9,G10,G11,G12,G13,G14,G15,G16,G17,G18,G19,G20,G21,G22,G23,G24,H1,H2,H3,H4,H5,H6,H7,H8,H9,H10,H11,H12,H13,H14,H15,H16,H17,H18,H19,H20,H21,H22,H23,H24,I1,I2,I3,I4,I5,I6,I7,I8,I9,I10,I11,I12,I13,I14,I15,I16,I17,I18,I19,I20,I21,I22,I23,I24,J1,J2,J3,J4,J5,J6,J7,J8,J9,J10,J11,J12,J13,J14,J15,J16,J17,J18,J19,J20,J21,J22,J23,J24,K1,K2,K3,K4,K5,K6,K7,K8,K9,K10,K11,K12,K13,K14,K15,K16,K17,K18,K19,K20,K21,K22,K23,K24,L1,L2,L3,L4,L5,L6,L7,L8,L9,L10,L11,L12,L13,L14,L15,L16,L17,L18,L19,L20,L21,L22,L23,L24,M1,M2,M3,M4,M5,M6,M7,M8,M9,M10,M11,M12,M13,M14,M15,M16,M17,M18,M19,M20,M21,M22,M23,M24,N1,N2,N3,N4,N5,N6,N7,N8,N9,N10,N11,N12,N13,N14,N15,N16,N17,N18,N19,N20,N21,N22,N23,N24,O1,O2,O3,O4,O5,O6,O7,O8,O9,O10,O11,O12,O13,O14,O15,O16,O17,O18,O19,O20,O21,O22,O23,O24,P1,P2,P3,P4,P5,P6,P7,P8,P9,P10,P11,P12,P13,P14,P15,P16,P17,P18,P19,P20,P21,P22,P23,P24
,1,3.36038397261109,2.17185349164447,1.15102517597279,2.8671314923954,2.83368881224851,0.464640327012603,4.32052701216844,0.9665133741928,3.16165814679425,3.81229055273889,1.11369285018009,2.85655985322592,-1.58552017009333,-0.913986154484064,-0.255450100194139,1.52035401073726,-0.491435735746563,-1.23593753252771,-3.23869531869423,0.340793854368712,-4.75105905618057,-0.277775470938195,-2.07504935053976,-0.546361685285319,-1.5621878426482,-1.99233473046525,3.09807776923981,0.891507275691765,2.41410486456834,2.27013696600079,0.718628109719248,2.19400761787347,1.68058506353373,-0.724144567267103,0.298243894712869,0.810861490097977,0.0934324909817406,-1.32259996952007,-2.02759702165395,-1.86395265308784,0.748640187431647,-1.59234895105192,-1.83393649770414,-3.06835384493024,4.30438678060591,-2.63939235874841,-2.4641312260319,-0.213720283213206,0.700213019730654,-4.88512708994904,2.26563136411733,-0.342514019792361,7.03441071697034,1.43561114270096,0.972131745555998,0.608038232315266,-1.17981705603006,0.952332273980574,-1.89552097969499,2.73211152480872,4.3256959441992,3.31159125840577,-0.84562463160637,2.24615390309555,1.36337778937377,0.446831209763332,-0.625527142146439,-1.29718728266744,0.622202502119308,-1.10376942946823,-1.02294413531308,-1.12991757166083,-0.702508913153451,-2.42264731454088,-3.69047247068465,0.0368353601647868,-1.31126061003351,0.514525329806474,-4.13815593517529,-3.96013276694475,-5.19515008905137,-0.170016630644568,2.98548368229558,1.33075392177125,-0.785607233755854,-1.58276146096796,-2.12503610667318,-3.58132745501189,-4.24520115621863,-1.03344387360357,-0.0727943215165396,-0.918690419151972,-2.03481925744745,1.86657233788037,4.53558517621559,-4.34395632061069,-0.68137651618008,0.166637378874384,-0.315798513818208,-3.12786674154904,3.03543636622544,-0.694865911680154,1.48303147365959,2.38557250780104,-1.11848120851027,3.57897841292152,4.82682896433062,-0.557132772378282,-0.701713518556062,-1.86536788894864,-5.4038932300482,-6.48772355703022,3.66193318398336,-1.083695933954,-0.307145654377109,-0.442832484007795,-1.29997889717652,-0.123897053214932,-0.230306055392703,-0.168516674978946,-1.97636591862783,-1.25710527605861,0.105883373302277,-1.86147248269799,-1.14331371559592,2.06172125738431,-5.60857295245796,0.180178842114401,-4.80937557958123,1.87135575620778,0.177228370721878,-0.471773837528417,-3.70390576297814,-3.15809368821238,-1.62581839109862,0.225426662557766,0.103137747945766,-0.501002217535188,-3.02828921872833,3.21696952151933,0.529039564452887,-0.470383053098431,3.97489246599389,0.614940819902131,-0.0520777471456313,-1.27989397935789,0.632151115791658,0.00698139372070727,1.42483288058611,0.27786154676005,0.25411497163941,-1.98509398581382,-4.12737765148586,-0.473618133780747,-0.153467065684254,2.51136333141994,1.62761489669492,1.23453205557144,0.471994044212806,-0.754153030808538,-1.36658268555993,-2.90467559106628,0.864498025950979,-1.07285288537423,-3.81385745520402,4.57331196446466,-0.111684343885372,1.55937124378306,4.33842062662961,-1.58310537757552,1.76592226640196,3.66278818997125,1.92993960969443,-3.52240149625004,3.03276952044962,-2.87163090535523,-4.80610535485403,-3.59522125828107,-0.824014775678279,3.8405914404043,-0.454798273899996,0.684982403841786,2.0701153199002,-0.143804552390066,2.89382257638954,-0.286139403252491,-0.880600462740858,-0.905181199828803,-1.5192099146193,0.290941021002254,1.1812217412762,0.763111106419274,1.82776648306162,0.904850366707251,0.133538302907709,-1.74411353265532,2.09665900417804,2.51413592495783,0.953800681973007,-0.487304035739726,-1.29980365202664,-0.394760900817346,1.02865149286663,1.58213690631055,1.31887595376065,1.60630665388999,-2.23115342193069,1.84042062686831,1.66536985068069,-0.211160186672259,0.00575642417879862,-3.23537651099696,-2.74906090114473,2.6052567913539,-1.09962404347698,-0.233372925798449,1.00649544015732,-4.50347856320968,2.93308186232662,2.32560379943743,1.85438880746415,0.0228516794641109,0.840224988912723,0.100332272691048,-1.25370898140181,0.0514925505572137,-0.412465052283551,-0.711084480929912,-0.962211842935176,3.59414449049973,0.530839587723676,-1.58299714883333,-0.446389580715731,0.20094205706846,3.2736473127884,-0.0285218594694925,-2.82353490231344,2.46129796008609,-0.484658745904653,0.140890873562967,1.42162570901019,0.58542217587501,1.8263793872643,0.00301450324786856,-0.648926839873639,-1.2589071833163,1.62217209102619,0.26726114224175,-1.13208370722759,-1.71834509982546,2.04433370834204,1.56574856521729,4.50688187302603,-3.74043512775506,1.77690136633328,-2.28222741712671,0.769544770014818,4.71141327955775,-0.909812776372291,0.817099060909641,-3.28518094106448,-1.11404271084666,0.68473254308492,-1.14865587949089,-0.153842939550941,-3.35133746271367,-3.96046757061822,2.65786303414143,0.127249960853987,-2.28541680031003,0.634140996497536,-2.57209684325107,2.08803263187383,2.47811186837589,2.91023664271415,-3.01456784423044,2.36557999368461,-1.16044416988552,0.15386287123647,0.905244449524162,0.855967832923852,-1.98925036829996,1.54714830579678,3.12953899233025,-1.95434011806174,3.06481782471337,-0.946483475094738,-0.425530952730242,-0.760588597529477,-0.3309633219651,0.278028255466779,-2.77466368114028,-1.8462286855015,0.324917125310549,-1.77784770343624,0.841595189023792,-1.23985685053231,-0.116106327245689,0.209274011377602,-2.68131155611627,1.45233013744291,-1.79429275691746,-3.11969759634167,0.299507894934322,-3.18069663456436,1.33450534327721,1.66795287856803,-0.824862687479254,1.98721478464176,-0.0866022368127233,-0.996739474769129,0.325115111259038,-0.185131758008538,-0.349064203948728,0.118786376785465,-0.643178656965574,-0.737627637479363,-1.68542238999271,-4.53767983525904,-0.23526041364812,1.74678532377584,0.686122139035433,-0.972743668683506,-2.05810120026263,1.76190694271145,0.504829349563352,2.14978329835139,-0.194756816251811,-0.541358405254414,0.621466821673494,1.45162440070271,1.21263097266592,18.1530656496802,2.04493845759862,1.34996719677974,-3.71576980583495,-2.90440634009019,-0.839879656576613,1.89767509376179,-4.82297244703341,1.52542037116973,0.08586802263153,2.53673077529857,-0.749610274703628,1.68184150300476,-1.16869050166906,-3.90959775134843,1.51180052364953,-2.75801540563725,-3.70992661824903,-3.68195826648844,-1.48964629481452,-4.29445594129675,2.49052893579437,0.19761715105551,-3.56004560683141,-0.134032574178946,-3.28945584498661,0.980593306666833,-0.489341773232809,1.86359917748587,-2.96721936667291,0.451880611582965,-1.7917719805273,-0.594302008085833,4.06450301143468,3.08487457435649,-1.89162977309161,1.40038258690811,3.30089811309153,-4.40401967788603,-0.387626466162146,-1.25698375087859,0.649949412544174,-2.46449037467346,-1.15475375283131,0.770836124354446,1.71309584252185,0.164269499616239,1.60187813782068,1.38717964618627,-2.12571067766567,4.04743534547151,0.0666357567306477
,2,0.494156221914636,3.34297220521557,0.548226237711333,1.47432836603593,-0.533715847098847,-0.00635805726597027,0.766643447244405,-2.46112456589117,2.48732116546535,1.64195200484983,-0.29472395587527,-1.18580729196992,-0.850379835885178,-0.522135142945444,1.49992200216047,0.158326003314869,-0.391991545982819,1.22867624819492,1.80323582036135,2.66948727811086,0.323182503958378,2.83625777673569,-0.150440599292324,0.584884671406144,2.88015032490375,0.207411256852993,1.7182293993078,0.876568883124946,2.27839875583368,1.36013444809487,-1.84661992987367,0.937394717358529,2.02662142353074,0.405595419034398,1.36531150851533,-0.686542704170279,0.24443907618388,0.144779533152814,1.41779614432699,0.834771312115663,1.14534371198943,0.719748163186978,-1.03416288633252,-1.28705977716754,-2.79395558084207,-0.168716336673697,-0.871151924388414,3.42291513392365,1.72492490874947,-2.97887857511159,1.83310518387543,-0.538220835939228,3.26051714629284,0.707005205796577,0.481782489613124,2.53172498154663,2.27116568425663,4.11002847267491,3.19807977265236,3.34589053096943,2.47166836902261,0.756160628566704,1.49441687608078,-0.670179382434981,0.475941596135272,0.0194100510798307,1.24611614636797,-1.8626354748867,-0.426706296015709,1.75552919426082,0.800327951743384,2.65849143209152,1.75621979519292,-0.0875895512926945,-0.58502592366176,0.500076131649166,-0.909449098789082,1.3590252909321,0.513917317553933,-0.567303882713986,-0.514622860874169,-0.171701261345788,1.16493500645083,1.88791065973555,-0.329461070837169,-1.92967668368829,-0.734150181087443,-0.460961660964585,0.778650493327405,-2.71549974779873,-1.73592593470539,1.38860129424256,-0.639265894421442,1.20682458471401,1.4070773871299,-0.494648639886691,2.36544286216758,-1.52138819034417,3.25155916612539,1.85024411219865,0.96074566299967,0.122515491328159,5.43840521402035,4.43809278804247,0.00715500777550915,1.50410508767573,-2.28227204329687,-0.221658099574142,-1.06609028770981,-0.795115461922251,-1.15168259158781,0.509625179469367,1.75631226186988,2.07470774281728,1.45158775696382,-1.18118449819303,4.35634793792815,2.63880861986991,0.355066934273054,0.0168590966759439,-0.558158989707408,-2.19450919758674,0.575272664653312,-2.66075879384471,0.780295282930183,1.93690692744121,1.33573829680381,2.02993569968885,1.52260503548268,-1.22903980062438,1.23534329217773,-1.00382319060554,-1.25673490337704,-0.697585127521506,1.96902728789837,0.265743575811484,-0.560293131467006,-0.225430413725462,0.393761206101772,0.117499222911192,3.2846907488688,-0.584047464852119,0.00899357827120184,2.41904346712727,0.433460267688133,1.682703587981,1.68493810608015,1.84183114832513,-1.22796087955203,2.14237145193783,-0.156331779454831,2.50267277656167,-0.002121449709648,-1.03574057089509,1.05258053162788,2.99246536222699,0.346608323122382,-0.477171754031133,2.02888908851355,3.48310067416969,-2.57180036188902,-0.013904932049627,3.50430689130781,1.18098316963051,-1.16813862909521,3.32281883967698,0.449257853508698,-0.260084323256251,0.0704520946928824,-0.720950384593834,0.39737858960325,0.453170088383558,-0.543111823262279,0.393189400710526,1.61201806362533,0.599355461080449,0.21183939068851,0.471225194947237,-0.828394314612979,0.00183095609645534,1.07545055191486,1.96803744018234,0.346522861098492,1.25109464981006,-0.678134121718358,-0.0568399026628867,1.13424675203896,-2.48687925703007,-0.365450283666632,-1.62038664324109,-1.38879638181334,0.565615728195553,1.35818793190037,-0.623157983473448,-0.958189932917776,-0.279010064417434,-0.585937177864707,0.591114304749681,-0.435656098891741,2.42318591549702,2.12310865353038,0.687431914734134,-0.286467788964274,-0.961781952710226,-0.579059657822199,-0.187823844855757,-0.955471672509248,-0.943754385313696,1.44108752097463,1.44335234907248,1.56689120157716,2.26492420492696,-0.0230997189446498,0.349830829445182,-2.39688839558085,2.31722290861262,-0.00582381398862708,0.0626455847200305,-1.33653248856945,1.16563787236237,2.35713060523494,-0.162663158360829,0.630324026948529,1.02460349830653,-0.560613111224939,0.41564258771632,1.82645541237162,-0.136071449687734,1.14839054970207,2.57246091730167,0.188239296193387,-2.17230606726935,-0.882379435830444,-2.2565571757068,1.95446984126784,1.1892954299733,1.2239173013636,0.576502951704697,-0.157848735931566,0.585846831631898,2.6088969444877,1.46956314595855,-2.30876845512739,1.13142443924062,-1.06036452684521,-0.375445677510925,0.680587511933481,0.54113904157839,0.538312059014061,-0.581804027880935,0.984204989256341,0.369430050557639,1.16368209551547,-2.29186823833879,-0.220360401082871,-1.39781120224643,1.97014247800007,0.929542412334285,0.0468487355033176,-1.68782234581249,1.22803635586342,1.19848282500425,0.55387019506361,0.573585721321251,3.88376515753725,1.64946376797025,-0.31741417907142,-1.27832670671933,-2.08969835654352,1.50902592489774,-0.483786523422623,2.91466839885061,-1.4220707477657,2.8027145338242,2.74379881515461,0.463607586155376,1.29022012589303,-1.01062390262632,1.38183827213334,0.743599230009295,0.109494431393159,1.23760339413639,3.04523693401416,2.36197387596758,0.00561588386244694,-0.726277397148806,-2.32431640964478,3.32940554058678,2.70896238492287,-3.30769105708077,1.52817628045295,1.1127894682154,2.16345066461872,2.26361688617681,4.25268490865574,-0.100327587834272,1.27460194148171,-0.148226195960888,1.23423120713642,1.96989087023667,0.207714137605763,-0.426195045005898,-0.539805437118048,-1.79555933410393,-0.149269409467706,0.127628856090723,4.7285090378623,0.225588982953013,1.27528656440836,0.875011712026662,0.179927531670273,3.90083739678266,0.283778550966417,0.204546945481979,0.569215203984641,0.524264849273095,0.519164812747022,-2.39576211559233,-0.0923144921634957,-0.874144247154163,0.734239955560497,0.577786212360024,-1.67424404665962,4.11510375803618,3.50710329217009,-0.744531621738133,0.647035600673462,-1.0293955686252,1.77271202265456,3.74995737150584,-0.826720434237359,2.63353477015335,15.7478486874461,3.06064287783329,1.0508612047679,-1.11678188579435,2.07256642729362,0.987194868440838,1.86293468453778,-1.51505490817726,1.660729928622,-0.928428736850037,-1.01228348263612,2.42842187945416,-2.29863129492787,1.17730376669988,1.16803631363928,-0.363748453256449,-1.79430832805519,-0.920890438782408,0.840744144230484,-0.0848195786156793,-0.533944945450912,2.16266114627479,-0.615531135803394,0.992463901999145,-0.166738956108475,-0.435877879696363,-0.0815199003941416,1.21238813906211,-0.339164040276955,2.07522610396336,-0.226462944376181,1.31363132312163,-0.376171719722606,0.69040328886922,-0.408479452500615,-2.20475767720382,4.48886192950613,-1.43267572395916,2.31987632301116,-0.351344054955007,-0.0756546189750225,0.528783427636881,-1.25440962543144,0.791519532757775,0.3256020039139,1.36743759763749,-0.00591428790585269,-4.41290222503631,0.805343016989355,-2.45565622322056,0.355169607596508,2.46680581709779
,3,-0.367600608439716,-2.82849863943238,-1.6523272154127,-0.0504920717594359,3.03729688340582,-1.23868844351364,-1.81721653506065,0.17039667719564,0.461775185799979,0.0315832780429446,2.95446333865675,-0.249585403541914,-1.45453533014279,0.883430332701209,0.460020515267388,2.58295305564479,0.975296099115894,-1.23081253511282,1.30969239863589,0.334257434128631,-1.69246731173189,2.90842836606225,0.994585403196197,0.151121222654638,-0.818889151381882,-1.03516582841439,-1.07550441407147,-1.75789383434631,0.326800931500202,2.67945833358908,-0.394898642137377,-1.06832756558197,-0.0368863822377534,2.42330177724489,-0.740626170327232,-0.839060549905298,1.45890030025794,-1.10364295197041,-0.287617794891958,-2.72690299563374,0.53984495943223,-2.67087065807846,-0.567161217804824,0.018123343706975,0.936562444712308,1.40601565122051,-1.05720385222958,-1.78227045546055,1.1541742653003,1.69888443334048,2.96976884082778,2.58230020893416,4.25399709222893,2.12028694003311,0.15853551643022,-1.69125639567619,0.904379577992586,-0.919545530114647,0.210627613271754,-0.35753940544555,-1.09036898670956,0.392990343133533,1.26412202057554,1.40937487822839,2.69936335376815,-0.500273447734344,-0.24866587052793,0.294605749823859,0.718039716358362,-0.788324245136664,3.24795113560594,0.084614655625046,1.73739365585789,-0.0334105265005746,-0.302822429453045,1.49105175183149,1.7567217769456,-1.30937268264415,-0.457877035708407,1.39884436352395,0.433974504709568,-1.74231027200221,1.33319189392796,3.3473115547722,-0.43142718809986,-0.365546642460231,-1.04251445345608,1.61343025921997,2.73436970402054,1.04489199191039,0.726058326190014,-0.775734350862422,-0.85554183674185,-1.06809859629675,2.49981639639327,-2.77643531036074,-0.583671816833885,0.0782850926375431,1.63760482692169,-1.98821024258996,3.07484474953662,3.43869283497634,0.502436341444991,-1.96108808793906,2.29252505987415,-2.29509466763557,2.33018402746848,0.161371619362853,0.5895383598222,1.88134374910351,0.0987100431457293,-1.01021565999463,4.76208398514837,-1.02889518971961,0.912175748239861,0.623207896816893,-1.8196451384606,1.0849585502533,-0.140383005792501,0.892476850399362,-0.172730481838244,1.35765356196453,-0.43903016720742,3.89016769407908,-0.402009523783818,-0.532273205455112,-0.860008665880287,0.975491690227045,-2.39742586938655,-0.770217891664288,0.505137693109191,0.282845267013727,-0.225306983719747,0.358954854583317,0.522256249245402,1.31353477822586,-0.0271195572422585,-1.10416723274466,-2.34138221622334,-4.37031051063286,1.78705186628167,1.30843558001015,-0.698922709400904,-1.72252053147486,0.547797509971588,1.71516620440343,0.106982871230684,0.176228062010978,-1.12119392487375,-1.59883954096858,-0.674725546889931,-0.736958285436231,1.0565685137226,-3.23848726649248,-0.7580538834045,-0.00548079115833389,-1.00221671081044,0.400149562673505,2.48826525175264,-0.593933146626568,2.01420436809076,0.343710724829634,4.44463636745559,1.56615950355626,0.0219623745942954,0.480048980883112,-0.695896660024573,-1.60489272322593,1.77965330290863,2.85521483010552,0.611845684662057,-0.515477368559914,1.58021872232484,1.82965901157286,1.47839427389908,-0.33690902335411,1.64876107374494,-0.978156013117768,1.06907467802239,0.633463813016533,-0.656735352220039,1.36845107133149,-0.715269875128797,-2.92332338491451,3.65699581797708,-3.07513015945869,-1.11901595556628,1.75564519878117,1.19890362411252,-0.225141644609721,-0.275833790244633,-0.76754103043595,1.69338846850269,1.24710594666021,4.84196336170226,-1.8209561062863,1.91002699894034,0.18360774305529,0.87153310127951,-0.676657645099112,1.60524535302056,-1.15400125517044,-2.55720882743026,2.0408442071016,1.06405053512799,-0.829557724934602,-0.908564341072179,-0.358067312542062,-1.17638327773375,0.384501877260391,-0.411543934362271,1.42327729214458,0.845638416034944,-0.940705143740161,-2.01393962221209,-0.184326134165531,2.05363398892632,-0.172255443784252,-2.22393523326991,1.51814647628225,-1.61175369396187,2.05032672681227,-0.274013331430069,0.973354717189522,0.647179103535109,-1.84628017405748,-1.06906176734719,-1.8586784904569,-0.716229580863001,2.90990098883776,1.37790957130983,1.54165003083017,0.801873267617339,-1.20812705969092,-1.30019541602269,0.592542312242585,-1.48998603507698,1.80432061066313,-2.78098608244954,1.91370752131024,1.61948447504074,2.38469812805579,2.44360754964691,-0.603722252952139,1.2653278812586,1.31533464632366,2.25130815395596,-0.995827392134288,2.27588798947954,0.525918270236616,-2.08506574886133,1.70615705236514,0.00384437757020351,2.93973612332456,-0.55132147209315,-0.169121881602678,-1.48238556371825,3.17486756970993,2.21576891029508,0.279605832096877,3.17061191010225,-1.32295017029901,0.997687738821242,0.589883757707412,1.43698748541328,-0.419000433927977,0.155867317449975,3.06433719333927,0.627219083975888,-0.521786159598378,-1.12689324108942,0.623314875114374,0.753598762181809,1.51703165327172,-0.0802588660840229,-0.993882412449238,2.05195368452996,-1.38180576369223,0.758712351234408,-0.460371445291912,1.72393312285885,4.44273512962764,4.16707467491187,-0.74141798434357,2.37064735365266,1.63084377839505,3.90435064832536,-0.457633289950081,1.52406548238469,2.60623985258599,2.22367992521504,-0.319492509499469,1.0350525389731,0.249588450850752,0.583697390445195,0.208849579332764,0.594566714794837,-2.22625687610298,0.697392658330045,-0.783741133112926,1.4403253217979,-1.76482703937381,0.944394590203046,1.48378468363217,-0.971846709478996,3.40740846321432,2.4203235961736,0.494886861040868,-2.27856315374356,1.1072444919846,0.129251219945672,1.52689663042247,1.2281162571212,0.3827976106395,-1.2586384987253,1.06779537912917,0.31506708707866,0.88251113319393,0.322134646722134,1.61393159630552,0.694595622574525,-1.42677866876102,-0.983230458599792,-2.89867847160122,-2.2141852110467,1.63589350112534,2.11054803230763,0.806519996324823,2.4607444152075,-1.88644506642913,-0.120684238896501,1.4661579394251,9.65501604328892,-0.0976140731036139,2.252966662159,0.356253561989433,-2.50926418729568,0.690013020131573,-0.806352379740929,3.98608856976989,1.02386336554991,1.16531198442181,0.437838213461873,-1.80392977718384,1.5539551771044,2.30484503983052,-0.799627105806849,-0.507927300970096,1.33734084485059,0.101797071218698,1.49440752283772,-0.912797427406076,-0.461823074617769,1.90730071255257,0.867219094732718,-0.787749564297883,-0.163429037056176,0.708638171695384,2.58191340886287,-1.27549535268872,1.76793208436675,-1.147618229621,-2.80007806472941,0.754428549286331,-1.51702392567267,-0.530681702693528,1.40279848169848,2.83839260354398,-0.921917166674575,3.81194505091617,0.0104107562096942,1.174181271002,0.279370294722867,-0.00155114407016299,0.120996393231053,0.314591787751851,0.178364496600807,-2.83629934364171,0.213487485834776,1.58046176578682,1.1281810034061,0.271121978678366,1.83181446703793,0.386873311383624
,4,2.3136248409246,0.812329106000561,0.733997254192673,-1.12378615146736,-0.529066954348309,3.17681334427016,0.8968981899352,2.72747653327906,-0.822637935877992,-0.278958709390281,1.00928581383778,2.63324101554554,1.31929895809481,-0.257976596310982,1.58458460435668,3.11647677792462,-1.18486400521761,2.54897676939709,-0.292319271199631,1.93342862104328,2.31391423954483,-2.54744107294346,-1.38446269391898,1.06451863679104,-0.680126426591869,1.777610368566,3.24810558270246,-0.0844968019227963,0.376150792315912,1.15129830569276,0.975908119135056,0.894804164820016,-0.880390978407831,1.41884994360089,0.947124730104861,0.817166153966355,1.46974057070565,1.87634550791108,-1.82830517298225,0.73336419601219,-1.44593428518738,-0.655070531330693,0.312537760356918,1.60059565444317,1.00639348838649,0.32023280954445,4.15676682270578,-2.05922007453364,-2.19010257388118,-2.05537820588779,3.60777219056399,-0.846373819348628,3.00820796941252,-0.97787082153036,0.429741336150528,2.02978815272081,0.92904598631003,-1.60990943798743,0.150616349419579,3.7732196114207,0.888145532408544,-0.452052210783222,-1.2032308796629,-2.97134169547871,0.144775880944962,1.34550514528746,2.71916908963749,3.34697146209237,-0.752985113076193,-0.199283882932377,-3.44052784897758,-4.355473412224,-1.14346486621253,0.634456606374442,1.77527190241517,-0.361323089815414,0.00217489638089319,0.89001400040479,-1.06575485313761,0.481467953177344,1.57377947705299,1.66480682100246,2.52694151422202,-0.351662063957065,0.722650480025095,-0.252463530468958,-3.38509652055563,1.12236272267501,1.88262088394822,2.58022331942129,0.668328446792657,-1.57449571825919,1.10093326906099,0.884995644020364,-2.37815344934552,2.95924832319179,1.29383732378028,0.459707624283965,-0.897151238869355,0.781111320798573,0.850822404735482,1.79999244924693,0.524916662982832,0.0964584073144579,-1.37132983962465,0.0933532109706903,3.86380826798677,1.50757443365455,1.35319608515192,-1.96775943656849,-0.268090221527473,2.58842806995744,1.44512510662116,0.409357741009899,2.12508464977873,-0.314615563980624,-1.40034541985051,-0.226519849741635,0.529733933166881,1.08939000868304,0.723095869079316,-2.11719229605751,-0.637990662498396,-0.884062010869002,-4.84747230883977,-1.63629660636752,0.0633993859582915,-1.11365901307636,-2.28998614717148,-0.0328077945055156,-1.42596938969064,1.48372789992936,1.64911399744324,1.10483009950804,-2.37527600501062,-3.69809503274337,-0.614118582992887,2.98711757310548,1.3634953072501,-0.203338639244066,2.22112958835487,-1.78516642563727,0.393446139566095,2.45957174274236,0.125690265301728,0.145713280282507,1.24667825263305,-1.67099411002528,3.11692770604304,-0.404769447955459,2.78310516896681,-0.715545383633525,1.96736612182985,2.83480424180425,1.74908545128528,-1.29432052100128,0.353989895666928,-1.94615027487407,1.47817153631786,-0.20064035702535,-1.69342546077769,-0.22474866811126,4.17341662814897,-1.85222275215801,-0.113541657872702,-1.09002969194034,-1.34694301146283,4.44796406432442,1.0107304131775,-0.750302931081933,0.72998801022004,-3.49423172068646,-1.85970551792389,-0.862209589089616,1.76598396811778,0.271085457160098,-1.84758041703208,1.67178338040185,-1.94311319146345,1.0481389593142,-0.152265954448012,3.32929943238059,2.43084083539406,2.38732298563036,2.19134899698838,1.04834061281235,-1.77301013853867,2.93160988096361,0.28553568799498,0.318147878447689,0.667244499635672,1.28307633610939,0.329622045724591,-2.0711960739136,-1.40051085210916,-0.510255321219574,1.64003201162814,0.160493465438321,-0.765983810152647,0.14332683562634,-2.54758376765176,0.52563072275052,0.56951451755458,-0.935581832455227,1.37651151664704,1.85821480050572,0.566594821861145,3.26267170120673,-2.0798678621436,1.41696229052559,-0.14918416286946,-0.640015606395536,1.98448047410648,3.66243440781864,2.84377653100091,1.86481689122002,1.45444469435188,0.546010640396617,0.490135580792867,1.20681583302439,0.273394071434723,-0.264427408477331,2.05950357217534,2.10904342977346,1.99995672439172,-0.81148167882202,0.353095945678888,0.178207351608762,0.490671148389538,2.33433387294599,1.21349473751297,0.354432206199363,-0.269158410589171,3.04233699233191,0.861473897267388,-0.629068822429872,2.99859140693843,-1.796820791546,1.64621839428082,-0.755684949043371,2.05780127581329,1.28003067146074,2.91281429332776,-0.632459743777417,-0.000712088429281721,-0.0138337902367311,0.501216722255776,0.304472140640428,-1.50328724098426,-1.1046722155952,-1.33803581988559,0.741692976784634,0.525633666008162,1.00769907248014,2.64707788167198,3.75127422053174,-0.977047933258291,0.67900385233861,2.60816055530586,2.30459740813512,-1.12133272892288,-1.45711562353335,-1.46788473914148,-0.252191336435772,-0.446866239809879,-1.53393408352713,-0.991349076779898,3.48268769545257,-0.436738335193695,0.375398770866468,0.840657356402517,1.80388087768551,-0.197377362452244,1.31648195449407,2.22333547984726,0.136963904897584,0.191958377451101,-0.817099338442404,-1.43190244123252,0.693298392588531,-0.0746276108620805,-0.797289676602759,1.40352930386416,-4.87174137042075,-0.838841104408857,3.81294125458135,1.7421322700593,0.377538765292684,-0.0868424241953107,-0.908394178517938,0.0126947004823705,-0.691386732836236,1.23212464169637,-0.233482844329501,-1.41816990209645,-0.559261991506446,0.984731053724772,-0.11914913168539,-1.28556183125374,0.258518160297172,1.21435408417574,1.23322731284634,2.03402030249345,1.18317379137034,0.261881173887559,0.868408027571604,-0.591577696502554,1.85013372850972,-0.906140425924605,4.30445520196872,0.125666356984311,1.90909144117495,-0.44484103234754,-1.93634036856065,1.06443513994327,1.18914412270306,-0.441169901918784,4.30266622458657,2.05163643781498,0.413649868856737,-1.48493946728195,1.64914625913116,0.882141740887164,1.4410738663455,1.81467330781106,0.531741904217597,2.09874746980586,0.66732928260717,2.14138928926241,0.951936777792071,1.82092750355878,1.2391098584776,11.0019282245376,2.42220187283874,2.72297371270361,0.67101134567838,1.81913975801717,0.83789628038312,0.852955144299813,2.91651164052973,3.60942460381057,0.55976042420707,2.22228871538073,1.235252804624,0.768829689987342,-0.941782100686396,3.63005078919787,-0.646080742753384,0.752961346645407,-1.99904189393146,1.51039923619055,0.0347760395984551,0.571412124450035,2.28604693712123,0.649534824061902,-0.535275812370855,-0.585724015710639,-2.75682404729969,1.3701656215876,-0.58287026353355,0.740216406752552,0.223366672558768,-0.210507115443306,-0.437919917387717,2.36704128577503,0.802248247013267,0.978933904806581,-0.950815636185325,0.528532370396988,-2.63500925435619,-1.49004260224046,0.730399731548459,0.672989246229008,0.654048173769297,-0.0298133107717149,2.26256943856151,1.21320828437911,-0.788281897815978,2.90292551189714,2.30453820335833,1.27329179335447,2.37105395130129,2.21924531391323,-2.21953858254028
,5,-2.27466515364767,0.449669682562217,-0.570520569579003,-0.865519793777821,-0.881725982676926,-0.462850444678679,-1.71526709871705,0.545854035985485,0.778095913325615,0.853687566073404,2.59239469473005,0.0944358413144073,0.129416624148234,-0.094782860014675,-1.71272126604254,3.14056444447669,-0.738182743167727,-1.63825996747619,-0.721153871676051,-3.09688655308355,-1.46446547044252,0.795135989043047,-0.287300943030459,-2.5642395505738,-1.29810686522978,0.826930290573273,-0.509746769128924,0.116910736319824,1.96033189048603,0.164922447284425,-0.056384885947864,-2.41365409734181,0.176930349591203,-2.00101287587495,-1.10340796901392,-0.773424071545833,-0.76025928505851,-0.0826159088414897,0.811949756039212,0.913755025360388,0.985624981219189,0.0124097750544934,3.33390054169513,1.14217414620362,0.309805988717926,1.30382477803641,0.838877056186448,3.69588333961747,-0.617660639809401,0.459556730313579,0.715505035751903,-2.35231266885739,1.39946552577157,0.883945959732955,0.955183372811916,-0.508909561844575,-0.483468928207913,-1.57314388992427,-2.97041179103235,-1.96175208473323,0.0330698206098532,1.50130563841321,-2.88605294252648,2.51497410175216,-0.587932251945858,-2.25922445647802,-0.950323836195821,0.763779064617665,-0.520634964255805,0.744984398699671,-2.36903693088016,0.091840265243718,-3.27859333746073,-2.57338270610444,0.681626096909895,-1.08876128337715,-3.5529955865818,1.17380461524817,-0.941436624003018,-2.14611714633747,0.888439349764667,-3.89500464352659,-1.10698543076069,0.502839293517354,0.914678948539404,-0.308617228185085,5.25343696269238,-0.0157366916055253,-0.983212673247635,-2.10524074504428,0.932313223269375,1.92193180731738,-1.55158518376629,0.367060568830311,1.24668714532118,1.70708898566181,-2.56875880521875,3.43245697112525,-0.457581309737179,0.485207794376493,0.808682672539817,0.876203972881285,0.0724837394395763,-1.14314396931832,1.70373832349514,-1.12724750681855,-1.86272454950631,0.184267549588185,0.999981264535108,0.527518655719632,1.63081750742867,-2.33923124255398,-0.0508785741085376,-1.4341556204231,-1.33902907989432,1.17409476302146,0.0955501255120907,3.63774577574441,3.38351680025835,0.780199550132238,-0.636881871711012,0.334571164295994,0.126482792409661,-0.644657980208649,2.19321058362084,3.00554001079718,1.24554734390267,-4.07632049944777,-3.8564109591598,0.264096804077326,0.586175494710915,1.07903944443933,-0.110771272065449,-0.770569744013301,-1.77050903986628,1.24073400619227,-0.175743000607781,-0.474505723412676,-0.814135904359318,2.54595588916618,0.555825442904279,-0.726999038894519,0.0661515658125609,3.88542451692092,-1.36663656003066,4.39857444820245,0.643941362768146,0.199913378282417,1.65830322259035,0.883470319771732,-1.12923558771899,2.16062291182152,0.778958163471088,0.776793863477906,0.0775104423014454,1.13243848193042,0.815686234370787,1.09644998099566,-1.12853765630007,0.553194890479517,-0.0039456876852455,-0.754407224759234,0.0449097910204728,-1.33534155251027,2.12654121016203,-1.1127717032432,-1.1640472386307,-1.97510063543041,3.1287222219421,0.138027732266892,-0.156124740713494,0.094653324832052,-2.58019564779306,-0.974541174830847,2.28496099481845,-1.72047652193078,0.642095894333579,1.60635270938928,1.16806344119323,2.850961732629,-0.402648519412196,0.532446823520786,0.799258963175362,0.706046084286754,0.486840612398737,-1.65793416399356,0.532341403122246,-0.331704976721994,-0.146766291391941,2.40240479804561,1.63116454471265,-2.46199556455167,0.124894885115737,4.1136141180541,0.709423799537035,-0.397844857838663,0.295513804389429,-0.35038980577292,-0.611461809563934,-0.405025923129415,-1.80580188241629,0.0293321182866748,1.63527115088937,1.54426287559181,-1.17462182341296,1.06440642729831,4.02132828533286,-0.893231997268231,1.50260080668659,-2.10548490719566,1.08811500881438,0.0492196688728654,0.326897551784441,-0.489321439184096,4.48491750463472,-4.11508127072102,0.529303128084393,0.386314579234295,2.27573235560476,-2.89627158297299,-0.134434720463105,0.873565528128438,-2.4346462730382,1.1995251965036,-1.97316650695439,1.48675374787581,-2.49134087842049,-2.56539401170767,1.03411515235393,-0.147880017852003,-1.99977216482966,-1.2219361258617,0.964139840087228,-0.489400977749938,-0.305040372885287,-1.77278040872898,1.07634823230592,-1.17597001054719,-1.08973806412405,0.0477646500330593,-1.25750259926326,-1.22291875221299,-0.562516390049495,1.40891920574131,2.47618959994725,0.0759981739006435,-1.12053852243889,-1.18117788345717,-1.35700091295712,2.31147775457839,-1.85473846155674,-2.26406512992799,0.078022849440913,1.34947801608541,0.375036757939142,-0.252487721980742,-0.691710367444102,2.70628776403146,-0.894678416589159,0.238528432202202,-4.15080102093361,0.681417170965688,1.81443570638658,-0.850586481940354,0.81616834194574,-3.18523188594736,-0.173823995977273,0.637833391163895,0.373849136919489,0.277005033957266,3.40229047107823,-1.46963574673327,-2.75552042028175,2.01867935476685,1.05048741454175,1.37537292509978,-0.297395655175478,-0.013474983118158,-0.225057609040505,-0.338712808585115,2.03590766437583,-0.263463315355693,-1.1220574161116,2.83537635993662,-0.631830332430582,-0.567813518579442,-0.889826873602942,-2.62721645829561,-1.73091818583862,-0.678489801629439,0.65354307007965,0.649556663069689,-0.918861657262369,1.86885620456633,1.34409503471034,0.860558581038276,-3.67916932722846,1.51076100197997,-1.34318735372835,-0.180663817983259,-2.53524202072322,-1.10059987025488,0.792759497335283,0.641787433547961,-0.988205308901343,1.36630974162063,-0.991096091614054,1.27504273124941,1.3408260786382,-0.194497625939675,-1.33509322267446,-3.03811660942665,2.99636393612855,-2.37362523490674,0.221732976971452,-0.663340732910456,-1.50091728178677,-1.81924384206786,-0.484070924338539,2.15917396037594,-0.392332008738776,-0.311558212656109,-2.16490998957261,-1.96928158698438,0.00106415511800151,-1.41950698324399,-0.688704602201142,-2.77929134437954,-0.524241207198884,4.33549664618749,2.9513104770158,0.94108040016954,10.2129984642415,-1.01155942030982,-4.47007291576438,-1.80512581688572,5.16654393960016,1.92758455323747,2.95630578316877,1.81191499206761,-0.255079380056486,0.540009699526308,0.859838419147309,2.18794313670787,2.41877996053245,0.97828629636706,1.29969336320892,2.84271169618205,-0.706611549016543,2.23537958487668,0.752285141795255,1.09177235481002,-0.818145137427109,3.26596515388337,-1.3022942528637,2.79683476034688,-0.203766189598809,1.58098031056852,1.18375490910921,0.0348940852250053,-1.60190815505803,0.599798494359675,1.23985744895435,-2.90759042103355,1.71130379575652,0.872835576673879,0.181349658848376,-0.354296466541655,-0.845235250407768,1.19886290626391,0.905896130219844,1.55582750790336,1.45949667030027,-1.891466125237,0.671669488365751,1.28826450038514,-1.30408169158272,-0.035777982030595,0.674583861580686,-1.01191623838122,0.228795225282738,1.50642846369374,0.251998731668209,2.35430503841553
,6,-0.124489365617137,1.17951689044912,2.49396230318189,2.56283157167809,-1.51174670751789,-1.57347792354267,3.54707447809824,-1.33341363524278,-0.936091749857042,-2.62460764354273,-2.61052879843419,-1.33540889785672,0.383602053425875,2.52470302300071,1.00700771544098,0.47747888048707,1.06171798149671,0.317700761892411,-2.41054385399457,0.261203961958927,1.81756825492448,1.66624704956075,0.545707617162861,-0.130216331394422,-0.600618946512441,0.0551046600417067,2.20955036555279,-0.121583434174227,-1.47668505466663,-3.87529563575481,2.74417756934645,-1.19040460339693,0.00293714668760003,-0.969337470615756,-2.63926802953347,2.97686464231583,0.604609175026326,1.61723775674318,-4.05610501117781,0.956976104265323,-1.38122431369948,3.76082127251766,-3.00598430882155,-0.803520646812558,0.596878036173621,-1.90675478305775,-1.81602667554171,1.63237506434643,-2.96058535673183,2.60834490120669,1.09058846544622,0.381413926457753,-1.4000060798835,-1.84135225709633,2.78639432232922,-0.0049653309633868,-2.65697397413442,1.06538130448735,2.5414641994721,1.5779423719955,-0.772228038413232,-0.119208306980909,2.85087214733085,-0.972185072731008,-1.00193165247083,0.384234157684205,-0.734763645604289,-0.740253770333311,1.76901252346534,-0.509066454471849,1.18184314645487,-0.0492313108165945,1.20785899885914,0.0902902634002203,-0.431182370462011,-0.829620956904819,2.25842689377077,1.34840989394024,1.82134228115137,-0.398561117166992,0.17021143845659,3.3995025575864,-2.98971362760631,0.115285247753036,-3.52068462320312,0.267656147630987,-0.278243247881164,1.82354697212349,-1.06684125865058,0.797785222256152,1.41975975497007,2.26004812088422,1.71493398143411,0.239532445821169,-2.29856371679307,-1.33845011157155,-0.223157014917888,1.70530067526215,-3.10709106830973,-2.84320703461208,1.50290574887595,-0.898433153016413,0.729378418217493,1.45794494115762,-1.22496114890646,1.33901425093154,0.153474562077918,-2.10003332606721,-0.901438632007284,-1.70455370160562,3.61484896669435,-1.00992592656485,1.8048685334993,0.889881680743656,-2.2375849074806,-1.35452616949806,-0.127107877801336,-1.87778167526358,2.78279529113524,0.50997142616734,1.56008643016639,1.22060591213267,-0.401568605157536,-1.27831199282264,1.0159622663009,0.877604231831356,-1.51949377176061,-0.260268578722389,3.13977757843577,1.59950081556644,-2.79694986394998,0.734815636489202,1.01183256246759,-0.010540942483658,-1.27744684414256,1.21596633713307,-1.23259413087771,-1.10942535668028,1.62500450335529,1.91918716045438,0.989542484398953,1.9011246979353,-1.61152758755316,0.0956295090190906,-1.58174955710092,-3.2500455207728,-1.47981138727528,0.467150010238129,-2.68866907055781,-2.31418900859353,1.96947082248244,1.76792097484349,-2.20135405456176,-1.49117698213104,-0.182762646731589,-1.5238584560916,-1.61273861539712,0.255591158803782,2.04551637313489,-1.82620196238668,2.68140832045628,1.46588758879398,2.33866782496489,1.12951883264031,1.75009705901812,0.977210369177101,4.20972939488365,0.404564435035809,1.31208006577344,-0.581622484423406,-2.62748013227019,2.28179701219324,1.02253324413459,-0.0360382226003821,0.868614098887974,0.577264600991839,-0.223510470650126,-1.04800861765716,1.18113645035646,0.365016964200549,-0.143212846633105,-1.77997800500498,0.47815287529329,1.23664735333114,-0.557560715193176,2.36389995470154,-0.326687089595453,3.2120982715669,3.99208176866205,1.57714323254777,2.44718517537103,1.5844879905012,-1.71929371107444,0.429562241672556,-1.42120889496027,0.12823003909125,-0.548891991477831,0.766528671008473,-1.45463034249315,-1.56626853328407,1.00710304087625,2.41871673436617,-0.0944529246849015,-0.442932113964162,-0.652468549968944,0.776527835838806,0.0235270940611372,-2.1473214623561,-0.8173243947831,-0.853466077702251,-1.5035370835426,0.770414024023012,0.123189191345773,-2.71534379385366,1.38751046298921,-2.82923106551198,0.680043574917818,-0.475485894095073,0.721662194282999,-1.08217812702605,-0.78529085188984,1.79859240281894,-1.15808608890438,1.12733066042119,-2.36230075778894,1.06025709848473,-0.300005784090445,3.55615561532568,-1.5434390532896,2.58115060437694,-1.74453683870024,-3.70325386491322,-2.44515496900931,0.374531258292791,-2.41730212868924,-0.226765397732834,0.647894448743045,-0.0303079972595697,2.90261336898584,-1.10975544830535,0.121072418913627,-0.855164460441301,-2.22682607915431,-0.661767164183402,1.77807668565583,-1.20101401574675,-1.99025365459511,-0.148428132946265,-1.47078383399321,-0.00628586922721297,-3.06088729798512,2.12309212030959,1.4899060180328,0.399912355238939,0.25615750421548,-1.23713072462715,-0.202875418665371,1.25940266734779,-0.562924213767019,-0.918042277306085,-0.394705620699824,1.0992906759684,1.56112741584411,0.293573957452736,-2.12804507284454,0.593270718813528,-1.21417386049961,-1.80445556682753,0.123434178148727,-1.22630014965716,-1.59650409968071,-1.35286589021962,3.12282279059264,4.07552292431728,2.31419822360249,-0.435147707197757,-1.73520591183478,2.06162820111058,-0.537929975397674,-1.96996961295963,-0.328026639145719,1.70402824691837,1.0800958198638,-0.656597054409303,0.1239663588849,-2.72185867536473,0.991170150743983,1.91587644370338,-2.35572656524118,0.124202241646344,0.261704686035955,1.98766376504136,0.968345396449877,0.138068466821096,-0.473532385904036,1.80950103421128,-1.43557941096833,-0.88803336766523,0.844263393997153,-0.501063538559265,1.71063512197361,1.69453201540682,-1.2260930690345,0.765885404461642,1.83146374454009,-2.7808329407294,-0.875192223379599,-4.85378104062374,1.43495835823796,-1.94575127957432,1.98960641640542,-1.83175278069893,-4.81444057867975,1.73259328885342,-0.304092706199299,-2.52982681981212,3.88582706445504,3.79871785984096,1.84291695043976,2.57314116998259,1.59129129758549,1.59155616992848,2.25177827817515,2.79458350346067,0.568544909875982,0.72247249257498,-0.918252152403511,0.87908900975026,2.80256923241177,-0.262909342331568,1.72889919060844,-0.296027642941226,9.43035340580718,0.775189607265929,-1.9295905393069,1.34222539447182,1.25073746652606,-0.284917099882023,-6.6181720380755,-3.01720893075299,-2.566108470377,0.116364468048232,-0.290424399746826,-0.203320260931832,-0.572972726829903,1.424303491307,0.82324539213414,3.31524600050716,-0.101260692374126,-2.39429933363772,-3.04847096529738,0.509696282650111,1.87686038621996,-0.517387214068094,-0.937023542686802,-4.55954095501647,0.319653121201554,-1.91331066939438,0.791137566889574,1.12457027614664,-2.39264227455942,0.817492899269382,0.340549258894953,0.540618026334414,-3.55509799699666,-2.09922992078737,1.00894189065093,1.6213322167805,-1.02776767673367,1.65358807344819,0.429304887201852,1.3571289583756,-1.23107000038863,0.346220797104252,-0.0960464340082581,-1.78228288115861,2.35202224055411,1.69981592831209,-2.53196700827175,4.51780207700403,-1.73871567048172,-0.947254732439433,-4.7280531547658,-1.0085962598896
,7,2.11398240531844,-1.26882221220649,-2.96527003905385,-1.07134146537192,-0.242652781857942,-2.26952137813487,-3.19506971434294,0.00456007672619307,-0.563473661766693,0.278689016258795,0.0713049871019393,-2.59332593647923,0.772226556831356,-1.26468196326869,1.11933900198483,-1.64055671660981,1.61432058205264,-0.248511225086077,0.879205756561078,-1.77378458130261,-2.15433052670505,-1.49344046616761,1.59084120667467,1.5728985677847,-0.997213572432884,-0.542701852717983,3.03545186509882,1.49064459445253,-0.893738732080692,-0.619378205824887,-0.258987581026759,1.44186515210049,-3.2342454851414,-0.00523831478676584,1.76160811722457,0.320358318664603,-1.36507631463883,-0.779909366387528,1.00383798439043,-0.67812703998743,2.60072828506418,-0.488844160375265,1.75677665770445,1.88010387591476,-0.425159239028744,-0.189695570825734,-1.15183850570656,-2.42665066072323,2.85070942956918,2.40517328928127,-1.06267831415698,0.795268016645878,1.05063225126332,-0.500843667399295,-2.03456418272117,0.0545070327034409,-2.5574728906322,1.05137363463882,-0.773388108626477,-0.310644873574802,-1.17032585228935,1.30439624981727,-2.42935313425096,1.12045317229195,-1.42071848927526,1.14405828953977,-1.7599812397184,-0.108324371508843,-0.671599098639945,-0.0998873418539006,2.02836624470865,-1.09324051779004,1.71166696876298,-0.428313457222885,-1.22769866946328,2.28127960362553,0.368246544033809,-3.09654212441819,2.83862383639689,1.34781266220307,0.857533618267553,1.12064933062311,0.224494554101966,2.48238526513205,-1.93634411465109,0.59752520309894,0.770136364959399,-1.1940693378674,-3.54001521016426,-0.212932423082748,1.00494485906984,-1.85536156621674,-0.645672104227287,-0.88933208049275,-1.55830436269525,-1.04298825293154,-1.02366680529803,2.57486430027711,-2.01896467202687,-0.237702924962377,-1.38436220277754,0.851676552316803,0.754416179877353,-0.513011852579439,-3.15364619593311,0.329545130059614,-0.734078943347413,-0.265187089997653,2.26909318631851,3.91072134142996,-1.85962165916953,2.35824327742785,-1.74295027518201,-0.158433947232879,-0.642050860766631,0.395312767092491,-1.95954444156951,-2.65613504833209,-1.4287314647072,0.131075447586682,1.19497411126667,0.27836310118164,-0.81391138989693,1.1058729553074,0.557720915126993,0.500150616417159,-0.559009521027747,1.60871237469428,0.932112055679681,0.332218490198557,-0.58007487759096,-1.74713363289356,0.985879957167981,-1.0864269282165,-0.538258618990767,0.00288753348513637,1.05347207008435,-1.1396601174547,-0.988927917620458,1.29663492223199,-1.81771054237515,0.858720989457652,-0.209876903676104,-0.0401333811560107,-2.14783926980317,-0.17027759803841,-0.794390142248631,-2.92896284872586,2.28285984734202,0.751393915948483,-1.29881471678073,-0.351742670963631,-1.80186011375781,0.72695219503521,1.66487045495705,4.37502720257999,1.96711161236135,0.628920638162981,-0.120420888579702,-2.41033169470347,-0.374707173069964,-2.39168873103745,-1.30350613832707,-0.484243879418045,-0.448246754229331,-1.30874915621735,1.31168833497213,1.81863896414643,2.94635895071406,-5.17238932935015,-2.33703933389006,4.23083296464574,0.605895401514317,-0.709406240124281,0.722465708568961,-0.33536496652323,-0.93901207812587,0.00295562352857814,1.33847514992794,-0.809546013796989,2.04105808678378,-0.588261171849354,-0.604363822424602,0.442674789695047,0.855633645423495,-0.072159429732892,-0.419515695018617,-1.40980809645725,-1.38115902242544,-1.61818831403662,0.0794727716065609,0.917372321523544,-2.28051213858316,-0.607873985918104,-1.9262245875193,2.67266867450735,-2.78851150279206,-0.223167131475748,0.143973243054461,-0.359007726204709,0.896425489353987,-3.67082625645844,0.0842947065380031,-2.83735299001773,-0.413338823259437,-0.359194531240973,-0.682124733631099,0.379755161900903,-1.90235874166501,0.776301472722025,0.433439846965939,-2.18393072803929,0.434810742736772,2.06366089785615,0.338467834062612,3.45577196176009,2.61395682050352,0.375486617304887,1.5857950610125,-2.69168254520446,-2.06694059657411,-1.36314795860926,4.67773229299792,-2.34808589103341,1.37067262604614,0.213770212963482,0.491775134443287,0.039933835613283,0.546956469256202,-1.60228546414328,1.09619078657715,0.506813229489126,3.4002165084421,-0.388866683742435,1.51764382326201,0.575090927272413,-3.82860433556789,1.49125285288346,-1.42852878345366,-0.101750265289411,0.657306315978985,0.385388957572104,-0.67122189747397,-4.09795647276405,1.36616059090147,1.65436790045715,-0.502938679413091,2.67471327254225,-0.658863596915126,1.23773232762233,1.67568445176903,-4.27674224049906,-1.7900678806177,-1.81917700301619,0.12652550373241,0.773120299495531,1.53611438896223,0.551572075241438,1.16566601452996,0.792353847040431,1.30877117018917,-1.18111076677496,2.26481758009641,-2.55205291435823,-0.455697995593255,0.686846798863826,1.04811248967235,0.656897129910703,0.0520101771539885,1.9437986072785,-0.403919108664013,-0.928418199620864,0.513454942954013,-1.1866550009986,-0.460514483056613,3.099277708111,1.19477817367942,2.58417110806658,-0.0474620726045032,0.76201608863721,0.0217334520907571,-0.800227839347826,-0.457079965754019,1.07828152170669,-0.701646883816011,-1.38390204609777,-3.5078261753365,-0.438052297885406,-1.6538654500464,0.785371789006604,-3.97917510150819,-1.11612462705943,-2.8301339926229,-1.45191024822861,0.177896661518389,1.55508013320423,-1.0211411200471,1.53936791695332,-1.66221053216123,0.822743599634578,0.146988810264247,0.306983079599377,0.125576426844418,-1.76620479341364,0.990945723776804,-1.80112265930211,-0.0302044347004085,-0.741050413689209,1.05637941537225,-2.16825418555845,1.44493519171419,-5.40035325287545,0.353804267098894,-1.88433268614654,-2.3298779143779,-1.706083293132,-0.38750567310808,-2.4113958799976,-0.438372535569215,-1.58361135746327,-0.717381928533541,-2.94490772626114,3.24574578150441,-1.94502890014428,-0.0467732422598601,0.559786507459648,0.390307032839701,1.52271462174576,-1.71524112294765,0.558554408260989,1.86224532196502,1.81003778440754,6.96431586595918,0.357575785780682,0.354534812957354,-0.360878206864072,-2.95937459926108,-2.22514883249187,1.46778264095383,-1.74525628753645,-3.25602429101446,-1.65484465947566,-2.09357587633122,-2.15428600038331,-2.13988054887795,-2.2629888673473,-3.68086673882681,-0.473006098747646,-3.23587150148205,2.25214082883531,-0.53684626887798,-3.04910780228374,-0.436435437633008,2.15443678852125,2.80360207331842,5.22807161720266,-2.16108568146728,-0.378797357602707,-0.460947235195363,0.95569449435925,-2.6598524565793,-3.10565622066088,0.0676898449901273,-1.39277712502144,-1.22191687999202,-0.194177041564672,-0.144924156643356,3.29716503143391,-1.50376044563791,1.36186013335055,-0.384831825496804,-0.0244268863025354,0.130035217458044,3.82068090618395,2.79745531994513,2.47708448903586,0.0663731385102437,-0.16664911496855,-0.196149939571114,0.178802907794761,-0.931493710291306,3.27515547591929,-1.69310027437041,1.50166379224129
,8,-1.55979632552771,2.25167219929563,0.24068803622913,0.475016199593483,-1.99405104705875,3.23142175983412,1.20742436450337,2.32368640170534,-0.750027995789878,0.648300846284656,0.607692869109997,-0.387833553455039,0.618060938201324,0.744764292094715,-0.966818888434773,-1.96914454143371,-0.63756517627553,1.63607393136772,-0.159369961405901,-0.348120673656013,0.0594292458827113,-2.17304637069083,0.69618288784568,-0.095634433671421,0.752229132712728,1.14382228621662,-1.20330987927764,2.35106154529149,0.974403304513089,-1.63356431268676,-0.604862380084342,1.16758395696434,1.90605547921132,-0.527012904444746,0.289820692734793,-2.53738743729127,0.417169577871391,-1.05623587334912,3.29997802742719,-0.766966601622244,-1.33975885895734,-0.443512342255872,-3.10543250488263,-1.21884903715545,0.0114605426169874,0.71070392970023,0.175405125818543,-0.00928399123631607,-0.02985014121532,-0.313612967613608,-0.120332244720885,2.6852764977757,-0.974204544621443,0.45841870148115,-0.744138071479028,-0.723620745216977,0.0867390547850846,0.0171863737673448,-1.05048036616017,1.49658346319757,2.49358374747544,-1.16611786858175,-0.69586945653873,0.99333304691072,0.806313956400572,-0.258729358519304,-2.30692070764326,1.20170870460652,-0.134913254979438,-0.503912767413567,-2.29248990563383,2.1990156561983,-2.43755135089123,1.49857252028778,-0.960813049881381,-2.49511280494926,2.51529669680622,-0.789159559187283,-0.796978469490114,1.82543194983737,0.306498450877825,-0.452359508419704,0.496707358686763,-0.914748168627284,1.66581462659587,1.44725434057955,1.66704054886168,-1.2832127797833,-0.258474274727178,0.420761625975047,0.971160759274881,-2.31943514772502,1.29425701632817,-3.58641312376176,0.302966075805216,-2.57468149875922,0.581608495978799,-0.675752569304677,-0.21934067006805,1.38233709480164,-2.73772784228595,-2.54959685516587,-0.600871415053462,0.248414937235793,1.30358333012873,1.25349647656776,1.16344474130619,-4.11384559251837,1.00229029747879,1.39761965115486,0.633528735762866,-0.494720194703405,1.79324103152703,0.104390918945683,0.472346370491323,-1.47607062291218,0.917297222346406,0.193979566084636,-0.252549478816945,-0.14929306689055,-1.2974640300431,1.02492968644583,1.53370800733319,2.8739322440133,-2.57273860391115,3.98335761252065,0.570964329976505,1.31866169027035,1.78900450364563,2.20573405416417,3.01724103707556,2.79866246882557,-1.90496614099038,-0.816111317601099,1.45541668927581,0.341418604269165,0.840278692744505,1.48162964067023,0.692027395667537,1.14509063263813,-0.631861089216727,-1.44787719263968,0.0797297294411692,-1.46040325726699,0.858199474044341,-1.14765868665336,-1.81712034681141,1.36816503041064,-0.887504715351952,0.56222517019205,0.131325744197966,-3.04490573366729,-1.42220521908439,0.459273957075766,-0.358248523524708,-2.36849182411061,0.349047059407894,3.75579064597014,-2.23156365580144,1.00453527669424,0.231216317828057,-1.33649329781838,-4.3859775914425,0.9092184658316,3.33164771371685,0.311247925760199,-1.74336436409976,-2.4695682330298,-0.940485781095958,-0.109584932207781,-0.633282604445412,1.76041205596357,3.50357553760477,-0.768958953626679,-3.14399477095276,0.0612968544992327,0.764074649133818,1.26968887035218,-1.74593893365136,1.08621177469286,-2.04216419374688,1.22100876596369,-0.843368627002747,-1.09533882531787,-1.10441858632339,3.00511479034503,-0.573238179646978,-1.49262522674962,-0.181444057675435,-1.84488005500407,-3.4640070747223,3.30580856504002,-0.553863710973928,-1.87728894174643,1.08688222176761,-0.465655348916698,1.10485899239438,2.03349218354651,0.401169520646818,-0.14246802126263,-0.243351290220744,-1.7262672786178,-1.0351006360811,-1.94649043315894,-1.1320570892949,-0.65775369318817,-2.89798974535461,-0.434532386208957,0.104218450573171,-2.06234052514719,-2.48145508790685,-2.35122137374083,-0.972509110383726,-0.128201187231298,-0.492370914699677,1.41649400820734,1.91094447527257,-0.199055514469819,-2.25928858208999,2.25906519796308,1.3778398835384,1.84999272970072,-1.13341348235281,1.07829948549079,-1.86164037964227,-0.387078755358289,1.01832654133068,-0.964724772084992,-0.625947176764384,0.716075469953466,0.769805328196981,1.23856702780313,-1.14695394286173,0.862246353129649,0.322613364897279,0.46577346670756,-1.44921477577827,-1.00500603401269,1.76767781931903,-1.0159117742237,-0.340850234385471,-2.39347485983853,-0.833176441848991,1.52741468903196,-4.81767580575615,-1.38160393797625,-0.602445206304765,-1.01964508624178,-0.229156147039703,3.82566318480031,3.95149550879523,2.22858951211992,0.126763118314102,-0.796644354486489,-1.39320635158174,0.00782085578794067,0.755631324168917,-1.95141030571631,0.133782043137217,0.611523884816506,-0.966973176491592,0.131469699036643,1.3950088153897,0.915203715497682,-0.0368279981644264,-0.214738117083471,0.113622911439506,-1.21802477962092,0.443493287302772,-0.325003951983945,0.106392601469452,0.936770945510489,-1.2777145374298,-0.742173894559528,-0.633476962191708,-1.26513882532709,-2.74716906631465,0.365845558184446,0.750706164005351,-1.33381122783885,-4.27654304891212,-1.58408665097249,-2.18871098362069,-0.952688807129562,0.0887031699626277,2.16061376701828,-2.63998280811211,0.481409879673265,-0.649068780900052,4.09893360832075,-3.95286940318601,0.580695988679054,0.59589436521901,-0.542787577482613,-2.21296382690571,1.47988878765136,1.7114409624478,0.549700914576988,-1.83311091955557,-3.05159724882606,-0.393365351433204,0.926857799785466,-1.69824051121986,1.80548733729211,-1.20948221211029,1.68246482492896,0.801137748717792,2.29100403807161,1.14140266603999,-0.912924507598746,1.34144397037062,-0.559796205381645,0.0943719209026312,4.90135890321881,2.26184613484202,-1.57406109252952,0.98547745691576,-0.144616388926352,-1.91680010023811,-4.373044634302,0.474549403413675,0.534849774527174,1.33693507850603,-1.14823477836899,2.07835725583936,-2.38763110108403,-0.992698104776991,2.43588550195545,-1.38664582216825,0.157097566355787,-0.648303019699142,-0.988137694430407,3.528794284985,-3.37680845008754,1.97846352971328,0.616135668713923,-0.176409026931196,-1.90528790653252,-2.10756197270166,-3.34141955472705,-1.211994760783,3.39816500909637,1.89643353899964,0.264378882467099,2.12253302115414,-0.403369432748605,0.682166511567175,2.32976675294049,2.33936830359198,3.13855612238285,-0.758987232012259,4.04134814091685,-2.32888405952053,-3.47066873297808,0.0216671709081311,3.0675528830825,-0.952031875519424,3.67684155447523,-1.38032062815864,-0.316443505121697,3.44998720307194,1.01018219728348,1.28271412202957,-0.831633649534524,0.510854581752483,-1.73485079235616,-0.809929079615358,1.79027193511047,-2.64118957046821,-0.260708075233197,0.576117624823837,-3.61808187232009,0.554513026775112,1.75355473724903,0.325842951074719,-2.62096666163779,-3.08540943339767,-2.25121053156272,0.234936863921575,1.63520191359203,1.59686363458286,-2.90205332426376,0.311567281252337,-0.30884871647595
,9,-0.223492435058233,-1.3391656740605,0.142381362372362,1.89306779273102,-1.54088415010801,-0.730715453047196,1.36463326449848,2.09379517798425,-2.56380954169163,-1.61748150518815,0.741229756851681,1.21885472305939,-1.55387538853256,-3.25057750857968,0.634575834438692,-1.14393961732458,-0.50829330914803,0.47477997190208,-0.434438616514399,2.97306766282964,0.995800046988279,0.0568555669133275,1.23174226317133,0.0429994988717226,-0.0628378832011549,-0.324458778018652,-1.56482962394148,-1.70028123475504,-1.07758642721456,0.0662185735013736,2.04838126468985,2.27407975930191,-1.20343216476113,0.260065773811675,2.37780958827534,2.24668055259099,1.010050536775,0.752502119166365,1.11086330957278,3.89817622292594,-0.0287628522210071,0.936890424874946,1.90153297497454,0.147787102617713,2.91848712506317,-0.925686926583694,-0.0170119617514501,-1.82481081660399,1.1620703397607,1.94982820066116,-0.297080504208225,-0.410542358174553,-4.21135794518159,0.324557749933319,-2.05890439846053,-0.00132308094271139,0.00262931857014337,3.0067928534404,-2.00851493670143,-1.60009508057465,-3.07361021071029,1.22072228478783,1.5250261475644,2.23460850232732,-1.32500529015033,1.49369408892653,-0.723606619662405,-1.3320902156679,-0.0708197327762718,-0.768330491857341,-0.534035156572827,0.993578858384808,3.256100227356,-1.43537260530866,2.99125438560623,2.02577487948474,-0.700476146997062,1.3337591154359,0.551155297280275,1.83049320859709,-2.00638496475267,0.422492870399765,-1.86173131973828,-2.75191910464082,0.608491819103165,1.66728615462716,0.848626261845766,-1.66629852809683,-0.548291098712525,1.08410575550306,-0.92837969011407,1.54973086280052,-0.0166696978599248,0.5771408650794,-0.441135969794232,3.02482981063076,1.90036438061497,-1.70035269182017,-1.50731859402322,-0.653544843160944,3.18475290925699,-1.15271292252146,-1.29215614828718,-1.38812840086121,-0.260599690488107,-0.831969082551495,-1.92652265895686,2.75882519866491,-3.69576469768344,-1.80158161471672,0.181227608733479,-0.963428217410183,-0.34698958323861,0.718116014732914,-2.11399527858475,-0.387074820245289,0.195987021762448,-3.55020615063268,-0.915352033614909,-1.71479826518998,-0.671310528779031,1.26632021315845,-0.974794070643839,1.36441847916194,3.82409861922588,1.26662750759169,-0.579169922630172,-1.05092436066479,2.60485471815309,0.50496777039325,-0.880953455289273,1.88921709256965,0.663607689210949,0.338858780611645,3.07905714754588,2.32149833379663,3.26917727686305,1.46175629414302,-1.59366808992445,-0.332348604990784,2.89975048030192,0.199966485630739,2.21571277797557,-0.616454446455009,2.53608380194873,-1.97022716286665,1.27275897114487,-1.74802285182341,2.48181166235827,0.424622087923581,-2.43125568428286,-3.02795130963432,-3.28794686516494,3.96872869813524,-2.24062085798141,0.140716807497938,-0.510099371644628,3.08395733725956,-1.92760152490018,-0.744262792056816,0.741672019944417,2.90495598645475,0.551170339680084,2.96354105269666,-2.73719293073282,-3.24733425527893,1.61719514032302,3.19470050541486,-1.4362048516964,0.484067223907914,1.94613711914599,0.770401911710451,-0.321183671021117,1.54879811761111,-1.18467220258617,3.27263997454338,-1.33574503364116,-1.31969893804717,2.76657949244782,-0.940719777870981,1.34577452718395,-0.507761174852021,-0.249857976457861,-0.994011383946145,0.409857579241361,1.6698403512064,1.54387353822949,2.19823156709435,-1.22035954607327,1.72710993836245,-0.807698975513176,1.1861949289796,3.15454319987657,0.896140916749573,0.0445051279775726,3.5928557885004,-0.329318874562887,0.56950625115087,1.29946407387979,1.96463329430708,1.25353365361161,2.30867383984059,0.864427690395132,1.57566089013926,3.42876472011085,-2.62694169858241,1.41731498653326,-0.492287660380043,0.753010890981841,-0.230770643093365,-0.92553938177889,-0.966292045955015,-1.49118096917073,-1.42901100682229,-3.20149208256043,0.626185301647638,-3.59741763741931,0.2820371400353,1.59532354730709,0.361684088807579,-0.45127168794761,-1.01202307245194,1.77871460066308,2.48513473965431,1.54751407864524,1.06721081408205,1.23924781832466,3.39683046109576,-3.16339751238229,-1.72331834260831,-1.82515572082411,2.89663958531582,-0.494936443806637,3.03801012134454,1.30702397854293,0.25139419006473,-0.625273738737178,-3.86504322076871,-0.558828583033574,-1.68831040537543,-0.382087514183695,2.70008716502161,2.5228831750801,2.71678316424368,1.30785783681358,-0.271540185625781,-0.694087369398858,-0.194013229238408,1.27460651410274,-0.405692807605192,0.33262010881981,0.369544104361012,-1.22281875810086,-1.24311122565769,-1.26542053773892,-2.13732509170541,0.297057043627774,-2.57938534709683,-1.93795506896549,-0.253953767127314,0.645045491348355,-0.934939630433746,-1.39906975383337,1.53666348692423,-1.07052254756127,4.84827608028991,2.70532284648334,-0.626499351847542,0.86775257196723,0.768578352187433,-0.355470693711595,0.582457305257776,1.02845033763606,-0.867738474815269,1.16120881769439,-1.96444332205465,-1.72799604381453,1.61137861426687,0.52994234114567,1.37635836581694,-2.09120757165283,-0.114229737812366,-1.2389312770556,2.41078138967941,-2.46870300678393,-0.892974934015001,4.79637970072781,0.155702548663157,0.467391811824655,-4.77056394731744,-1.05162062660747,-1.60273177978615,-1.64433068435756,-0.136674451800445,-2.00551121995159,-1.9664267338967,0.981574429122702,1.44194618438314,2.46890541247558,0.782497777839126,-2.19686670381043,0.0711333893536903,1.65040405560603,-0.0857298671494391,1.73831304667283,-1.66197087420505,-1.60069853268578,2.35395680445026,-0.212628686416338,-2.26463681273162,-3.31795780750417,1.97574187762029,1.2873229385732,-0.8187824596057,1.66038818470452,0.373781395301194,-3.67315123309572,-1.04155637468466,0.0307830935730635,-1.80539402438035,0.508891198296169,-0.304722773690628,1.55342900125015,-0.705017048266654,-2.80956719976666,-0.517307025053015,-1.50881604892766,1.38029033976954,-1.02526223409586,-0.324600064204333,2.16977103167073,1.13700188302573,3.02701362745665,-1.55873610105073,0.584232875381531,0.728759385264766,-0.405108533692328,-0.0331796535256217,-1.74260089773225,-1.15104561325097,3.66182944980892,0.597336728194477,0.782344392134746,-1.52372485830756,1.00570897160287,-4.03038526655928,-1.5201113140497,-2.66447512373861,-1.84860321897395,-0.941116713700012,-0.856228096653922,-1.69399951341074,1.42651653592884,-2.02514442420261,-0.446796120019826,-2.76401016367436,1.36963044705817,-0.237011669789808,-1.70842478746908,0.413920846234305,1.48006035298522,-1.83097127932433,-1.10766693078267,3.93128594241944,1.58213093895984,1.25736558251765,-0.523633695980607,0.050931660680817,-0.254651387040667,-1.12924016930401,-0.800358941560717,-1.899605805997,-1.49863476938663,-1.05344106142775,-0.245713873031491,1.91772916679429,0.159192443775282,1.02717302552128,1.06347491676615,0.897774470440709,-3.14611285463434,-1.37081154147609,-2.95768181310677,-3.11389455433118
,10,1.27517170027704,-0.869834961395554,-1.06133884131577,-3.42463723150786,2.65422000629678,0.045195910417533,2.08467271215977,1.29521742875113,0.330641703539641,1.47788238966177,-3.31585482474429,2.00579484113268,0.909195113403712,-0.030161390507601,0.919102518013005,-0.741189910740559,-0.0179395152745201,-1.94601854516532,-0.458650744328679,-0.578412911254873,2.00097526564377,-2.24594346269168,-1.37965136958064,-1.08911640001315,0.924189334467428,-2.4617205765644,-0.77321363503188,-3.94240095534133,-0.934392053377906,0.0950506698259233,1.08871455662029,0.165235442033463,0.575941731565308,0.254768223192059,-1.13390809734528,-0.500576426142288,-3.60009089760024,-0.898703192046924,-1.26320375936757,-1.17806378039222,-1.50361932868282,-0.440443773104107,1.21831353640664,-0.506666674944427,-0.988021452831617,0.323342831123227,0.0188175233206493,-1.65709334724443,-0.441346100039027,-0.658292833230007,1.23460168417569,-0.981595233793541,1.75472460989977,-2.12947021931359,0.0560511166499964,-1.87816966419541,-0.261100140651706,-0.866747496726475,0.3202235702488,-2.19325380343071,-0.764224231884327,-3.19266724743375,1.7555822064719,-2.83810457618165,-1.49690349999128,0.222507949867122,-0.610298690327909,1.69592373950672,1.13347926567167,2.05760204064745,0.122387045377764,1.18298729397975,-0.161635044675677,1.39066038941473,-0.669383126561115,-3.30098697084986,0.253574711802685,1.59838537848191,-2.80638115452575,-2.85385039540688,-0.798929934097032,0.0154723676018875,-0.850639669994507,-0.4025406444498,2.02924296258834,0.27036631462579,1.9145466308737,-1.70072099136223,-1.2074644870122,-3.19524686824116,-1.06685741003139,0.404038124435829,-1.63294558566167,-1.18796118024284,1.89413095444479,-0.158912207225058,-0.620913536042735,2.26738496336202,-2.11441891056438,0.223595187341289,-1.09502301435577,-1.39664887369918,-0.508377593667774,1.80092671998545,0.766342145134786,-0.788859989216689,-0.776505254703352,2.14820765783224,0.240163145850147,1.4788746145091,0.540091534951443,-1.77987738543516,-3.1645268244697,-6.02889658084041,-2.21599826871898,1.88185407373203,-1.45565295516781,-0.895863136457137,-1.85719797590536,1.75107045138839,-2.01181710978335,-1.01246181011265,-0.297865289320271,-1.00355927068722,2.03029572203695,0.810296926179035,0.892500242011465,-1.00901519783747,-0.950999401228273,-0.137775629585121,1.018899383806,-3.27343393198043,-1.43979288205264,3.70304430566193,1.41134150804919,-1.46671172800461,0.521512140363939,0.86509011793396,0.480427011230404,-1.55966468469069,-0.68535277006913,3.47204748034892,-0.867190186247171,1.06528405673362,1.00578832808515,-3.09642317436465,-1.10341274507346,3.11538995279489,-2.54446644349036,-1.375174131736,-0.542334778432632,-0.715725060310888,0.248033199751262,0.969425548929848,0.294518010005504,-2.90268629495176,-0.121636720404695,-3.80368123095514,-1.68775510169235,-0.746143263451359,-0.770984934404169,0.983389965498645,-5.63830469053255,-1.12420294383173,-0.246595672615967,-1.88828664630137,0.637482811629525,-1.13984968026716,-5.06525519307343,4.44342364318118,-0.760040636979284,-2.7132056921746,0.0872826802619784,-2.3661791625691,-0.0955594676061082,-0.417988270463411,0.65751820807418,-1.69090824082923,-2.07881168034783,-0.755459767710818,1.38244994757861,-0.601211288344075,-2.62694754595213,0.268853094368296,-1.67296456562235,-0.652456112868094,-3.00169829276365,-3.77946483605592,1.27885770931562,-1.54014837764316,0.770059689765731,-2.02237457081219,0.0300906428428789,-1.98143591479175,0.236493029685334,-3.066405858292,-2.79833411666596,-0.408570509586752,2.18923356661298,-1.59753597137615,1.38554809658444,0.59667161586458,0.104172110480249,2.55759699395139,-0.927341730118314,-0.121769055170716,-0.952618058207463,0.350432929440103,-0.435043835042961,0.442694336074965,1.63176383694463,-1.75769408005908,-2.39543165242139,-0.828291023872225,0.116380371516698,-0.821863052127355,-1.58109911574729,-1.11141974600605,1.86089516455149,1.80993919775619,0.29816569740251,-1.14978966957688,-1.67872630623424,-0.504631780971977,1.22101002494082,-0.158357897332735,0.211184004750521,0.841823297105293,1.2138460004835,1.43589890816202,0.735002023252946,1.13355270659531,-0.883851053683429,-2.00676934296007,0.708686152498558,0.713634727094814,-0.178103727802863,1.73265288057064,0.902731137537558,1.28049541463088,1.95669240381085,-0.307342931144376,3.48725173747016,2.15392065195374,0.244873560735869,-0.463251735920494,0.996713943382019,-0.820907568951952,-1.01795347949746,0.308080535834051,1.72513838479836,-0.582359137494223,-3.02112179525557,-2.23854856603703,1.69008361081978,-0.297981152425564,0.392207058161603,-2.69489133179422,-3.19349406028596,1.14293570815926,1.38920860543067,0.891460148232454,-3.35830585718304,-0.343363006474647,3.68428487813298,-1.08094190772681,0.400610760089421,-1.20187085960424,0.942235474122754,-2.26811887191434,-0.467866785738352,-2.84595391306766,5.22988555930715,-3.90214468287104,-2.03850474810906,1.19165070190684,-1.39106679196948,-1.14400559416526,-4.325901854736,-0.405566268656457,1.20337926897582,0.7662098555802,-3.56341735973274,4.03183629885598,0.218834929891727,-1.85845725550234,0.54705179759867,-1.52719201771333,0.95179110100753,-1.86301891773974,1.3276628734211,-0.69494738847834,-0.6871441369899,-2.35704497451889,-2.98943095893083,-2.36979787599375,0.167700937380232,0.490339127309653,-1.19910011456204,0.125190927616586,0.352816606684428,-0.222523373241529,-3.66600238170395,-1.11922918246319,-0.151377580954886,-2.8237248555688,-0.308507621911758,-4.72936027663627,-1.97129285893197,2.52031863247339,-0.950386781560155,-0.569908326277073,0.926913325601618,1.56699306412793,0.840024420183909,1.80917095448513,0.982770006193277,2.16216663373507,0.634721851490667,0.647501297863073,-0.265001437104274,2.00753404725128,-0.885497880314233,0.917749732946504,-1.42499613286736,2.42517986325811,-1.72462933447241,0.488729940762823,2.66027069517941,-1.59763026412384,-2.62477270301088,-3.96171674295465,1.77297221211575,2.1288724768001,-1.36718428021186,-1.25219846997652,-2.37320282774817,-1.43731297069144,1.52243022322864,-2.23715166651618,-2.14490882792916,0.519358875288617,0.409019989976514,-2.49414644260969,1.57083451677227,2.1709247302424,-3.13821799721518,-2.18719373238446,2.34152263131,-2.61789849510296,-0.52905317777595,1.48761441414126,1.64244221473746,-1.20659029610806,-2.67587942016644,-1.30231343880268,0.517449208200105,-2.06639222865533,-3.62542355751384,-1.20251645013741,0.153975848089885,1.72040752595922,0.346980113444261,-0.552242962510263,1.22910130071568,1.13704130992483,-1.80013728690074,-4.14016493949885,-1.5049609144653,-0.469065454268275,-1.18940031938155,-0.763736584013714,-1.09872503237466,-0.877185582553011,0.604085524364564,-1.39719489831805,-0.612773432873837,2.06704111795352,-1.40695501984146,-2.98567847029517,-0.204620924796473,1.08487581164627,-0.762102170027447,-1.28669687869569
,11,-1.78376130991592,0.102619921945916,3.46736720448916,0.79293905350869,0.320680357703623,1.15590477466776,-1.99696433857434,-2.83040525253955,0.895800940234494,2.31615645014108,-1.79962524849088,1.76078474242786,-2.82119915095018,0.294972052792673,-1.90582275273027,-2.08013979533098,-0.797234100257811,-2.52220823764128,0.498976135732391,-2.85894729009033,-1.82175067140815,-1.88164130784571,-1.46990461507357,-0.192333602315557,0.630154747987035,-0.931967167650328,-1.96668994465972,5.12547654401487,-4.15320801273765,-0.301712088968088,-2.03985520551441,2.0825616756797,1.85241123192191,-0.338181107435048,0.969871942316786,-1.8390571778059,-1.59864802651919,0.0428016244809442,1.61109966241747,-0.939868256166847,-0.957370105179507,0.931588738961182,-0.475167230845727,1.61291239662933,-0.90640189920714,-3.36539231016513,4.33456409414703,-1.61334262794344,-0.00367944969502787,-3.16748593268812,-2.05519467527529,0.116674709558538,-1.94632179409382,-0.731257450243902,-2.1106174088859,-1.75936087793798,2.2505011512103,-2.65626812901473,-1.34173464458263,-0.360656778947941,0.212279582040992,-0.629316426011428,-0.550812625050185,0.357837727078731,0.134403152625964,-1.95842335477209,0.503013564393314,0.0915382241278166,-0.172512154895685,0.975139645377112,0.0378140777415865,-0.397811621654,-0.35195450776655,1.38201740346403,-0.821760021359751,1.59357604649676,-0.14057504974744,-0.286555800255428,-0.22757375903393,0.308792311559955,-1.9852708822832,0.445648303914368,2.85351539597741,-0.759181815428747,1.07778931417306,0.278594243992302,0.0199412996994397,-0.381768337374524,-1.1405306813781,1.35467083795447,-1.06853472978992,-0.49076600925946,3.52135189592354,1.04797020023489,0.794447800506987,1.02281138176659,-0.992228167818212,-4.1579177174267,1.45082841893873,-0.49911110294579,-0.287306105030893,-0.325039836695396,-4.32805961415897,-1.16894442426792,0.95500013812898,1.88519741047367,-0.463705221034616,0.483927845779817,-0.651893917518464,-1.83984263172852,-0.313590031305466,0.128196729202045,-1.03352269958896,3.18867885758618,-1.0642323166976,-1.17994669243626,0.1752803348013,-0.582694101650759,0.237146670399852,-0.0151805818609319,-0.984753109387384,-0.971036111562626,2.46299398089195,-0.160184006671898,1.02651974534956,-3.73808779756746,-1.19031024352535,-0.128288141328539,1.94233277409876,-1.3921264854871,0.0032609572454021,2.16281167981697,1.19272599101123,-1.32974220354208,1.45115044352724,-0.601283886489,-0.172213403251135,0.29958234218384,-1.75874629354348,0.335213814757481,-5.25965253385129,1.33319863097586,1.13506528630205,-1.95702315268773,1.53585853529694,-1.17787837148308,0.536390254499111,-1.67320953371382,-0.806121023421383,1.98726897120605,-0.78109849855673,-0.829811650874944,1.45504219824261,-1.41199691831116,-1.32008421979026,-2.57542684475447,-1.16771889371466,0.598208901349153,-2.57705293395884,-0.426169679600662,1.07712409916257,-0.827228790519257,-0.372957525399215,-2.04404608119148,-2.6018927122409,-1.26683348571532,-2.31125638199455,-1.65911441664548,-0.233031619428402,2.10317829061614,0.078166398223857,-0.986951349507308,1.98937761601064,0.0484200656319445,-0.796055919302489,0.298438583005009,-2.53349393995222,0.262534285862785,0.535280691040043,0.372105608629681,-1.12834892173305,-3.32816378184907,0.155278642961548,-0.330812897336727,-0.656905561010717,-0.165463827857366,3.1982971058992,-0.451233498673901,-0.172263598817153,1.08299108784104,-0.902168794467343,-2.12290004304396,-0.864319004278059,-0.149902309743993,-2.79522674925011,1.0825327837515,1.37728866982616,-1.21048605172928,1.98099021368171,-0.431092185156558,-1.98414714507226,-0.162872039702506,-0.697363252990726,-0.56766074673078,0.672770826467968,-0.707753091894119,-1.65462725451016,-0.343213512404418,1.32280637717395,-0.393411665760141,-0.397424144727211,-0.0832540375577082,-1.37567743256386,-1.848783770507,0.63353511766536,-1.87830460504392,-2.77687836449832,-0.841616627458279,1.68516169542227,-0.79837754035907,-1.15459294095808,-2.90937569030484,0.32509972268781,-1.91913605355239,2.0774900100314,-0.676164689850339,0.540014898706431,1.57095776212282,2.13720624109919,1.50337047820449,1.0114039405039,2.13832598921726,-1.01747867580252,0.706138033993739,0.166395078962978,0.113988797437287,-1.18229953292666,-0.492005110045739,2.70202217779388,0.509400161451595,-3.93874131550774,-0.217904328832901,-0.684099039752709,2.08199854376653,-0.752182355534387,-0.553268703407412,1.39778768493807,-0.165930796856628,0.51182154573371,-1.48689921242021,1.7701623342864,0.140557433631329,-0.292126336344609,1.38307417880833,-1.73433685116015,1.65814451134975,-0.298438338509641,-1.41337642074132,-1.76368009800626,-0.649426450796,-4.57816728077523,0.080545695404453,-2.2786311101022,0.630539630777093,-1.55743265068122,2.8545169613426,-0.979339678754968,-3.49354659291794,2.97557833349674,0.579274453325525,-1.16707172657743,-2.59941973212744,0.145738234867622,0.898372981982902,-1.0726750824565,0.338413226029388,1.91684515023007,0.150825852712842,1.15745593657857,-1.16410292248565,-0.181265934297244,-1.01148234267748,1.71404603723659,-1.16321205321492,0.357052236487107,1.15218256888011,-2.40093191015785,1.31596563756148,-0.352517420624736,3.79264317347679,0.207964574336529,-2.40062104861909,0.939720806359219,-0.286457163164414,-1.90728442282307,-1.41162120959143,-0.643229735046134,-1.63977162579658,-0.757059455112085,0.290703996439333,2.13199961245164,-0.526618525731465,-0.269247600715971,-1.47685611994484,-1.40472813132828,-1.69695165771009,-0.257670771637095,-1.22184116379822,0.318496188179324,-1.45206324938408,-0.659277867601759,-0.280615814539033,-3.23185939757832,1.16829942916092,-1.53851769178846,0.340062357059196,-2.53017767652591,-4.46897278671759,-2.53444450888719,-1.4216415019946,0.459902129098737,0.0266555639273065,-0.300447162740511,-0.669261538466344,0.199504126888314,0.635320760521154,4.51306287069292,-2.06035924917387,-1.74621348665823,-2.97540255513059,-0.200664785859317,1.56693340173706,-0.150987643964527,1.15562278139441,-1.55171012421306,1.03348657626111,1.01001247031127,1.81021677836179,2.16801297457732,-1.59294859232568,-1.38353072945301,-3.35014448785796,-2.34253928438466,0.706094179197862,-2.27287837204995,-3.9054366214018,-1.14143242606951,-1.62797533632647,0.868547285613204,0.82014090115581,-1.3742025574461,-1.96678239725225,1.37664136200738,-1.99210580604904,-2.58698966375141,-0.340350783601934,1.77867993729478,0.779976906705087,-3.55155486074955,-0.307866137153269,2.08898882117956,-0.593864617132112,3.05362404448169,1.596178715105,-1.97425405407967,-0.640361622776709,0.846537295513826,-0.761363982210241,2.82311964620612,0.638864785094029,-0.348469279899746,-0.527784495600372,2.11280698004339,-2.7815781589934,0.807461551061351,-3.95079170576446,0.156690412476109,-1.39216743027282,-2.68342829482663,-1.60647162369878,-3.49902837575473,4.5698601737131,3.97423576619985,0.327196029055358
,12,-0.828097250380779,-2.2460602196611,-0.255281805005779,-0.584547749389003,0.724150764951901,-0.762758252354161,0.262504852057191,-0.506593128871828,-0.192903441833096,-0.927666661598323,-1.38335701918368,-0.199867856156743,2.79908853506458,1.76951018469981,-0.595332115033671,-2.00734971082693,-1.08446368754539,0.691539625692712,-2.5157728513077,-1.04683288765273,1.22860574136803,0.0592349938137886,-2.32735988197601,-1.43952046410868,0.550507212969023,-0.575765038730879,0.352406806399358,-0.537994716511093,0.976378331455635,0.107775357048467,-0.00372092154293568,-1.37126046235244,0.248764872278116,-0.980987984634339,0.320826025867063,1.40457877279732,-1.58507200108352,1.20891524870967,0.544960988029743,-0.314575780571431,0.0392517662335194,-1.62949464259191,-0.978344091692179,-0.883020665973163,0.0621370268509054,1.13576510792473,-1.761500129865,-0.213636129167753,-0.788145274985254,-1.31289975161644,-0.938773602478705,0.0371678883257118,-0.0330323974526436,-1.10195495546805,0.738544285001808,0.177402855028049,0.504140063822433,-0.609103964099177,0.751764915922649,0.103236864604696,0.477446450942352,0.393220305251816,0.134111776113059,-0.201188965452275,0.727110956150682,0.213928413601479,2.60720067466491,0.764321208646379,0.924276780128821,-2.17146510163548,4.76555898156403,-1.79226593071689,1.05829393809654,1.23809827477135,1.23377352835132,0.792070996563325,1.40938714911908,-1.56909668215303,0.570142194743312,0.49724167137947,-1.0796716170621,-2.02476204461209,1.32129086230907,1.03597278249117,1.53276760388053,-0.273929892640808,-0.99219710327543,1.10040671936304,1.63796869968928,0.91081767733067,-1.41098798991879,1.10047489485578,-0.216581646680424,1.0333116964689,-2.22042260623812,-1.27680132048818,-1.86931179617477,-2.51895104279538,2.68041338314333,0.309974873041028,-3.57064008900306,-3.06448648452351,-1.79730736938382,-0.252291662743573,-1.31392265693603,-0.0690360225885343,0.984592047346723,1.05141667046519,-1.54881668676671,-2.75399314949846,-1.38828901755051,3.30097772613135,-0.374346233240885,-0.168216118188866,0.658753657642137,1.99289906842432,-0.0222214438249466,0.848578902209283,-2.84910013690524,1.88310384172291,0.174125364131669,0.907519540915928,1.83775857101136,1.2607050016918,-1.22686082162136,-1.52933174382451,0.627743130940871,-0.00649853951745172,-1.85284479220809,-0.612548234393216,1.09941460587333,-3.46637456918279,0.82120334252204,-0.69248417505878,-2.45289935682467,0.353224059776039,0.122543195486287,-3.3135694072248,3.45846517660175,-0.657897367877922,-2.82899483031451,-2.2318814773048,0.361851845233559,2.83235998198506,-1.58600041053796,-1.97480007335298,-0.998184024447255,1.27329916145709,-0.395927802293954,-2.55070869466635,0.408004943499691,-2.964526181785,0.226341942288855,-3.38967901697788,0.207541050156578,-1.85420027274904,-0.315606398901309,-1.91066681899201,0.26592560241852,-1.65315604822172,-0.761970426966855,-1.21372652167611,-1.03473297536175,0.636330728070789,-0.844533952626989,0.347450051216128,-0.0222367333008151,-0.366415002984922,-3.20882644808853,1.21695769053622,1.62708964455396,0.893625340089329,-2.25834937692116,0.12723238640001,-2.99961534157319,-0.766206954303925,2.11577377278627,-0.451845647306072,0.426722166506352,0.599683228565027,-0.490765004921286,0.578170605141167,-2.96848433027844,-3.06041310514365,1.22480019377736,-0.363046068870972,0.671580321843066,-2.46605441893462,-1.02572384226323,0.309313447008208,-1.55648205547232,-1.28098401843272,-2.24043447639269,1.80038803369189,-1.82644332740983,0.0915822833412676,0.3392639675385,-2.44348017314996,-0.20502965748301,-1.6043204469056,-0.751591334714703,-1.22986859086404,0.135837011812782,-0.787533065966272,-0.359317781024401,1.32237543233623,3.15343072008909,1.82968416498852,0.735920221378819,0.337271766346021,1.2303308815317,3.07968274292534,-3.02276725948195,1.43879608795487,-2.76007202666415,-2.28844461221024,-0.194761280965849,0.9830635796975,-2.29240482523164,-1.63801657215481,2.00594346312346,-1.1522466656038,-2.63014134931245,-1.42011134177392,1.03021747424009,-0.250971146752818,-2.83946157785613,0.784728120563614,-0.20909461448673,-5.48464402949094,-0.262562905445066,-0.128257565897002,3.60843604534784,0.948701910946966,-1.32622387356832,-2.32588114195596,-1.25627528105178,-0.0164131157735028,-1.20218873738031,-1.05731189790004,-3.32798636995267,-3.98833421857807,-3.20659992460833,-1.74827479509941,-2.82082654145006,0.556961995144775,-2.17832426209543,0.648727427971608,1.51083010764842,1.78868115992645,0.108009514447986,-1.61272706581212,1.15920722176088,-1.80613027315212,-1.00020575659028,-1.34077961089179,-2.31925115656213,-2.09396481722843,0.53898444116885,-4.02547394010071,0.744238085786037,-0.792638062610877,-0.168961205594314,-0.92185197754543,3.37605446544512,0.452185366144477,1.24063130195509,-2.10907747244482,0.0618360354123979,-0.927783968380027,0.121360733432084,-1.26274814727185,-1.50540989999627,-2.62557225092678,-2.25906175572845,-4.0627244481102,-0.289884002527288,-1.76131992095134,1.26284261017963,1.22920527486804,3.62835726012509,0.367487237977912,-3.32913162384602,-2.44392513225375,-0.566013994262903,0.847785369444409,-1.64365439896028,-0.829710997568327,-3.34503804006727,-0.0171926148436796,0.260693730986532,-1.55969232469488,-2.7266182920921,-4.41396566414187,0.664974228018764,0.792526359500243,0.115082035652904,0.281189277970498,1.07693893649093,-1.70344138597375,-2.92519051839508,-0.800543855981232,3.44046731580011,-1.52406155691597,0.571818387526946,-3.14222202623068,-0.773504288628828,0.369471855766733,1.29584285883448,0.714486088265403,0.4454642205651,0.488742796292627,-0.606003791622697,0.0042336688911746,-0.0901751126034469,-0.8366046513529,1.40534980940265,-1.85489272473069,-0.858672388009836,1.91579218143124,1.21354016928717,1.55745077364008,-0.872898853667266,0.401196411390629,-2.30443863767732,-1.31129097933081,-3.96583951695357,-0.00390784470255312,-4.85375717158286,-2.78896341378868,-1.67511760251591,0.28579080615782,-2.80448398422595,-4.05071872157714,0.378095647358805,0.57835396149494,-1.49625552399857,-2.50279037077053,-0.0497773778206465,2.50541380732648,-0.601571903487184,1.99073828429937,-2.30472678604974,-2.74920519158241,-1.45263925209474,-1.61915679143976,1.27317281930618,-2.03216596210586,-2.80236516223977,-0.0677087121571276,-0.663621644347131,-1.27397029514577,2.07292553161187,1.46868538472972,4.3604076917668,-0.441786040437819,-0.630674958040345,0.42188695529876,0.439862228379297,-3.17091624126306,-1.15842028668931,0.426135714692009,0.529701313874739,1.11962066078468,2.24563522726794,1.52568245807379,-3.05702990075451,-2.75002139740036,1.27995613666508,-3.27907102309018,-1.75219378793963,2.54263283602359,-0.161620007500005,0.310958698641116,-0.0655190841548574,-1.65809545008642,-5.03960667536739,-0.790571573269062,-1.78448684460636,-3.39273229961555,0.472282072628332,-2.86453143098106,0.005436784331323,-0.0817316093084628
,13,-1.88746137326916,-2.26701394293332,-2.00583237575984,-1.81496877568179,2.05746190495802,-1.62666969580459,-2.60157355146521,-0.722911326215581,-0.344088384438692,-0.533766904576169,-1.48698429356818,-0.650245368644391,-1.62871829240294,-1.61995409910742,-0.717940537449522,-1.13455684829114,3.13090886579857,-2.75564003843647,0.434590886304704,1.40979994830741,-0.614914867299376,2.29191060482162,0.323892858009458,1.02843822699606,0.453413162721972,1.13244182467861,-0.521462937986144,0.0791678745013087,-1.53721678360398,0.41895343110491,0.462880178792602,-4.52721802161977,-2.75227317590497,-0.624559339479219,-2.73950332828827,-0.052613766966715,4.32085796543606,0.926664558179709,-0.612700153952119,1.83634511823311,0.335280160715229,1.54280740757622,1.87468024664031,1.38513359544413,0.290264700608077,-2.64847777822706,-3.4304396294433,1.86786578288775,0.18669033677952,0.2619642667687,-5.16362785133651,0.472325895340873,-3.39933961231691,-0.118028344374125,0.965159198213314,0.569244988741502,-0.0304769323061009,-1.88982516836086,-1.63771732094438,-0.184488469741609,-0.669819050868682,-1.28531975658689,1.90609139861363,-2.99505481717142,-1.14038392892826,-0.44833030694781,0.790478081079073,-1.10968493558357,1.8406742534612,-0.0891696614248758,0.623732312757056,-1.23794460082672,-1.33835624914218,2.21066565975934,0.463523664959212,-0.58877435189379,-1.75207130664103,-1.30622395044793,1.91415700510925,-1.76551302391681,-1.00068727009693,2.62074452217303,-0.222228619293219,0.433619966390779,-0.482423453538559,0.686693295654095,-1.9149088025074,0.191988315736126,-2.36604542882333,1.99039877113273,1.34430018675948,-1.13586973834299,0.605297069681001,0.755212162580847,0.275394892726581,0.761260309848694,-1.24129996695865,-3.20161871387791,2.31863459635088,-1.90120127918408,-0.217400182925303,-1.69875066162376,-0.365277315016556,-1.04715101023476,0.855694003982535,-0.0738323173886783,0.102303376034342,0.791826103787116,0.152382131564991,-1.32553180242076,-3.72615128100779,1.36480960759491,-0.677419153735173,0.221029693180753,1.27257716770737,1.35970732319993,1.52949950583798,-0.123299137205777,0.251888778033845,0.133605567410541,-0.353282726638099,0.685173620584465,-1.24545090082438,-3.29345214615387,-0.276653296629775,-1.55845714718316,-0.548892009554038,0.240801899313283,0.129593851740538,0.300546868544643,-0.317656255457678,-2.22566287951122,1.13858598167462,0.952516636574273,-1.20513117882956,0.0392663758557319,-0.460013297985824,0.834509369060015,2.03669935626795,-2.65095697740389,-1.2364565752996,-3.62512604562335,-2.28138540162126,0.464066642498437,0.248729883621309,1.98873605580002,-2.62225538161056,2.61038117119188,-1.63789619896079,-1.06716568635693,-0.131164094604173,0.56824777453312,1.50413606183292,0.566605527103093,-1.86930320095416,-1.03301371177167,-1.15472070539045,-0.661894812139508,-1.11486542897819,0.242610923414759,-1.20073763936171,-1.11891979314987,-2.69868582095341,-1.63334483652852,-0.844179497323239,3.24540318098479,0.493387468673973,1.09638460420229,-1.65194543574489,-1.9947535752226,-1.42953139631572,0.498849826093192,0.0939061963299537,2.35818016168923,-1.60159669552559,-1.09579073324494,0.204733515818589,1.28036138666312,-0.686401852873132,-1.68876085888269,1.20785216167451,-1.48571593445513,2.12758972036818,2.0363449484953,0.130274160476347,1.91018615947542,2.82622660915922,1.4942988938742,0.108454480327055,0.897125660599613,1.43162794470709,0.0173813284050084,0.172667384396846,-1.93007975364026,-0.182643639048365,0.158820640350768,-2.32419540117053,-2.2593310324487,0.753036493807485,-1.15221477190153,-0.394050033816711,1.88036572143119,1.37793396169718,1.70043873433406,0.557079234879893,1.78564453051922,-0.847083514989208,2.49750622216015,1.48980229349718,0.811829435714571,-2.77356428616986,0.0221946265055522,2.35510759410272,-0.472477110925865,1.19617094245586,-1.02610839670842,-3.39130742812813,-0.420218795061828,0.953914982984315,0.720494311548919,-0.0394025585574127,-2.8162643145638,0.452589760458523,-0.797991481428653,-1.30978240901686,-0.262261364386632,-0.981486656398829,0.0302987203144767,3.08780193994016,-3.46163263534436,2.3326836694514,0.229484980327015,0.0308385629150507,0.316281010873354,0.792265518179192,1.83366681047391,0.198983079767004,4.61241548298904,-3.17645831832078,0.494408225008101,-1.32298551342819,-2.35688469295383,0.481613900689354,-3.9532261653053,-1.90661243399518,0.947536050079179,2.31738972515177,-2.19170087810699,2.46359518516874,-2.27382732934711,-1.07969241723777,0.0534169852767263,1.76504225788904,0.191612928774248,1.30281255025329,-0.883541228725335,-0.939339953719809,-0.425430697366664,-2.07482631058019,1.92607810933896,0.363018714716873,0.741257106675221,0.706387867771809,0.802692793969982,-3.01771552988157,-0.479961668640499,-0.883807181027805,-0.219607885317146,0.818259967334598,-2.22898139439394,1.52502146489269,-2.58193139212426,0.556729598697984,-3.36461235704701,-2.98926514283039,1.73808158294969,0.802488665428427,0.511548704706456,-0.987188808694555,2.69239660855965,-0.49473907524316,-1.82577039265288,-3.50865271285829,-0.2306500361301,-0.15150432921746,-1.1241695688459,-0.0980261984468598,0.0928522562812759,0.00205172961796052,2.52619228432332,0.787978009360359,1.21319709144564,-0.789141740463947,-0.798895124164574,2.23289338793847,-0.444297343529342,-1.07409161004489,1.76482767401512,1.47924667799498,0.931528928926582,-0.456889836685605,1.43781450538836,0.279993186656611,0.867814765143976,0.506879086231947,-0.144145621935422,-1.83637624718449,2.80297838410252,-3.50290390923556,-2.26990960742205,-1.21734674116078,1.46348260579589,-0.866110276843756,0.0888470092672833,-0.158621449418661,2.03454169746919,-0.464336712987915,-0.917957648861375,-2.30139236142486,0.464267837069656,-0.878873790541547,-2.64125979988012,-0.678253964703345,-2.18664089243748,0.834861950109826,0.32369969656429,-2.71098947597511,-0.505227203267623,-0.877188704376749,-1.18667124647482,-2.24503214305196,-2.44220436102069,-4.01770492143623,0.390899418427125,-0.583462602772215,-1.44095234254701,-2.14363691238577,0.329770603836096,0.469906210935733,-0.0393682487506339,1.22426274577219,-4.06257787576033,2.50599901840496,-1.78711486631073,-2.03762624255023,0.146043098463906,-0.130818913742587,0.670309464812817,1.71915084364855,4.41175781639868,2.05199597375258,1.51475815310914,0.739234537866196,-1.93743110447394,0.42270003237536,-2.06912519120533,-0.0843478012011474,-0.966781902469847,0.921434460151886,-0.889086969978962,0.388175111083001,-0.786466072098847,0.0738404184548926,-2.24070212162223,0.745675159711482,-0.232740529822422,-0.934665570011475,-0.318085042395978,-1.91854643612487,0.762984338607566,-0.335047953853064,0.180876254314171,-1.00104864057539,-0.00639457449005931,-3.23738607681162,-0.192626800862854,2.5475066068243,2.38697716141132,0.884242337333035,0.432224088307976,-0.00504022379573144,0.841475822698158,1.62406526113591,-0.738891300749401
,14,0.959963273750418,-0.989131059546708,-0.811437410148756,-1.77146896142267,-0.698651953610806,-3.37934412042023,0.19417287593933,-1.13739117473733,-0.672349747329463,-1.73164135046773,0.0923896830886406,0.470194086305582,0.176860024913367,0.694760878323905,-3.37675012218551,-2.85133875994688,-0.42370303130383,2.88600518598014,-0.390523279058016,-2.95482618294955,-1.89012679448024,-1.53945518752334,-1.44207444788253,1.27747015948307,-2.61249137081904,-1.36613517356363,-3.63976045434219,0.386600570127484,3.00535044734397,-1.29006868526767,-1.95968456165656,3.75153015169735,-0.353194722267745,0.50949570029934,0.330819760876238,-0.262031242268677,1.46039332719647,0.478940391576998,2.16734694450406,-1.3551599423995,1.93412601707632,-0.867290073098957,2.4622609402677,-1.22264799949198,0.371216039100091,1.09404069854827,-2.63651629637252,-1.52173645426456,-0.902199485294659,-0.879954242245731,-5.17499317205011,-2.89723079526675,-3.82670674212159,2.1979916486539,-1.52821763451493,-2.33207673416791,-2.69780337668044,-1.49548589043661,-1.13236164058844,-2.16132177805503,2.30858530997102,2.93448785519831,-1.84493735313754,-1.23275574958143,-1.12776662779652,-0.227415397182085,-1.2650252634653,-0.779995059485827,-1.98844763131319,0.834714691851332,-3.41993817823231,2.4931104624161,0.234044596067633,-0.0119011790243349,-1.11485812438332,0.0348240963089665,1.93008283888275,-2.34108364121585,-1.67022234292153,-1.24887948811283,-1.24214089507541,1.47163672736451,-1.12660098147535,-3.74952376742704,-0.240720477596369,2.22761743457249,-0.598098714197022,1.38303877226008,0.36266341861301,-0.596346128272216,-0.495515625750159,1.2262100882981,0.638846183257556,0.978967688768535,0.797378486186062,1.45641708054291,-3.70334699870591,-1.54285873112622,0.28360001887404,4.44371312291014,-1.4633086888839,-1.01320222875802,-2.09234048984172,0.711062049678276,-0.210424253257315,-0.294598731524275,-2.32367297199562,-0.497764329537858,0.993712661064819,2.48020927211746,-0.17505652141972,-1.46321435432583,-5.95774156737116,1.2606180581065,2.95751190100873,-0.368862013599028,-1.72373317618167,-0.82393974071465,-0.344704492618803,-3.84765954525346,0.781044021212892,2.31311433460633,-1.74677426905328,-0.471219686732638,-1.69623372625028,-1.89044852829193,0.939638279178325,1.50717273050032,1.21880978708987,1.59924345072068,-0.457600685143007,-1.24103061177539,-1.03981651758295,-1.84524523424443,1.28389973047615,0.190618168102901,0.596156116016118,-2.3953677365962,-0.832717790083279,1.0316117599682,-1.50727014678432,-2.43181133693633,0.893981771055678,-5.2798633674156,-1.38603057687487,3.4651231934572,2.05136213488822,-0.463114296142066,-1.39556886660557,-2.92065090894357,-1.20987767993165,1.79213566776116,3.33275239709019,0.363658487986868,4.03489702941988,1.02452402500376,3.18248540868399,-0.012998813087961,-1.88546608684601,0.794983587630668,0.943904682539142,1.25123767979767,-3.48486902097056,0.772967547890403,-0.686017786597859,1.66113474805479,1.07629461703482,-1.11649494964786,-0.855320031261272,-3.51725250167055,0.12398663809563,-1.38677449139277,0.477094185469923,0.592954386612746,-0.928280610006823,-2.01985378156314,0.698723057802454,-1.54991338752734,0.458281272949989,-0.452220477968694,-3.37867638209082,-0.5103045747137,0.655651197032967,0.845559330484775,-2.23006876179443,-0.919803609488099,-0.665452387731875,-1.25563433480738,-1.01146476684698,-0.647579698283153,2.09535943171841,-0.953798954976719,-3.3752613007523,2.19396020129625,2.61429770721998,-0.631591522402232,3.23467548954159,-0.2855758729429,0.108229690876215,-0.65163021922308,-0.300697260798643,1.22068001161051,2.47755891211045,-0.103904255263387,-1.5500186330728,0.520305425771312,2.53611332519495,1.45459320711961,1.58050263995756,-0.672924204662195,0.481715652853381,0.871161396436491,2.48212222268694,-1.56915490994743,-0.368211774324664,1.79454956978816,-2.83447349331027,-3.71179265222918,0.291336407072322,-1.57245753579082,0.660004449952339,2.47126281871215,-3.67549256865277,-2.04103279937908,0.229692146760954,3.03667275472753,2.09037790258935,-2.98029574882457,0.180367660937009,-2.6799885950486,-0.635202664367171,1.75553685662226,-0.0253931758434192,-0.297456756676183,-0.105168680353472,1.21770265653049,-1.5425586228057,-2.29370342732955,0.0707353390339449,3.18150540332044,-3.20927617317102,-1.20817287724458,-4.44994120259571,-1.03688640644759,-1.84564200132581,-0.875499211629631,-1.07497795764812,-1.16172393264969,-1.61505828474401,-4.40659280893397,1.57202697626599,0.0200909109180429,1.77839479760951,2.250025413819,-2.29980353078281,-1.2404284961649,-0.176477640656685,-3.0952156545859,-2.18720980291664,-1.76423471875614,-0.0750695171209372,2.81835973527086,0.433970243748263,0.419454100237544,-1.95461310583232,-5.03508399654629,-0.562384839773131,-1.09835330126316,-2.47175535480892,-0.189949742427871,0.275763293035652,2.14866002848885,-1.78128819513813,-4.38390431509606,-1.37883080245319,0.0238443771991115,-0.683232546945419,-0.314344098645051,1.26444153317516,-2.00379174526097,0.555197376114847,-0.907750186946487,-1.75339150431228,-1.81330307982807,1.94901653502166,-2.15199600608094,-0.0757860110161346,2.10151793876003,-0.144588035836023,2.754503635123,-0.646763802402802,2.38178998827152,0.685222637689549,2.13575424106921,-1.74781199732752,-0.331722084726607,-0.920881120385275,-0.85389765607124,2.22326371910412,-0.736097605547002,0.386037019362902,-0.658352629700858,-1.0087277119942,-1.09385344523889,-1.64118096240509,3.8943927030864,-1.17405637846832,-0.517093839894642,-0.201985341414911,-0.694225975474183,-1.48677281230084,-1.39950209291101,-0.451081993845946,-3.21763534078127,0.743140709997533,1.20272595945016,3.07644156329434,1.12809885141905,-0.00562893746882764,0.261617545660556,-0.682616360974407,-0.21353157601834,-1.78945526598909,0.0979466346752815,1.45999244125414,-0.134475391818341,0.291402632947211,-3.32937148769497,-0.106973353228568,-2.48051645979604,-0.325689908024742,-3.61374177653261,-6.57298579000235,-0.841350957572558,-0.74006290275247,-0.305902017365497,-1.97744573515411,0.763120824740327,1.88624454153251,0.601729105587765,-0.883214248695367,-2.32048925360959,-3.72157804704193,1.36471043490337,0.721417445404768,-2.17967778693264,1.15708554513549,-1.8405681076415,1.21785221464643,-3.61428969181588,2.0549443693285,1.54875087071105,-2.05466238803956,-2.54373297180291,0.650146580042929,-2.14798208828279,-0.687590683406597,0.298997159366536,-3.06091271466039,1.63931302325227,-1.48103556118167,-1.34700567133632,1.001332742248,0.0963871122480668,2.31636985383602,-0.652396844678606,2.54912895828465,-0.610874437156781,-0.0549776079055846,1.40802921897512,-0.581466253390317,-2.99169495015394,-0.0306827114918633,0.114830891610836,-0.692174588152284,0.257510424946759,0.522268461952081,3.62399237918635,-0.788911383411687,-0.00898185983805888,0.442803755586283,-2.62714016668315,-0.219398271681712,-0.297887493585677
